; generated by PrusaSlicer 2.7.4+win64 on 2024-10-28 at 22:26:45 UTC


;
;

;
;
; 

; external perimeters extrusion width = 0.42mm
; perimeters extrusion width = 0.42mm
; infill extrusion width = 0.42mm
; solid infill extrusion width = 0.42mm
; top infill extrusion width = 0.42mm
; first layer extrusion width = 0.45mm

M190 S80 ; set bed temperature and wait for it to be reached
M104 S230 ; set temperature
;TYPE:Custom
G28 ; home all axes
G1 Z5 F5000 ; lift nozzle
M109 S230 ; set temperature and wait for it to be reached
G21 ; set units to millimeters
G90 ; use absolute coordinates
M82 ; use absolute distances for extrusion
G92 E0
; Filament gcode
G1 X10 Y10 Z0.2 F3000
G1 X110 E15 F600
G1 X10 E15 F600
M107
;LAYER_CHANGE
;Z:0.35
;HEIGHT:0.35
G1 E-4 F1800
G1 Z.65 F12000
G1 X125.791 Y133.602
G1 Z.35
G1 E0 F1800
;TYPE:Skirt/Brim
;WIDTH:0.45
G1 X126.446 Y133.216 E.04023
G1 X127.302 Y132.988 E.0871
G1 X172.697 Y132.992 E2.48917
G1 X173.48 Y133.185 E2.53184
G1 X174.251 Y133.632 E2.579
G1 X176.418 Y135.821 E2.74199
G1 X176.78 Y136.435 E2.77971
G1 X177.012 Y137.302 E2.8272
G1 X177.012 Y171.053 E4.61313
G1 X176.818 Y171.874 E4.65777
G1 X176.396 Y172.614 E4.70285
G1 X174.209 Y174.798 E4.8664
G1 X173.554 Y175.184 E4.90663
G1 X172.698 Y175.412 E4.9535
G1 X127.347 Y175.412 E7.35324
G1 X126.526 Y175.218 E7.39788
G1 X125.786 Y174.796 E7.44296
G1 X123.602 Y172.609 E7.60651
G1 X123.216 Y171.954 E7.64674
G1 X122.988 Y171.098 E7.69361
G1 X122.988 Y137.347 E9.47954
G1 X123.182 Y136.526 E9.52418
G1 X123.604 Y135.786 E9.56926
G1 X125.749 Y133.645 E9.72963
G1 X125.749 Y133.645 F12000
G1 X126.013 Y133.91
G1 F1800
G1 X126.039 Y133.885 E9.73154
G1 X126.57 Y133.571 E9.76418
G1 X127.328 Y133.363 E9.80577
G1 X172.674 Y133.367 E12.20524
G1 X173.317 Y133.524 E12.24026
G1 X174.004 Y133.915 E12.28209
G1 X176.109 Y136.034 E12.44014
G1 X176.426 Y136.56 E12.47264
G1 X176.637 Y137.328 E12.51478
G1 X176.637 Y171.032 E14.29822
G1 X176.479 Y171.713 E14.33521
G1 X176.083 Y172.406 E14.37744
G1 X173.961 Y174.515 E14.53575
G1 X173.43 Y174.829 E14.56839
G1 X172.672 Y175.037 E14.60998
G1 X127.368 Y175.037 E17.00723
G1 X126.687 Y174.879 E17.04422
G1 X125.994 Y174.483 E17.08645
G1 X123.885 Y172.361 E17.24476
G1 X123.571 Y171.83 E17.2774
G1 X123.363 Y171.072 E17.31899
G1 X123.363 Y137.368 E19.10243
G1 X123.521 Y136.687 E19.13942
G1 X123.917 Y135.994 E19.18165
G1 X125.971 Y133.953 E19.33487
G1 X125.971 Y133.953 F12000
G1 X126.235 Y134.219
G1 F1800
G1 X126.287 Y134.167 E19.33876
G1 X126.696 Y133.924 E19.36393
G1 X127.355 Y133.738 E19.40016
G1 X172.652 Y133.742 E21.79704
G1 X173.158 Y133.864 E21.82458
G1 X173.757 Y134.199 E21.8609
G1 X175.802 Y136.25 E22.01416
G1 X176.073 Y136.689 E22.04146
G1 X176.262 Y137.355 E22.07809
G1 X176.262 Y171.011 E23.85899
G1 X176.138 Y171.554 E23.88846
G1 X175.8 Y172.159 E23.92513
G1 X173.713 Y174.233 E24.08082
G1 X173.304 Y174.476 E24.10599
G1 X172.645 Y174.662 E24.14222
G1 X127.389 Y174.662 E26.53693
G1 X126.846 Y174.538 E26.5664
G1 X126.241 Y174.2 E26.60307
G1 X124.167 Y172.113 E26.75876
G1 X123.924 Y171.704 E26.78393
G1 X123.738 Y171.045 E26.82016
G1 X123.738 Y137.389 E28.60106
G1 X123.862 Y136.846 E28.63053
G1 X124.2 Y136.241 E28.6672
G1 X126.192 Y134.261 E28.81582
G1 X126.192 Y134.261 F12000
G1 X126.457 Y134.527
G1 F1800
G1 X126.535 Y134.449 E28.82166
G1 X126.825 Y134.277 E28.8395
G1 X127.383 Y134.113 E28.87028
G1 X172.631 Y134.117 E31.26457
G1 X173.001 Y134.205 E31.28469
G1 X173.512 Y134.484 E31.3155
G1 X175.498 Y136.47 E31.46412
G1 X175.722 Y136.822 E31.4862
G1 X175.887 Y137.383 E31.51714
G1 X175.887 Y170.991 E33.2955
G1 X175.796 Y171.399 E33.31762
G1 X175.516 Y171.913 E33.34859
G1 X173.465 Y173.951 E33.50159
G1 X173.175 Y174.123 E33.51943
G1 X172.617 Y174.287 E33.55021
G1 X127.409 Y174.287 E35.94238
G1 X127.001 Y174.196 E35.9645
G1 X126.487 Y173.916 E35.99547
G1 X124.449 Y171.865 E36.14847
G1 X124.277 Y171.575 E36.16631
G1 X124.113 Y171.017 E36.19709
G1 X124.113 Y137.409 E37.97545
G1 X124.204 Y137.001 E37.99757
G1 X124.484 Y136.487 E38.02854
G1 X126.414 Y134.569 E38.17252
G1 X126.678 Y134.835 F12000
G1 F1800
G1 X126.782 Y134.732 E38.18027
G1 X127.412 Y134.488 E38.21602
G1 X172.609 Y134.492 E40.60761
G1 X173.268 Y134.769 E40.64544
G1 X175.219 Y136.721 E40.79148
G1 X175.512 Y137.412 E40.8312
G1 X175.512 Y170.972 E42.60702
G1 X175.23 Y171.668 E42.64676
G1 X173.218 Y173.668 E42.79688
G1 X172.588 Y173.912 E42.83263
G1 X127.428 Y173.912 E45.22226
G1 X126.732 Y173.63 E45.262
G1 X124.732 Y171.618 E45.41212
G1 X124.488 Y170.988 E45.44787
G1 X124.488 Y137.428 E47.22369
G1 X124.77 Y136.732 E47.26343
G1 X126.636 Y134.877 E47.40266
G1 X126.636 Y134.877 F12000
G1 X126.897 Y135.139
G1 F1800
G1 X126.999 Y135.038 E47.41026
G1 X127.444 Y134.863 E47.43556
G1 X172.587 Y134.866 E49.82429
G1 X173.025 Y135.057 E49.84957
G1 X174.941 Y136.973 E49.99295
G1 X175.137 Y137.444 E50.01994
G1 X175.137 Y170.953 E51.79306
G1 X174.943 Y171.425 E51.82006
G1 X173.001 Y173.362 E51.9652
G1 X172.556 Y173.537 E51.9905
G1 X127.447 Y173.537 E54.37743
G1 X126.975 Y173.343 E54.40443
G1 X125.038 Y171.401 E54.54957
G1 X124.863 Y170.956 E54.57487
G1 X124.863 Y137.447 E56.34799
G1 X125.057 Y136.975 E56.37499
G1 X126.855 Y135.182 E56.50935
G1 X126.855 Y135.182 F12000
G1 X127.118 Y135.445
G1 F1800
G1 X127.226 Y135.337 E56.51743
G1 X127.478 Y135.238 E56.53176
G1 X172.567 Y135.244 E58.91763
G1 X172.784 Y135.347 E58.93034
G1 X174.663 Y137.226 E59.07095
G1 X174.762 Y137.478 E59.08528
G1 X174.762 Y170.936 E60.8557
G1 X174.653 Y171.184 E60.87003
G1 X172.774 Y173.063 E61.01064
G1 X172.522 Y173.162 E61.02497
G1 X127.464 Y173.162 E63.4092
G1 X127.216 Y173.053 E63.42353
G1 X125.337 Y171.175 E63.5641
G1 X125.238 Y170.922 E63.57848
G1 X125.238 Y137.464 E65.3489
G1 X125.347 Y137.216 E65.36323
G1 X127.075 Y135.487 E65.49258
G1 X127.075 Y135.487 F12000
G1 X127.344 Y135.75
G1 F1800
G1 X127.451 Y135.641 E65.50066
G1 X172.48 Y135.613 E67.88336
G1 X174.387 Y137.52 E68.02607
G1 X174.387 Y170.88 E69.79131
G1 X172.549 Y172.759 E69.9304
G1 X127.52 Y172.787 E72.3131
G1 X125.641 Y170.949 E72.45219
G1 X125.613 Y137.52 E74.22108
G1 X127.302 Y135.793 E74.3489
G1 E70.3489
G92 E0
G1 X127.302 Y135.793 Z.65 F12000
G92 E0
G1 X150.787 Y139.812
G1 Z.35
G1 E4 F1800
;TYPE:Perimeter
;WIDTH:0.528389
G1 F450
G1 X150.181 Y140.177 E4.04526
G1 X150.049 Y140.42 E4.06295
;WIDTH:0.525658
G1 X150 Y140.762 E4.08492
G1 X149.951 Y140.42 E4.10689
;WIDTH:0.528389
G1 X149.819 Y140.177 E4.12458
G1 X149.038 Y139.8 E4.18006
G1 X150.744 Y139.807 E4.28921
G1 E.28921 F1800
G92 E0
G1 X150.744 Y139.807 Z.65 F12000
G1 X150.221 Y143.592
G1 Z.35
G1 E4 F1800
;WIDTH:0.45043
G1 F450
G1 X150.3 Y143.7 E4.00709
G1 X150.543 Y143.876 E4.02298
;WIDTH:0.479112
G1 X150.711 Y143.938 E4.03319
;WIDTH:0.507795
G1 X150.878 Y144 E4.04407
G1 X150.711 Y144.062 E4.05495
;WIDTH:0.479112
G1 X150.543 Y144.124 E4.06516
;WIDTH:0.45043
G1 X150.3 Y144.3 E4.08105
;WIDTH:0.45
G1 X150.124 Y144.543 E4.09693
;WIDTH:0.475222
G1 X150.062 Y144.753 E4.1093
;WIDTH:0.500445
G1 X150 Y144.962 E4.12239
G1 X149.938 Y144.753 E4.13548
;WIDTH:0.475222
G1 X149.876 Y144.543 E4.14785
;WIDTH:0.45
G1 X149.7 Y144.3 E4.16373
G1 X149.457 Y144.124 E4.17961
;WIDTH:0.475222
G1 X149.247 Y144.062 E4.19198
;WIDTH:0.500445
G1 X149.038 Y144 E4.20507
G1 X149.247 Y143.938 E4.21816
;WIDTH:0.475222
G1 X149.457 Y143.876 E4.23053
;WIDTH:0.45
G1 X149.7 Y143.7 E4.24641
;WIDTH:0.45043
G1 X149.876 Y143.457 E4.2623
;WIDTH:0.479113
G1 X149.938 Y143.289 E4.27251
;WIDTH:0.507797
G1 X150 Y143.122 E4.28339
G1 X150.062 Y143.289 E4.29427
;WIDTH:0.479113
G1 X150.124 Y143.457 E4.30448
;WIDTH:0.45043
G1 X150.186 Y143.543 E4.3101
G1 E.3101 F1800
G92 E0
G1 X150.186 Y143.543 Z.65 F12000
G1 X169.695 Y168.625
G1 Z.35
G1 E4 F1800
;WIDTH:0.45
G1 F1200
G1 X129.775 Y168.625 E6.11236
G1 X129.775 Y139.775 E7.63895
G1 X145.8 Y139.775 E8.48691
;WIDTH:0.482514
G1 X146.197 Y139.791 E8.50976
;WIDTH:0.515029
G1 X146.595 Y139.807 E8.53449
G1 X146.304 Y140.004 E8.55631
;WIDTH:0.482514
G1 X146.013 Y140.2 E8.57649
;WIDTH:0.45
G1 X145.825 Y140.762 E8.60785
G1 X145.825 Y143.038 E8.72828
G1 X145.886 Y143.37 E8.74614
G1 X146.144 Y143.742 E8.7701
;WIDTH:0.478897
G1 X146.411 Y143.871 E8.787
;WIDTH:0.507795
G1 X146.678 Y144 E8.80511
G1 X146.411 Y144.129 E8.82322
;WIDTH:0.478897
G1 X146.144 Y144.258 E8.84012
;WIDTH:0.45
G1 X145.886 Y144.63 E8.86408
G1 X145.825 Y144.962 E8.88194
G1 X145.836 Y147.382 E9.00999
G1 X145.944 Y147.693 E9.02741
G1 X146.131 Y147.93 E9.04338
G1 X146.417 Y148.109 E9.06123
G1 X146.762 Y148.175 E9.07982
G1 X149.038 Y148.175 E9.20025
G1 X149.162 Y148.166 E9.20683
G1 X149.523 Y148.04 E9.22706
G1 X149.76 Y147.835 E9.24364
;WIDTH:0.478898
G1 X149.88 Y147.578 E9.25981
;WIDTH:0.507797
G1 X150 Y147.322 E9.27708
G1 X150.12 Y147.578 E9.29435
;WIDTH:0.478898
G1 X150.24 Y147.835 E9.31052
;WIDTH:0.45
G1 X150.477 Y148.04 E9.3271
G1 X150.612 Y148.107 E9.33507
G1 X150.962 Y148.175 E9.35394
G1 X153.238 Y148.175 E9.47437
G1 X153.38 Y148.164 E9.48191
G1 X153.705 Y148.05 E9.50013
G1 X153.97 Y147.823 E9.51859
G1 X154.123 Y147.545 E9.53538
G1 X154.175 Y147.238 E9.55186
G1 X154.175 Y144.962 E9.67229
G1 X154.114 Y144.63 E9.69015
G1 X153.856 Y144.258 E9.71411
;WIDTH:0.475222
G1 X153.547 Y144.129 E9.73302
;WIDTH:0.500445
G1 X153.238 Y144 E9.75312
G1 X153.547 Y143.871 E9.77322
;WIDTH:0.475222
G1 X153.856 Y143.742 E9.79213
;WIDTH:0.45
G1 X154.114 Y143.37 E9.81609
G1 X154.175 Y143.038 E9.83395
G1 X154.175 Y140.762 E9.95438
G1 X153.987 Y140.2 E9.98574
;WIDTH:0.475222
G1 X153.612 Y140 E10.00974
;WIDTH:0.500445
G1 X153.238 Y139.8 E10.0352
G1 X153.719 Y139.787 E10.06409
;WIDTH:0.475222
G1 X154.2 Y139.775 E10.09126
;WIDTH:0.45
G1 X170.225 Y139.775 E10.93922
G1 X170.225 Y147.809 E11.36434
G1 X170.225 Y168.625 E12.46581
G1 X169.755 Y168.625 E12.49068
G1 X169.755 Y168.625 F12000
G1 X170.15 Y169
G1 F1200
G1 X129.4 Y169 E14.64695
G1 X129.4 Y139.4 E16.21323
G1 X170.6 Y139.4 E18.39332
G1 X170.6 Y147.809 E18.83828
G1 X170.6 Y169 E19.9596
G1 X170.21 Y169 E19.98024
G1 X170.21 Y169 F12000
G1 X170.975 Y169.375
;TYPE:External perimeter
G1 F600
G1 X129.025 Y169.375 E22.20001
G1 X129.025 Y139.025 E23.80597
G1 X170.975 Y139.025 E26.02574
G1 X170.975 Y147.809 E26.49054
G1 X170.975 Y169.315 E27.62852
G1 X170.579 Y169.374 F12000
G1 E23.62852 F1800
G92 E0
G1 Z.65 F12000
G1 X153.784 Y147.298
G1 Z.35
G1 E4 F1800
;TYPE:Perimeter
G1 F450
G1 X153.729 Y147.511 E4.01164
G1 X153.551 Y147.704 E4.02553
G1 X153.238 Y147.8 E4.04285
G1 X150.962 Y147.8 E4.16328
G1 X150.752 Y147.759 E4.1746
G1 X150.529 Y147.596 E4.18922
G1 X150.4 Y147.238 E4.20936
G1 X150.4 Y144.962 E4.32979
G1 X150.459 Y144.711 E4.34343
G1 X150.565 Y144.565 E4.35298
G1 X150.711 Y144.459 E4.36253
G1 X150.913 Y144.402 E4.37364
G1 X153.238 Y144.4 E4.49667
G1 X153.609 Y144.54 E4.51765
G1 X153.778 Y144.809 E4.53446
G1 X153.8 Y144.962 E4.54264
G1 X153.8 Y147.238 E4.66307
G1 X153.799 Y147.24 E4.66319
G1 X153.799 Y147.24 F12000
G1 X153.238 Y147.425
;TYPE:External perimeter
G1 F450
G1 X150.962 Y147.425 E4.78362
G1 X150.818 Y147.357 E4.79205
G1 X150.775 Y147.238 E4.79875
G1 X150.775 Y144.962 E4.91918
G1 X150.83 Y144.83 E4.92675
G1 X150.946 Y144.776 E4.93352
G1 X153.238 Y144.775 E5.0548
G1 X153.4 Y144.87 E5.06474
G1 X153.425 Y144.962 E5.06978
G1 X153.425 Y147.238 E5.19021
G1 X153.364 Y147.376 E5.19819
G1 X153.294 Y147.403 E5.20216
G1 X152.894 Y147.422 F12000
G1 E1.20216 F1800
G92 E0
G1 Z.65 F12000
G1 X153.778 Y143.118
G1 Z.35
G1 E4 F1800
;TYPE:Perimeter
G1 F450
G1 X153.726 Y143.316 E4.01083
G1 X153.609 Y143.46 E4.02065
G1 X153.238 Y143.6 E4.04163
G1 X150.913 Y143.598 E4.16466
G1 X150.711 Y143.541 E4.17577
G1 X150.565 Y143.435 E4.18532
G1 X150.459 Y143.289 E4.19487
G1 X150.4 Y143.038 E4.20851
G1 X150.4 Y140.762 E4.32894
G1 X150.436 Y140.565 E4.33954
G1 X150.513 Y140.425 E4.34799
G1 X150.865 Y140.209 E4.36984
G1 X150.962 Y140.2 E4.37499
G1 X153.238 Y140.2 E4.49542
G1 X153.687 Y140.425 E4.52199
G1 X153.8 Y140.762 E4.5408
G1 X153.8 Y143.038 E4.66123
G1 X153.794 Y143.06 E4.66244
G1 X153.794 Y143.06 F12000
G1 X153.238 Y143.225
;TYPE:External perimeter
G1 F450
G1 X150.946 Y143.224 E4.78372
G1 X150.83 Y143.17 E4.79049
G1 X150.775 Y143.038 E4.79806
G1 X150.775 Y140.762 E4.91849
G1 X150.812 Y140.65 E4.92473
G1 X150.962 Y140.575 E4.9336
G1 X153.238 Y140.575 E5.05403
G1 X153.388 Y140.65 E5.0629
G1 X153.425 Y140.762 E5.06914
G1 X153.425 Y143.038 E5.18957
G1 X153.361 Y143.178 E5.19772
G1 X153.294 Y143.204 E5.20152
G1 X152.894 Y143.222 F12000
G1 E1.20152 F1800
G92 E0
G1 Z.65 F12000
G1 X150.878 Y144
G1 Z.35
G1 E4 F1800
;TYPE:Perimeter
;WIDTH:0.507795
G1 F1200
G1 X153.238 Y144 E4.14413
G1 E.14413 F1800
G92 E0
G1 X153.238 Y144 Z.65 F12000
G1 X150.795 Y139.807
G1 Z.35
G1 E4 F1800
;WIDTH:0.515029
G1 F1200
G1 X150.962 Y139.8 E4.01038
;WIDTH:0.500445
G1 X153.238 Y139.8 E4.14702
G1 E.14702 F1800
G92 E0
G1 X153.238 Y139.8 Z.65 F12000
G1 X149.579 Y143.127
G1 Z.35
G1 E4 F1800
;WIDTH:0.45
G1 F450
G1 X149.541 Y143.289 E4.0088
G1 X149.435 Y143.435 E4.01835
G1 X149.289 Y143.541 E4.0279
G1 X149.038 Y143.6 E4.04154
G1 X146.762 Y143.6 E4.16197
G1 X146.391 Y143.46 E4.18295
G1 X146.222 Y143.192 E4.19972
G1 X146.2 Y143.038 E4.20795
G1 X146.2 Y140.762 E4.32838
G1 X146.313 Y140.425 E4.34719
G1 X146.665 Y140.209 E4.36904
G1 X149.038 Y140.2 E4.49461
G1 X149.487 Y140.425 E4.52118
G1 X149.564 Y140.565 E4.52963
G1 X149.6 Y140.762 E4.54023
G1 X149.6 Y143.038 E4.66066
G1 X149.592 Y143.069 E4.66235
G1 X149.592 Y143.069 F12000
G1 X149.038 Y143.225
;TYPE:External perimeter
G1 F450
G1 X146.762 Y143.225 E4.78278
G1 X146.639 Y143.178 E4.78975
G1 X146.575 Y143.038 E4.7979
G1 X146.575 Y140.762 E4.91833
G1 X146.612 Y140.65 E4.92457
G1 X146.762 Y140.575 E4.93344
G1 X149.038 Y140.575 E5.05387
G1 X149.213 Y140.697 E5.06516
G1 X149.225 Y143.038 E5.18903
G1 X149.17 Y143.17 E5.1966
G1 X149.093 Y143.202 E5.20101
G1 X148.693 Y143.222 F12000
G1 E1.20101 F1800
G92 E0
G1 Z.65 F12000
G1 X146.595 Y139.807
G1 Z.35
G1 E4 F1800
;TYPE:Perimeter
;WIDTH:0.515029
G1 F1200
G1 X146.762 Y139.8 E4.01038
;WIDTH:0.500445
G1 X149.038 Y139.8 E4.14702
G1 E.14702 F1800
G92 E0
G1 X149.038 Y139.8 Z.65 F12000
G1 X150 Y143.122
G1 Z.35
G1 E4 F1800
;WIDTH:0.507797
G1 F1200
G1 X150 Y140.762 E4.14413
G1 E.14413 F1800
G92 E0
G1 X150 Y140.762 Z.65 F12000
G1 X149.567 Y147.328
G1 Z.35
G1 E4 F1800
;WIDTH:0.45
G1 F450
G1 X149.471 Y147.596 E4.01506
G1 X149.248 Y147.759 E4.02968
G1 X149.038 Y147.8 E4.041
G1 X146.762 Y147.8 E4.16143
G1 X146.518 Y147.744 E4.17468
G1 X146.323 Y147.589 E4.18786
G1 X146.207 Y147.324 E4.20317
G1 X146.2 Y147.238 E4.20774
G1 X146.2 Y144.962 E4.32817
G1 X146.222 Y144.809 E4.33635
G1 X146.391 Y144.54 E4.35316
G1 X146.762 Y144.4 E4.37414
G1 X149.038 Y144.4 E4.49457
G1 X149.289 Y144.459 E4.50821
G1 X149.435 Y144.565 E4.51776
G1 X149.541 Y144.711 E4.52731
G1 X149.6 Y144.962 E4.54095
G1 X149.6 Y147.238 E4.66138
G1 X149.588 Y147.271 E4.66324
G1 X149.588 Y147.271 F12000
G1 X149.038 Y147.425
;TYPE:External perimeter
G1 F450
G1 X146.762 Y147.425 E4.78367
G1 X146.616 Y147.355 E4.79224
G1 X146.575 Y147.238 E4.7988
G1 X146.582 Y144.911 E4.92193
G1 X146.639 Y144.822 E4.92752
G1 X146.762 Y144.775 E4.93449
G1 X149.038 Y144.775 E5.05492
G1 X149.17 Y144.83 E5.06249
G1 X149.225 Y144.962 E5.07006
G1 X149.225 Y147.238 E5.19049
G1 X149.135 Y147.398 E5.2002
G1 X149.095 Y147.409 E5.2024
G1 X148.696 Y147.423 F12000
G1 E1.2024 F1800
G92 E0
G1 Z.65 F12000
G1 X146.678 Y144
G1 Z.35
G1 E4 F1800
;TYPE:Perimeter
;WIDTH:0.507795
G1 F1200
G1 X149.038 Y144 E4.14413
G1 E.14413 F1800
G92 E0
G1 X149.038 Y144 Z.65 F12000
G1 X150 Y147.322
G1 Z.35
G1 E4 F1800
;WIDTH:0.507797
G1 F1200
G1 X150 Y144.962 E4.14413
G1 E.14413 F1800
G92 E0
G1 X150 Y144.962 Z.65 F12000
G1 X170.113 Y140.645
G1 Z.35
G1 E4 F1800
;TYPE:Solid infill
;WIDTH:0.450019
G1 F600
G1 X169.524 Y140.056 E4.04408
G1 X168.993 Y140.056 E4.07218
G1 X169.944 Y141.007 E4.14335
G1 X169.944 Y141.537 E4.1714
G1 X168.463 Y140.056 E4.28223
G1 X167.933 Y140.056 E4.31028
G1 X169.944 Y142.067 E4.46078
G1 X169.944 Y142.597 E4.48883
G1 X167.403 Y140.056 E4.67899
G1 X166.873 Y140.056 E4.70704
G1 X169.944 Y143.127 E4.93686
G1 X169.944 Y143.658 E4.96496
G1 X166.342 Y140.056 E5.23452
