; generated by PrusaSlicer 2.7.4+win64 on 2024-10-28 at 22:25:25 UTC


;
;

;
;
; 

; external perimeters extrusion width = 0.42mm
; perimeters extrusion width = 0.42mm
; infill extrusion width = 0.42mm
; solid infill extrusion width = 0.42mm
; top infill extrusion width = 0.42mm
; first layer extrusion width = 0.45mm

M190 S80 ; set bed temperature and wait for it to be reached
M104 S230 ; set temperature
;TYPE:Custom
G28 ; home all axes
G1 Z5 F5000 ; lift nozzle
M109 S230 ; set temperature and wait for it to be reached
G21 ; set units to millimeters
G90 ; use absolute coordinates
M82 ; use absolute distances for extrusion
G92 E0
; Filament gcode
G1 X10 Y10 Z0.2 F3000
G1 X110 E15 F600
G1 X10 E15 F600
M107
;LAYER_CHANGE
;Z:0.35
;HEIGHT:0.35
G1 E-4 F1800
G1 Z.65 F12000
G1 X125.591 Y129.202
G1 Z.35
G1 E0 F1800
;TYPE:Skirt/Brim
;WIDTH:0.45
G1 X126.246 Y128.816 E.04023
G1 X127.102 Y128.588 E.0871
G1 X172.897 Y128.592 E2.51033
G1 X173.68 Y128.785 E2.553
G1 X174.451 Y129.232 E2.60016
G1 X176.618 Y131.421 E2.76315
G1 X176.98 Y132.035 E2.80087
G1 X177.212 Y132.902 E2.84836
G1 X177.212 Y167.053 E4.65545
G1 X177.018 Y167.874 E4.70009
G1 X176.596 Y168.614 E4.74517
G1 X174.409 Y170.798 E4.90872
G1 X173.754 Y171.184 E4.94895
G1 X172.898 Y171.412 E4.99582
G1 X127.147 Y171.412 E7.41672
G1 X126.326 Y171.218 E7.46136
G1 X125.586 Y170.796 E7.50644
G1 X123.402 Y168.609 E7.66999
G1 X123.016 Y167.954 E7.71022
G1 X122.788 Y167.098 E7.75709
G1 X122.788 Y132.947 E9.56418
G1 X122.982 Y132.126 E9.60882
G1 X123.404 Y131.386 E9.6539
G1 X125.549 Y129.245 E9.81427
G1 X125.549 Y129.245 F12000
G1 X125.813 Y129.51
G1 F1800
G1 X125.839 Y129.485 E9.81618
G1 X126.37 Y129.171 E9.84882
G1 X127.128 Y128.963 E9.89041
G1 X172.874 Y128.967 E12.31105
G1 X173.517 Y129.124 E12.34607
G1 X174.204 Y129.515 E12.3879
G1 X176.309 Y131.634 E12.54595
G1 X176.626 Y132.16 E12.57845
G1 X176.837 Y132.928 E12.62059
G1 X176.837 Y167.032 E14.4252
G1 X176.679 Y167.713 E14.46219
G1 X176.283 Y168.406 E14.50442
G1 X174.161 Y170.515 E14.66273
G1 X173.63 Y170.829 E14.69537
G1 X172.872 Y171.037 E14.73696
G1 X127.168 Y171.037 E17.15538
G1 X126.487 Y170.879 E17.19237
G1 X125.794 Y170.483 E17.2346
G1 X123.685 Y168.361 E17.39291
G1 X123.371 Y167.83 E17.42555
G1 X123.163 Y167.072 E17.46714
G1 X123.163 Y132.968 E19.27175
G1 X123.321 Y132.287 E19.30874
G1 X123.717 Y131.594 E19.35097
G1 X125.771 Y129.553 E19.50419
G1 X125.771 Y129.553 F12000
G1 X126.035 Y129.819
G1 F1800
G1 X126.087 Y129.767 E19.50808
G1 X126.496 Y129.524 E19.53325
G1 X127.155 Y129.338 E19.56948
G1 X172.852 Y129.342 E21.98753
G1 X173.358 Y129.464 E22.01507
G1 X173.957 Y129.799 E22.05139
G1 X176.002 Y131.85 E22.20465
G1 X176.273 Y132.289 E22.23195
G1 X176.462 Y132.955 E22.26858
G1 X176.462 Y167.011 E24.07065
G1 X176.338 Y167.554 E24.10012
G1 X176 Y168.159 E24.13679
G1 X173.913 Y170.233 E24.29248
G1 X173.504 Y170.476 E24.31765
G1 X172.845 Y170.662 E24.35388
G1 X127.189 Y170.662 E26.76976
G1 X126.646 Y170.538 E26.79923
G1 X126.041 Y170.2 E26.8359
G1 X123.967 Y168.113 E26.99159
G1 X123.724 Y167.704 E27.01676
G1 X123.538 Y167.045 E27.05299
G1 X123.538 Y132.989 E28.85506
G1 X123.662 Y132.446 E28.88453
G1 X124 Y131.841 E28.9212
G1 X125.992 Y129.861 E29.06982
G1 X125.992 Y129.861 F12000
G1 X126.257 Y130.127
G1 F1800
G1 X126.335 Y130.049 E29.07566
G1 X126.625 Y129.877 E29.0935
G1 X127.183 Y129.713 E29.12428
G1 X172.831 Y129.717 E31.53973
G1 X173.201 Y129.805 E31.55985
G1 X173.712 Y130.084 E31.59066
G1 X175.698 Y132.07 E31.73928
G1 X175.922 Y132.422 E31.76136
G1 X176.087 Y132.983 E31.7923
G1 X176.087 Y166.991 E33.59183
G1 X175.996 Y167.399 E33.61395
G1 X175.716 Y167.913 E33.64492
G1 X173.665 Y169.951 E33.79792
G1 X173.375 Y170.123 E33.81576
G1 X172.817 Y170.287 E33.84654
G1 X127.209 Y170.287 E36.25988
G1 X126.801 Y170.196 E36.282
G1 X126.287 Y169.916 E36.31297
G1 X124.249 Y167.865 E36.46597
G1 X124.077 Y167.575 E36.48381
G1 X123.913 Y167.017 E36.51459
G1 X123.913 Y133.009 E38.31412
G1 X124.004 Y132.601 E38.33624
G1 X124.284 Y132.087 E38.36721
G1 X126.214 Y130.169 E38.51119
G1 X126.478 Y130.435 F12000
G1 F1800
G1 X126.582 Y130.332 E38.51894
G1 X127.212 Y130.088 E38.55469
G1 X172.809 Y130.092 E40.96744
G1 X173.468 Y130.369 E41.00527
G1 X175.419 Y132.321 E41.15131
G1 X175.712 Y133.012 E41.19103
G1 X175.712 Y166.972 E42.98802
G1 X175.43 Y167.668 E43.02776
G1 X173.418 Y169.668 E43.17788
G1 X172.788 Y169.912 E43.21363
G1 X127.228 Y169.912 E45.62443
G1 X126.532 Y169.63 E45.66417
G1 X124.532 Y167.618 E45.81429
G1 X124.288 Y166.988 E45.85004
G1 X124.288 Y133.028 E47.64703
G1 X124.57 Y132.332 E47.68677
G1 X126.436 Y130.477 E47.826
G1 X126.436 Y130.477 F12000
G1 X126.697 Y130.739
G1 F1800
G1 X126.799 Y130.638 E47.8336
G1 X127.244 Y130.463 E47.8589
G1 X172.787 Y130.466 E50.2688
G1 X173.225 Y130.657 E50.29408
G1 X175.141 Y132.573 E50.43746
G1 X175.337 Y133.044 E50.46445
G1 X175.337 Y166.953 E52.25874
G1 X175.143 Y167.425 E52.28574
G1 X173.201 Y169.362 E52.43088
G1 X172.756 Y169.537 E52.45618
G1 X127.247 Y169.537 E54.86428
G1 X126.775 Y169.343 E54.89128
G1 X124.838 Y167.401 E55.03642
G1 X124.663 Y166.956 E55.06172
G1 X124.663 Y133.047 E56.85601
G1 X124.857 Y132.575 E56.88301
G1 X126.655 Y130.782 E57.01737
G1 X126.655 Y130.782 F12000
G1 X126.918 Y131.045
G1 F1800
G1 X127.026 Y130.937 E57.02545
G1 X127.278 Y130.838 E57.03978
G1 X172.767 Y130.844 E59.44682
G1 X172.984 Y130.947 E59.45953
G1 X174.863 Y132.826 E59.60014
G1 X174.962 Y133.078 E59.61447
G1 X174.962 Y166.936 E61.40606
G1 X174.853 Y167.184 E61.42039
G1 X172.974 Y169.063 E61.561
G1 X172.722 Y169.162 E61.57533
G1 X127.264 Y169.162 E63.98073
G1 X127.016 Y169.053 E63.99506
G1 X125.137 Y167.174 E64.13567
G1 X125.038 Y166.922 E64.15
G1 X125.038 Y133.064 E65.94159
G1 X125.147 Y132.816 E65.95592
G1 X126.875 Y131.087 E66.08527
G1 X126.875 Y131.087 F12000
G1 X127.144 Y131.35
G1 F1800
G1 X127.251 Y131.241 E66.09335
G1 X172.68 Y131.213 E68.49722
G1 X174.587 Y133.12 E68.63993
G1 X174.587 Y166.88 E70.42633
G1 X172.749 Y168.759 E70.56542
G1 X127.32 Y168.787 E72.96929
G1 X125.441 Y166.949 E73.10838
G1 X125.413 Y133.12 E74.89843
G1 X127.102 Y131.393 E75.02625
G1 E71.02625
G92 E0
G1 X127.102 Y131.393 Z.65 F12000
G92 E0
G1 X169.895 Y164.625
G1 Z.35
G1 E4 F1800
;TYPE:Perimeter
;WIDTH:0.45
G1 F1200
G1 X129.575 Y164.625 E6.13352
G1 X129.575 Y135.375 E7.68128
G1 X170.425 Y135.375 E9.84285
G1 X170.425 Y150 E10.61673
G1 X170.425 Y164.625 E11.39061
G1 X169.955 Y164.625 E11.41548
G1 X169.955 Y164.625 F12000
G1 X170.35 Y165
G1 F1200
G1 X129.2 Y165 E13.59292
G1 X129.2 Y135 E15.18036
G1 X170.8 Y135 E17.38161
G1 X170.8 Y150 E18.17533
G1 X170.8 Y165 E18.96905
G1 X170.41 Y165 E18.98969
G1 X170.41 Y165 F12000
G1 X171.175 Y165.375
;TYPE:External perimeter
G1 F600
G1 X128.825 Y165.375 E21.23063
G1 X128.825 Y134.625 E22.85776
G1 X171.175 Y134.625 E25.0987
G1 X171.175 Y150 E25.91226
G1 X171.175 Y165.315 E26.72265
G1 X170.779 Y165.374 F12000
G1 E22.72265 F1800
G92 E0
G1 Z.65 F12000
G1 X170.313 Y136.248
G1 Z.35
G1 E4 F1800
;TYPE:Solid infill
;WIDTH:0.451475
G1 F600
G1 X169.72 Y135.656 E4.04451
G1 X169.188 Y135.656 E4.07277
G1 X170.144 Y136.612 E4.14459
G1 X170.144 Y137.144 E4.17285
G1 X168.656 Y135.656 E4.28464
G1 X168.124 Y135.656 E4.3129
G1 X170.144 Y137.676 E4.46466
G1 X170.144 Y138.209 E4.49297
G1 X167.591 Y135.656 E4.68477
G1 X167.059 Y135.656 E4.71303
G1 X170.144 Y138.741 E4.9448
G1 X170.144 Y139.273 E4.97306
G1 X166.527 Y135.656 E5.24479
G1 X165.995 Y135.656 E5.27305
G1 X170.144 Y139.805 E5.58475
G1 X170.144 Y140.338 E5.61306
G1 X165.462 Y135.656 E5.96481
G1 X164.93 Y135.656 E5.99307
G1 X170.144 Y140.87 E6.38478
G1 X170.144 Y141.402 E6.41304
G1 X164.398 Y135.656 E6.84472
G1 X163.866 Y135.656 E6.87298
G1 X170.144 Y141.934 E7.34463
G1 X170.144 Y142.467 E7.37294
G1 X163.333 Y135.656 E7.88463
G1 X162.801 Y135.656 E7.91289
G1 X170.144 Y142.999 E8.46455
G1 X170.144 Y143.531 E8.49281
G1 X162.269 Y135.656 E9.08444
G1 X161.737 Y135.656 E9.1127
G1 X170.144 Y144.063 E9.74429
G1 X170.144 Y144.596 E9.7726
G1 X161.204 Y135.656 E10.44424
G1 X160.672 Y135.656 E10.4725
G1 X170.144 Y145.128 E11.1841
G1 X170.144 Y145.66 E11.21236
G1 X160.14 Y135.656 E11.96393
G1 X159.608 Y135.656 E11.99219
G1 X170.144 Y146.192 E12.78373
G1 X170.144 Y146.725 E12.81204
G1 X159.075 Y135.656 E13.64362
G1 X158.543 Y135.656 E13.67188
G1 X170.144 Y147.257 E14.54343
G1 X170.144 Y147.789 E14.57169
G1 X158.011 Y135.656 E15.48321
G1 X157.479 Y135.656 E15.51147
G1 X170.144 Y148.321 E16.46296
G1 X170.144 Y148.854 E16.49127
G1 X156.946 Y135.656 E17.4828
G1 X156.414 Y135.656 E17.51106
G1 X170.144 Y149.386 E18.54256
G1 X170.144 Y149.918 E18.57082
G1 X155.882 Y135.656 E19.64228
G1 X155.349 Y135.656 E19.67059
G1 X170.144 Y150.451 E20.7821
G1 X170.144 Y150.983 E20.81036
G1 X154.817 Y135.656 E21.96183
G1 X154.285 Y135.656 E21.99009
G1 X170.144 Y151.515 E23.18153
G1 X170.144 Y152.047 E23.20979
G1 X153.753 Y135.656 E24.4412
G1 X153.22 Y135.656 E24.46951
G1 X170.144 Y152.58 E25.74096
G1 X170.144 Y153.112 E25.76922
G1 X152.688 Y135.656 E27.08064
G1 X152.156 Y135.656 E27.1089
G1 X170.144 Y153.644 E28.46029
G1 X170.144 Y154.176 E28.48855
G1 X151.624 Y135.656 E29.8799
G1 X151.091 Y135.656 E29.90821
G1 X170.144 Y154.709 E31.33961
G1 X170.144 Y155.241 E31.36787
G1 X150.559 Y135.656 E32.83924
G1 X150.027 Y135.656 E32.8675
G1 X170.144 Y155.773 E34.37883
G1 X170.144 Y156.305 E34.40709
G1 X149.495 Y135.656 E35.95839
G1 X148.962 Y135.656 E35.9867
G1 X170.144 Y156.838 E37.57804
G1 X170.144 Y157.37 E37.6063
G1 X148.43 Y135.656 E39.23761
G1 X147.898 Y135.656 E39.26587
G1 X170.144 Y157.902 E40.93715
G1 X170.144 Y158.434 E40.96541
G1 X147.366 Y135.656 E42.67666
G1 X146.833 Y135.656 E42.70497
G1 X170.144 Y158.967 E44.45626
G1 X170.144 Y159.499 E44.48452
G1 X146.301 Y135.656 E46.27578
G1 X145.769 Y135.656 E46.30404
G1 X170.144 Y160.031 E48.13526
G1 X170.144 Y160.563 E48.16352
G1 X145.237 Y135.656 E50.03471
G1 X144.704 Y135.656 E50.06302
G1 X170.144 Y161.096 E51.97425
G1 X170.144 Y161.628 E52.00251
G1 X144.172 Y135.656 E53.95371
G1 X143.64 Y135.656 E53.98197
G1 X170.144 Y162.16 E55.97314
G1 X170.144 Y162.692 E56.0014
G1 X143.108 Y135.656 E58.03254
G1 X142.575 Y135.656 E58.06085
G1 X170.144 Y163.225 E60.13203
G1 X170.144 Y163.757 E60.16029
G1 X142.043 Y135.656 E62.27144
G1 X141.511 Y135.656 E62.2997
G1 X170.144 Y164.289 E64.45082
G1 X170.144 Y164.344 E64.45374
G1 X169.667 Y164.344 E64.47908
G1 X140.979 Y135.656 E66.63433
G1 X140.446 Y135.656 E66.66264
G1 X169.134 Y164.344 E68.81789
G1 X168.602 Y164.344 E68.84615
G1 X139.914 Y135.656 E71.0014
G1 X139.382 Y135.656 E71.02966
G1 X168.07 Y164.344 E73.18491
G1 X167.538 Y164.344 E73.21317
G1 X138.849 Y135.656 E75.36845
G1 X138.317 Y135.656 E75.39671
G1 X167.005 Y164.344 E77.55196
G1 X166.473 Y164.344 E77.58022
G1 X137.785 Y135.656 E79.73547
G1 X137.253 Y135.656 E79.76373
G1 X165.941 Y164.344 E81.91898
G1 X165.409 Y164.344 E81.94724
G1 X136.72 Y135.656 E84.10252
G1 X136.188 Y135.656 E84.13078
G1 X164.876 Y164.344 E86.28603
G1 X164.344 Y164.344 E86.31429
G1 X135.656 Y135.656 E88.46954
G1 X135.124 Y135.656 E88.4978
G1 X163.812 Y164.344 E90.65305
G1 X163.28 Y164.344 E90.68131
G1 X134.591 Y135.656 E92.83659
G1 X134.059 Y135.656 E92.86485
G1 X162.747 Y164.344 E95.0201
G1 X162.215 Y164.344 E95.04836
G1 X133.527 Y135.656 E97.20361
G1 X132.995 Y135.656 E97.23187
G1 X161.683 Y164.344 E99.38712
G1 X161.15 Y164.344 E99.41543
G1 X132.462 Y135.656 E101.57068
G1 X131.93 Y135.656 E101.59894
G1 X160.618 Y164.344 E103.75419
G1 X160.086 Y164.344 E103.78245
G1 X131.398 Y135.656 E105.9377
G1 X130.866 Y135.656 E105.96596
G1 X159.554 Y164.344 E108.12121
G1 X159.021 Y164.344 E108.14952
G1 X130.333 Y135.656 E110.30477
G1 X129.856 Y135.656 E110.33011
G1 X129.856 Y135.711 E110.33303
G1 X158.489 Y164.344 E112.48415
G1 X157.957 Y164.344 E112.51241
G1 X129.856 Y136.243 E114.62356
G1 X129.856 Y136.775 E114.65182
G1 X157.425 Y164.344 E116.723
G1 X156.892 Y164.344 E116.75131
G1 X129.856 Y137.308 E118.78245
G1 X129.856 Y137.84 E118.81071
G1 X156.36 Y164.344 E120.80188
G1 X155.828 Y164.344 E120.83014
G1 X129.856 Y138.372 E122.78134
G1 X129.856 Y138.904 E122.8096
G1 X155.296 Y164.344 E124.72083
G1 X154.763 Y164.344 E124.74914
G1 X129.856 Y139.437 E126.62033
G1 X129.856 Y139.969 E126.64859
G1 X154.231 Y164.344 E128.47981
G1 X153.699 Y164.344 E128.50807
G1 X129.856 Y140.501 E130.29933
G1 X129.856 Y141.033 E130.32759
G1 X153.167 Y164.344 E132.07888
G1 X152.634 Y164.344 E132.10719
G1 X129.856 Y141.566 E133.81844
G1 X129.856 Y142.098 E133.8467
G1 X152.102 Y164.344 E135.51798
G1 X151.57 Y164.344 E135.54624
G1 X129.856 Y142.63 E137.17755
G1 X129.856 Y143.162 E137.20581
G1 X151.038 Y164.344 E138.79715
G1 X150.505 Y164.344 E138.82546
G1 X129.856 Y143.695 E140.37676
G1 X129.856 Y144.227 E140.40502
G1 X149.973 Y164.344 E141.91635
G1 X149.441 Y164.344 E141.94461
G1 X129.856 Y144.759 E143.41598
G1 X129.856 Y145.291 E143.44424
G1 X148.909 Y164.344 E144.87564
G1 X148.376 Y164.344 E144.90395
G1 X129.856 Y145.824 E146.2953
G1 X129.856 Y146.356 E146.32356
G1 X147.844 Y164.344 E147.67495
G1 X147.312 Y164.344 E147.70321
G1 X129.856 Y146.888 E149.01463
G1 X129.856 Y147.421 E149.04294
G1 X146.779 Y164.344 E150.31432
G1 X146.247 Y164.344 E150.34258
G1 X129.856 Y147.953 E151.57399
G1 X129.856 Y148.485 E151.60225
G1 X145.715 Y164.344 E152.79369
G1 X145.183 Y164.344 E152.82195
G1 X129.856 Y149.017 E153.97342
G1 X129.856 Y149.55 E154.00173
G1 X144.65 Y164.344 E155.11316
G1 X144.118 Y164.344 E155.14142
G1 X129.856 Y150.082 E156.21288
G1 X129.856 Y150.614 E156.24114
G1 X143.586 Y164.344 E157.27264
G1 X143.054 Y164.344 E157.3009
G1 X129.856 Y151.146 E158.29243
G1 X129.856 Y151.679 E158.32074
G1 X142.521 Y164.344 E159.27223
G1 X141.989 Y164.344 E159.30049
G1 X129.856 Y152.211 E160.21201
G1 X129.856 Y152.743 E160.24027
G1 X141.457 Y164.344 E161.11182
G1 X140.925 Y164.344 E161.14008
G1 X129.856 Y153.275 E161.97166
G1 X129.856 Y153.808 E161.99997
G1 X140.392 Y164.344 E162.79151
G1 X139.86 Y164.344 E162.81977
G1 X129.856 Y154.34 E163.57134
G1 X129.856 Y154.872 E163.5996
G1 X139.328 Y164.344 E164.3112
G1 X138.796 Y164.344 E164.33946
G1 X129.856 Y155.404 E165.0111
G1 X129.856 Y155.937 E165.03941
G1 X138.263 Y164.344 E165.671
G1 X137.731 Y164.344 E165.69926
G1 X129.856 Y156.469 E166.29089
G1 X129.856 Y157.001 E166.31915
G1 X137.199 Y164.344 E166.87081
G1 X136.667 Y164.344 E166.89907
G1 X129.856 Y157.533 E167.41076
G1 X129.856 Y158.066 E167.43907
G1 X136.134 Y164.344 E167.91072
G1 X135.602 Y164.344 E167.93898
G1 X129.856 Y158.598 E168.37066
G1 X129.856 Y159.13 E168.39892
G1 X135.07 Y164.344 E168.79063
G1 X134.538 Y164.344 E168.81889
G1 X129.856 Y159.662 E169.17064
G1 X129.856 Y160.195 E169.19895
G1 X134.005 Y164.344 E169.51065
G1 X133.473 Y164.344 E169.53891
G1 X129.856 Y160.727 E169.81064
G1 X129.856 Y161.259 E169.8389
G1 X132.941 Y164.344 E170.07067
G1 X132.408 Y164.344 E170.09898
G1 X129.856 Y161.792 E170.2907
G1 X129.856 Y162.324 E170.31896
G1 X131.876 Y164.344 E170.47072
G1 X131.344 Y164.344 E170.49898
G1 X129.856 Y162.856 E170.61077
G1 X129.856 Y163.388 E170.63903
G1 X130.812 Y164.344 E170.71085
G1 X130.279 Y164.344 E170.73916
G1 X129.687 Y163.752 E170.78364
;LAYER_CHANGE
;Z:0.65
;HEIGHT:0.3
G1 Z.65 F12000
G1 E166.78364 F1800
G92 E0
G1 X129.687 Y163.752 Z.95 F12000
G1 X169.976 Y164.679
G1 Z.65
G1 E4 F1800
G92 E0
;TYPE:Perimeter
;WIDTH:0.42
G1 F2400
G1 X129.521 Y164.679 E1.74054
G1 X129.521 Y135.321 E3.00364
G1 X170.479 Y135.321 E4.76582
G1 X170.479 Y150 E5.39737
G1 X170.479 Y164.679 E6.02892
G1 X170.036 Y164.679 E6.04798
G1 X170.036 Y164.679 F12000
G1 X170.414 Y165.034
G1 F2400
G1 X129.166 Y165.034 E7.82264
G1 X129.166 Y134.966 E9.11629
G1 X170.834 Y134.966 E10.90902
G1 X170.834 Y150 E11.55584
G1 X170.834 Y165.034 E12.20266
G1 X170.474 Y165.034 E12.21815
G1 X170.474 Y165.034 F12000
G1 X171.19 Y165.39
;TYPE:External perimeter
G1 F1200
G1 X128.81 Y165.39 E14.04151
G1 X128.81 Y134.61 E15.36579
G1 X171.19 Y134.61 E17.18915
G1 X171.19 Y150 E17.85129
G1 X171.19 Y165.33 E18.51085
G1 X170.794 Y165.389 F12000
G1 E14.51085 F1800
G92 E0
G1 Z.95 F12000
G1 X129.884 Y135.617
G1 Z.65
G1 E4 F1800
;TYPE:Solid infill
