(G-CODE GENERATED BY FLATCAM v8.994 - www.flatcam.org - Version Date: 2020/11/7)

(Name: Drill_NPTH_Through.DRL_cnc)
(Type: G-code from Geometry)
(Units: MM)

(Created on Monday, 07 October 2024 at 20:25)

(This preprocessor is the default preprocessor used by FlatCAM.)
(It is made to work with MACH3 compatible motion controllers.)


(TOOLS DIAMETER: )
(Tool: 1 -> Dia: 3.0)

(FEEDRATE Z: )
(Tool: 1 -> Feedrate: 25.0)

(FEEDRATE RAPIDS: )
(Tool: 1 -> Feedrate Rapids: 1500)

(Z_CUT: )
(Tool: 1 -> Z_Cut: -2.4)

(Tools Offset: )
(Tool: 1 -> Offset Z: 0.0)

(Z_MOVE: )
(Tool: 1 -> Z_Move: 1.0)

(Z Toolchange: 15 mm)
(X,Y Toolchange: 0.0000, 0.0000 mm)
(Z Start: None mm)
(Z End: 15.0 mm)
(X,Y End: 0.0000, 0.0000 mm)
(Steps per circle: 64)
(Preprocessor Excellon: default)

(X range:    9.2770 ...   49.6770  mm)
(Y range:    1.7390 ...   37.7390  mm)

(Spindle Speed: 1000 RPM)
G21
G90
G94

G01 F25.00

M5
G00 Z15.0000
T1
G00 X0.0000 Y0.0000                
M6
(MSG, Change to Tool Dia = 3.0000 ||| Total drills for tool T1 = 4)
M0
G00 Z15.0000

G01 F25.00
M03 S1000
G00 X10.7770 Y3.2390
G01 Z-2.4000
G01 Z0
G00 Z1.0000
G00 X10.7770 Y36.2390
G01 Z-2.4000
G01 Z0
G00 Z1.0000
G00 X48.1770 Y36.2390
G01 Z-2.4000
G01 Z0
G00 Z1.0000
G00 X48.1770 Y3.2390
G01 Z-2.4000
G01 Z0
G00 Z1.0000
M05
G00 Z15.00
G00 X0.0 Y0.0


