(G-CODE GENERATED BY FLATCAM v8.994 - www.flatcam.org - Version Date: 2020/11/7)

(Name: Gerber_BottomLayer.GBL_ncc_cnc)
(Type: G-code from Geometry)
(Units: MM)

(Created on Monday, 07 October 2024 at 20:10)

(This preprocessor is the default preprocessor used by FlatCAM.)
(It is made to work with MACH3 compatible motion controllers.)

(TOOL DIAMETER: 0.16 mm)
(Feedrate_XY: 120.0 mm/min)
(Feedrate_Z: 25.0 mm/min)
(Feedrate rapids 1500.0 mm/min)

(Z_Cut: -0.052 mm)
(Z_Move: 1.0 mm)
(Z Start: None mm)
(Z End: 15.0 mm)
(X,Y End: 0.0000, 0.0000 mm)
(Steps per circle: 64)
(Preprocessor Geometry: default)

(X range:    3.2937 ...   58.2180  mm)
(Y range:   11.6400 ...   40.0570  mm)

(Spindle Speed: 1000.0 RPM)
G21
G90
G94

G01 F120.00

M5
G00 Z15.0000
G00 X0.0000 Y0.0000
T1
M6    
(MSG, Change to Tool Dia = 0.1600)
M0
G00 Z15.0000

M03 S1000.0
G01 F120.00
G00 X3.4670 Y14.8622
G01 F25.00
G01 Z-0.0520
G01 F120.00
G01 X3.5872 Y14.8622
G01 X3.6044 Y14.8395
G01 X3.6644 Y14.7733
G01 X3.7305 Y14.7133
G01 X3.7533 Y14.6961
G01 X3.7533 Y14.5762
G01 X3.7065 Y14.6067
G01 X3.6061 Y14.6920
G01 X3.5176 Y14.7895
G01 X3.4670 Y14.8622
G00 Z1.0000
G00 X4.8907 Y14.5762
G01 F25.00
G01 Z-0.0520
G01 F120.00
G01 X4.8907 Y14.6961
G01 X4.9135 Y14.7133
G01 X4.9796 Y14.7733
G01 X5.0396 Y14.8395
G01 X5.0568 Y14.8622
G01 X5.1771 Y14.8622
G01 X5.1265 Y14.7895
G01 X5.0379 Y14.6920
G01 X4.9375 Y14.6067
G01 X4.8907 Y14.5762
G00 Z1.0000
G00 X4.8907 Y16.2874
G01 F25.00
G01 Z-0.0520
G01 F120.00
G01 X4.9889 Y16.2141
G01 X5.0836 Y16.1228
G01 X5.1655 Y16.0196
G01 X5.1777 Y15.9996
G01 X5.0568 Y15.9996
G01 X5.0396 Y16.0224
G01 X4.9796 Y16.0885
G01 X4.9135 Y16.1486
G01 X4.8907 Y16.1657
G01 X4.8907 Y16.2874
G00 Z1.0000
G00 X24.7072 Y37.4779
G01 F25.00
G01 Z-0.0520
G01 F120.00
G01 X24.6696 Y37.3982
G01 X24.6351 Y37.3021
G01 X24.6329 Y37.2946
G01 X24.6090 Y37.1994
G01 X24.6075 Y37.1917
G01 X24.5926 Y37.0907
G01 X24.5875 Y36.9888
G01 X24.5875 Y36.9809
G01 X24.5926 Y36.8790
G01 X24.6082 Y36.7742
G01 X24.6339 Y36.6714
G01 X24.6696 Y36.5716
G01 X24.7149 Y36.4758
G01 X24.7694 Y36.3849
G01 X24.8325 Y36.2997
G01 X24.9010 Y36.2240
G01 X24.9066 Y36.2185
G01 X24.9823 Y36.1500
G01 X25.0642 Y36.0891
G01 X25.0707 Y36.0848
G01 X25.1549 Y36.0343
G01 X25.1618 Y36.0306
G01 X25.2541 Y35.9871
G01 X25.3373 Y35.9572
G01 X25.3373 Y21.3306
G01 X25.3389 Y21.2982
G01 X25.3429 Y21.2701
G01 X25.3445 Y21.2624
G01 X25.3504 Y21.2386
G01 X25.3527 Y21.2310
G01 X25.3624 Y21.2043
G01 X25.3745 Y21.1785
G01 X25.3782 Y21.1716
G01 X25.3908 Y21.1505
G01 X25.3952 Y21.1440
G01 X25.4122 Y21.1212
G01 X25.4340 Y21.0972
G01 X33.0446 Y13.4866
G01 X33.0686 Y13.4648
G01 X33.0914 Y13.4478
G01 X33.0979 Y13.4434
G01 X33.1190 Y13.4308
G01 X33.1259 Y13.4271
G01 X33.1517 Y13.4150
G01 X33.1822 Y13.4041
G01 X33.2136 Y13.3962
G01 X33.2417 Y13.3919
G01 X33.2496 Y13.3912
G01 X33.2780 Y13.3899
G01 X55.6320 Y13.3899
G01 X55.6624 Y13.3915
G01 X55.6944 Y13.3962
G01 X55.7258 Y13.4041
G01 X55.7527 Y13.4136
G01 X55.7599 Y13.4166
G01 X55.7821 Y13.4271
G01 X55.7890 Y13.4308
G01 X55.8134 Y13.4455
G01 X55.8409 Y13.4661
G01 X55.8634 Y13.4866
G01 X56.4984 Y14.1216
G01 X56.5202 Y14.1456
G01 X56.5372 Y14.1684
G01 X56.5416 Y14.1749
G01 X56.5542 Y14.1960
G01 X56.5579 Y14.2029
G01 X56.5700 Y14.2287
G01 X56.5809 Y14.2592
G01 X56.5879 Y14.2868
G01 X56.5895 Y14.2945
G01 X56.5935 Y14.3226
G01 X56.5951 Y14.3530
G01 X56.5951 Y16.4069
G01 X56.5935 Y16.4393
G01 X56.5888 Y16.4713
G01 X56.5809 Y16.5027
G01 X56.5707 Y16.5314
G01 X56.5561 Y16.5625
G01 X56.5395 Y16.5903
G01 X56.5202 Y16.6163
G01 X56.4998 Y16.6389
G01 X55.4615 Y17.6772
G01 X55.4739 Y17.7040
G01 X55.5034 Y17.7862
G01 X55.5265 Y17.8786
G01 X55.5395 Y17.9669
G01 X55.5439 Y18.0541
G01 X55.5439 Y18.0620
G01 X55.5393 Y18.1512
G01 X55.5261 Y18.2395
G01 X55.5050 Y18.3242
G01 X55.5027 Y18.3318
G01 X55.4732 Y18.4140
G01 X55.4360 Y18.4930
G01 X55.4323 Y18.4999
G01 X55.3873 Y18.5747
G01 X55.3341 Y18.6465
G01 X55.2716 Y18.7157
G01 X55.2040 Y18.7770
G01 X55.1307 Y18.8313
G01 X55.0558 Y18.8763
G01 X55.0489 Y18.8800
G01 X54.9735 Y18.9157
G01 X54.9662 Y18.9187
G01 X54.8840 Y18.9480
G01 X54.7993 Y18.9693
G01 X54.7916 Y18.9709
G01 X54.7052 Y18.9836
G01 X54.6140 Y18.9881
G01 X54.5228 Y18.9836
G01 X54.4326 Y18.9702
G01 X54.3440 Y18.9480
G01 X54.2618 Y18.9187
G01 X54.2545 Y18.9157
G01 X54.1756 Y18.8782
G01 X54.1006 Y18.8334
G01 X54.0941 Y18.8291
G01 X54.0271 Y18.7794
G01 X54.0210 Y18.7744
G01 X53.9564 Y18.7157
G01 X53.8951 Y18.6480
G01 X53.8407 Y18.5747
G01 X53.7938 Y18.4965
G01 X53.7548 Y18.4140
G01 X53.7253 Y18.3318
G01 X53.7230 Y18.3242
G01 X53.7019 Y18.2395
G01 X53.6890 Y18.1531
G01 X53.6882 Y18.1453
G01 X53.6841 Y18.0620
G01 X53.6841 Y18.0541
G01 X53.6885 Y17.9669
G01 X53.7015 Y17.8786
G01 X53.7240 Y17.7881
G01 X53.7548 Y17.7022
G01 X53.7938 Y17.6197
G01 X53.8407 Y17.5414
G01 X53.8951 Y17.4681
G01 X53.9564 Y17.4005
G01 X54.0240 Y17.3392
G01 X54.0957 Y17.2859
G01 X54.1756 Y17.2379
G01 X54.2545 Y17.2004
G01 X54.2618 Y17.1974
G01 X54.3440 Y17.1681
G01 X54.4287 Y17.1468
G01 X54.4364 Y17.1453
G01 X54.5248 Y17.1324
G01 X54.6140 Y17.1281
G01 X54.7012 Y17.1322
G01 X54.7091 Y17.1330
G01 X54.7935 Y17.1456
G01 X54.8858 Y17.1687
G01 X54.9681 Y17.1981
G01 X54.9946 Y17.2104
G01 X55.9349 Y16.2702
G01 X55.9349 Y14.4917
G01 X55.4933 Y14.0501
G01 X33.4147 Y14.0501
G01 X25.9975 Y21.4673
G01 X25.9975 Y35.9572
G01 X26.0807 Y35.9871
G01 X26.1765 Y36.0324
G01 X26.2674 Y36.0869
G01 X26.3494 Y36.1476
G01 X26.3555 Y36.1526
G01 X26.4282 Y36.2185
G01 X26.4338 Y36.2240
G01 X26.5023 Y36.2997
G01 X26.5654 Y36.3849
G01 X26.6199 Y36.4758
G01 X26.6652 Y36.5716
G01 X26.7009 Y36.6714
G01 X26.7258 Y36.7703
G01 X26.7273 Y36.7780
G01 X26.7417 Y36.8751
G01 X26.7425 Y36.8829
G01 X26.7474 Y36.9849
G01 X26.7422 Y37.0907
G01 X26.7266 Y37.1956
G01 X26.7019 Y37.2946
G01 X26.6997 Y37.3021
G01 X26.6666 Y37.3945
G01 X26.6636 Y37.4018
G01 X26.6199 Y37.4940
G01 X26.5675 Y37.5816
G01 X26.5631 Y37.5881
G01 X26.5023 Y37.6700
G01 X26.4311 Y37.7485
G01 X26.3525 Y37.8197
G01 X26.2658 Y37.8839
G01 X26.1799 Y37.9354
G01 X26.1730 Y37.9391
G01 X26.0807 Y37.9827
G01 X25.9846 Y38.0171
G01 X25.9771 Y38.0194
G01 X25.8781 Y38.0441
G01 X25.7772 Y38.0592
G01 X25.7693 Y38.0600
G01 X25.6674 Y38.0649
G01 X25.5655 Y38.0600
G01 X25.5576 Y38.0592
G01 X25.4567 Y38.0441
G01 X25.3577 Y38.0194
G01 X25.3502 Y38.0171
G01 X25.2541 Y37.9827
G01 X25.1740 Y37.9449
G01 X24.6545 Y38.4644
G01 X24.6320 Y38.4849
G01 X24.6076 Y38.5032
G01 X24.6011 Y38.5076
G01 X24.5767 Y38.5221
G01 X24.5474 Y38.5360
G01 X24.5206 Y38.5457
G01 X24.5131 Y38.5480
G01 X24.4854 Y38.5548
G01 X24.4534 Y38.5595
G01 X24.4210 Y38.5611
G01 X17.5300 Y38.5611
G01 X17.4976 Y38.5595
G01 X17.4656 Y38.5548
G01 X17.4342 Y38.5469
G01 X17.4073 Y38.5374
G01 X17.4001 Y38.5344
G01 X17.3779 Y38.5239
G01 X17.3710 Y38.5202
G01 X17.3466 Y38.5055
G01 X17.3237 Y38.4886
G01 X17.3176 Y38.4836
G01 X17.2966 Y38.4644
G01 X13.6136 Y34.7814
G01 X13.5944 Y34.7604
G01 X13.5894 Y34.7543
G01 X13.5725 Y34.7314
G01 X13.5578 Y34.7070
G01 X13.5541 Y34.7001
G01 X13.5420 Y34.6743
G01 X13.5305 Y34.6419
G01 X13.5232 Y34.6124
G01 X13.5189 Y34.5843
G01 X13.5182 Y34.5764
G01 X13.5169 Y34.5480
G01 X13.5169 Y24.9057
G01 X9.3719 Y20.7608
G01 X5.1906 Y20.7608
G01 X5.1804 Y20.7886
G01 X5.1412 Y20.8710
G01 X5.0953 Y20.9476
G01 X5.0396 Y21.0224
G01 X4.9796 Y21.0885
G01 X4.9120 Y21.1498
G01 X4.8387 Y21.2042
G01 X4.7621 Y21.2502
G01 X4.6779 Y21.2901
G01 X4.5957 Y21.3197
G01 X4.5882 Y21.3219
G01 X4.5073 Y21.3422
G01 X4.4996 Y21.3437
G01 X4.4132 Y21.3565
G01 X4.3220 Y21.3609
G01 X4.2308 Y21.3565
G01 X4.1444 Y21.3437
G01 X4.1367 Y21.3422
G01 X4.0520 Y21.3209
G01 X3.9698 Y21.2916
G01 X3.9625 Y21.2885
G01 X3.8836 Y21.2511
G01 X3.8086 Y21.2063
G01 X3.8021 Y21.2019
G01 X3.7320 Y21.1498
G01 X3.6672 Y21.0912
G01 X3.6617 Y21.0857
G01 X3.6031 Y21.0209
G01 X3.5510 Y20.9508
G01 X3.5466 Y20.9443
G01 X3.5018 Y20.8693
G01 X3.4644 Y20.7904
G01 X3.4614 Y20.7832
G01 X3.4320 Y20.7009
G01 X3.4107 Y20.6162
G01 X3.4092 Y20.6085
G01 X3.3965 Y20.5221
G01 X3.3921 Y20.4349
G01 X3.3921 Y20.4270
G01 X3.3965 Y20.3398
G01 X3.4092 Y20.2534
G01 X3.4107 Y20.2457
G01 X3.4320 Y20.1610
G01 X3.4614 Y20.0787
G01 X3.4644 Y20.0714
G01 X3.5018 Y19.9925
G01 X3.5466 Y19.9176
G01 X3.5510 Y19.9110
G01 X3.6031 Y19.8409
G01 X3.6644 Y19.7733
G01 X3.7290 Y19.7146
G01 X3.7351 Y19.7096
G01 X3.8053 Y19.6577
G01 X3.8802 Y19.6127
G01 X3.8871 Y19.6090
G01 X3.9625 Y19.5733
G01 X3.9698 Y19.5703
G01 X4.0520 Y19.5410
G01 X4.1406 Y19.5188
G01 X4.2308 Y19.5054
G01 X4.3181 Y19.5010
G01 X4.3259 Y19.5010
G01 X4.4132 Y19.5054
G01 X4.4996 Y19.5181
G01 X4.5073 Y19.5197
G01 X4.5920 Y19.5410
G01 X4.6779 Y19.5717
G01 X4.7569 Y19.6090
G01 X4.7638 Y19.6127
G01 X4.8403 Y19.6588
G01 X4.9120 Y19.7120
G01 X4.9768 Y19.7706
G01 X4.9823 Y19.7762
G01 X5.0421 Y19.8425
G01 X5.0953 Y19.9142
G01 X5.1412 Y19.9908
G01 X5.1804 Y20.0732
G01 X5.1904 Y20.1006
G01 X9.5087 Y20.1006
G01 X9.5410 Y20.1021
G01 X9.5731 Y20.1069
G01 X9.6045 Y20.1148
G01 X9.6368 Y20.1265
G01 X9.6643 Y20.1395
G01 X9.6921 Y20.1562
G01 X9.7181 Y20.1755
G01 X9.7421 Y20.1972
G01 X14.0804 Y24.5356
G01 X14.1034 Y24.5611
G01 X14.1215 Y24.5856
G01 X14.1381 Y24.6134
G01 X14.1520 Y24.6427
G01 X14.1617 Y24.6694
G01 X14.1640 Y24.6770
G01 X14.1699 Y24.7008
G01 X14.1715 Y24.7085
G01 X14.1755 Y24.7366
G01 X14.1771 Y24.7690
G01 X14.1771 Y34.4113
G01 X17.6667 Y37.9009
G01 X24.2843 Y37.9009
G01 X24.7072 Y37.4779
G00 Z1.0000
G00 X26.8976 Y36.8355
G01 F25.00
G01 Z-0.0520
G01 F120.00
G01 X26.9007 Y36.8565
G01 X26.9021 Y36.8712
G01 X26.9074 Y36.9839
G01 X26.9071 Y36.9966
G01 X26.9021 Y37.0986
G01 X26.9007 Y37.1132
G01 X26.8976 Y37.1342
G01 X26.9174 Y37.1318
G01 X26.9381 Y37.1310
G01 X26.9569 Y37.1318
G01 X26.9770 Y37.1343
G01 X26.9739 Y37.1132
G01 X26.9725 Y37.0986
G01 X26.9674 Y36.9966
G01 X26.9674 Y36.9962
G01 X26.9674 Y36.9952
G01 X26.9674 Y36.9947
G01 X26.9673 Y36.9917
G01 X26.9672 Y36.9859
G01 X26.9674 Y36.9731
G01 X26.9725 Y36.8712
G01 X26.9739 Y36.8565
G01 X26.9770 Y36.8355
G01 X26.9568 Y36.8380
G01 X26.9381 Y36.8388
G01 X26.9175 Y36.8380
G01 X26.8976 Y36.8355
G01 X27.0805 Y37.2560
G01 X27.0709 Y37.2179
G01 X27.0689 Y37.2083
G01 X27.0531 Y37.1015
G01 X27.0522 Y37.0907
G01 X27.0472 Y36.9859
G01 X27.0522 Y36.8790
G01 X27.0531 Y36.8682
G01 X27.0689 Y36.7615
G01 X27.0709 Y36.7519
G01 X27.0804 Y36.7141
G01 X27.0605 Y36.7270
G01 X27.0503 Y36.7330
G01 X27.0359 Y36.7397
G01 X27.0229 Y36.7444
G01 X27.0075 Y36.7484
G01 X26.9636 Y36.7566
G01 X26.9499 Y36.7583
G01 X26.9362 Y36.7588
G01 X26.9224 Y36.7581
G01 X26.9107 Y36.7566
G01 X26.8667 Y36.7484
G01 X26.8511 Y36.7443
G01 X26.8378 Y36.7395
G01 X26.8233 Y36.7326
G01 X26.8128 Y36.7265
G01 X26.7942 Y36.7140
G01 X26.8036 Y36.7519
G01 X26.8057 Y36.7615
G01 X26.8215 Y36.8682
G01 X26.8224 Y36.8790
G01 X26.8274 Y36.9859
G01 X26.8224 Y37.0907
G01 X26.8215 Y37.1015
G01 X26.8057 Y37.2083
G01 X26.8036 Y37.2179
G01 X26.7941 Y37.2560
G01 X26.8143 Y37.2428
G01 X26.8249 Y37.2368
G01 X26.8377 Y37.2308
G01 X26.8510 Y37.2260
G01 X26.8647 Y37.2223
G01 X26.9087 Y37.2135
G01 X26.9224 Y37.2116
G01 X26.9362 Y37.2110
G01 X26.9500 Y37.2115
G01 X26.9637 Y37.2132
G01 X27.0095 Y37.2223
G01 X27.0230 Y37.2259
G01 X27.0361 Y37.2306
G01 X27.0487 Y37.2364
G01 X27.0590 Y37.2423
G01 X27.0805 Y37.2560
G00 Z1.0000
G00 X27.8704 Y38.0102
G01 F25.00
G01 Z-0.0520
G01 F120.00
G01 X27.7939 Y37.9827
G01 X27.6980 Y37.9373
G01 X27.6071 Y37.8829
G01 X27.5251 Y37.8221
G01 X27.5190 Y37.8172
G01 X27.4463 Y37.7513
G01 X27.4408 Y37.7457
G01 X27.3723 Y37.6700
G01 X27.3114 Y37.5881
G01 X27.3071 Y37.5816
G01 X27.2566 Y37.4974
G01 X27.2529 Y37.4905
G01 X27.2094 Y37.3982
G01 X27.1737 Y37.2984
G01 X27.1479 Y37.1956
G01 X27.1328 Y37.0946
G01 X27.1321 Y37.0868
G01 X27.1272 Y36.9849
G01 X27.1324 Y36.8790
G01 X27.1472 Y36.7780
G01 X27.1488 Y36.7703
G01 X27.1737 Y36.6714
G01 X27.2094 Y36.5716
G01 X27.2529 Y36.4793
G01 X27.2566 Y36.4723
G01 X27.3071 Y36.3882
G01 X27.3114 Y36.3816
G01 X27.3723 Y36.2997
G01 X27.4408 Y36.2240
G01 X27.4463 Y36.2185
G01 X27.5190 Y36.1526
G01 X27.5251 Y36.1476
G01 X27.6071 Y36.0869
G01 X27.6980 Y36.0324
G01 X27.7939 Y35.9871
G01 X27.8770 Y35.9572
G01 X27.8771 Y31.6159
G01 X27.8786 Y31.5855
G01 X27.8827 Y31.5573
G01 X27.8842 Y31.5496
G01 X27.8913 Y31.5220
G01 X27.9022 Y31.4915
G01 X27.9143 Y31.4658
G01 X27.9180 Y31.4588
G01 X27.9338 Y31.4329
G01 X27.9520 Y31.4085
G01 X27.9737 Y31.3844
G01 X43.9666 Y15.3916
G01 X43.9906 Y15.3698
G01 X44.0166 Y15.3505
G01 X44.0444 Y15.3339
G01 X44.0737 Y15.3200
G01 X44.1004 Y15.3103
G01 X44.1080 Y15.3080
G01 X44.1318 Y15.3021
G01 X44.1395 Y15.3005
G01 X44.1676 Y15.2965
G01 X44.2000 Y15.2949
G01 X53.7222 Y15.2949
G01 X53.7253 Y15.2842
G01 X53.7534 Y15.2057
G01 X53.7564 Y15.1985
G01 X53.7938 Y15.1195
G01 X53.8407 Y15.0413
G01 X53.8951 Y14.9680
G01 X53.9537 Y14.9032
G01 X53.9592 Y14.8976
G01 X54.0210 Y14.8416
G01 X54.0271 Y14.8366
G01 X54.0973 Y14.7847
G01 X54.1756 Y14.7378
G01 X54.2581 Y14.6987
G01 X54.3403 Y14.6692
G01 X54.3478 Y14.6669
G01 X54.4287 Y14.6467
G01 X54.4364 Y14.6451
G01 X54.5228 Y14.6324
G01 X54.6120 Y14.6280
G01 X54.7052 Y14.6324
G01 X54.7954 Y14.6458
G01 X54.8840 Y14.6680
G01 X54.9662 Y14.6973
G01 X54.9735 Y14.7003
G01 X55.0489 Y14.7360
G01 X55.0558 Y14.7397
G01 X55.1307 Y14.7847
G01 X55.2009 Y14.8366
G01 X55.2070 Y14.8416
G01 X55.2716 Y14.9003
G01 X55.3329 Y14.9680
G01 X55.3873 Y15.0413
G01 X55.4323 Y15.1161
G01 X55.4360 Y15.1230
G01 X55.4732 Y15.2020
G01 X55.5027 Y15.2842
G01 X55.5050 Y15.2918
G01 X55.5261 Y15.3765
G01 X55.5390 Y15.4629
G01 X55.5398 Y15.4707
G01 X55.5440 Y15.5579
G01 X55.5398 Y15.6452
G01 X55.5390 Y15.6530
G01 X55.5261 Y15.7394
G01 X55.5050 Y15.8241
G01 X55.5027 Y15.8316
G01 X55.4732 Y15.9138
G01 X55.4360 Y15.9928
G01 X55.4323 Y15.9998
G01 X55.3873 Y16.0746
G01 X55.3353 Y16.1448
G01 X55.3303 Y16.1509
G01 X55.2716 Y16.2155
G01 X55.2070 Y16.2743
G01 X55.2009 Y16.2793
G01 X55.1307 Y16.3312
G01 X55.0558 Y16.3762
G01 X55.0489 Y16.3799
G01 X54.9699 Y16.4171
G01 X54.8840 Y16.4479
G01 X54.7993 Y16.4692
G01 X54.7916 Y16.4707
G01 X54.7052 Y16.4835
G01 X54.6140 Y16.4879
G01 X54.5268 Y16.4838
G01 X54.5189 Y16.4830
G01 X54.4326 Y16.4701
G01 X54.3440 Y16.4479
G01 X54.2618 Y16.4186
G01 X54.2545 Y16.4156
G01 X54.1739 Y16.3772
G01 X54.0973 Y16.3312
G01 X54.0271 Y16.2793
G01 X54.0210 Y16.2743
G01 X53.9550 Y16.2141
G01 X53.8951 Y16.1479
G01 X53.8418 Y16.0762
G01 X53.7948 Y15.9981
G01 X53.7742 Y15.9551
G01 X44.3367 Y15.9551
G01 X28.5373 Y31.7546
G01 X28.5373 Y35.9572
G01 X28.6204 Y35.9871
G01 X28.7163 Y36.0324
G01 X28.8072 Y36.0869
G01 X28.8923 Y36.1500
G01 X28.9708 Y36.2212
G01 X29.0420 Y36.2997
G01 X29.1051 Y36.3849
G01 X29.1577 Y36.4723
G01 X29.1614 Y36.4793
G01 X29.2033 Y36.5680
G01 X29.2064 Y36.5752
G01 X29.2406 Y36.6714
G01 X29.2655 Y36.7703
G01 X29.2671 Y36.7780
G01 X29.2819 Y36.8790
G01 X29.2871 Y36.9849
G01 X29.2819 Y37.0907
G01 X29.2664 Y37.1956
G01 X29.2417 Y37.2946
G01 X29.2394 Y37.3021
G01 X29.2049 Y37.3982
G01 X29.1614 Y37.4905
G01 X29.1577 Y37.4974
G01 X29.1051 Y37.5849
G01 X29.0444 Y37.6669
G01 X29.0394 Y37.6730
G01 X28.9708 Y37.7485
G01 X28.8953 Y37.8172
G01 X28.8892 Y37.8221
G01 X28.8072 Y37.8829
G01 X28.7197 Y37.9354
G01 X28.7128 Y37.9391
G01 X28.6204 Y37.9827
G01 X28.5307 Y38.0149
G01 X28.5281 Y38.3604
G01 X28.5261 Y38.3944
G01 X28.5214 Y38.4242
G01 X28.5145 Y38.4515
G01 X28.5122 Y38.4590
G01 X28.5025 Y38.4855
G01 X28.4887 Y38.5144
G01 X28.4742 Y38.5386
G01 X28.4699 Y38.5451
G01 X28.4530 Y38.5677
G01 X28.4314 Y38.5914
G01 X27.1600 Y39.8628
G01 X27.1374 Y39.8832
G01 X27.1146 Y39.9002
G01 X27.1081 Y39.9046
G01 X27.0870 Y39.9172
G01 X27.0801 Y39.9209
G01 X27.0543 Y39.9330
G01 X27.0238 Y39.9439
G01 X26.9924 Y39.9518
G01 X26.9643 Y39.9561
G01 X26.9564 Y39.9568
G01 X26.9280 Y39.9581
G01 X10.2910 Y39.9581
G01 X10.2586 Y39.9565
G01 X10.2305 Y39.9525
G01 X10.2228 Y39.9509
G01 X10.1990 Y39.9450
G01 X10.1914 Y39.9427
G01 X10.1647 Y39.9330
G01 X10.1354 Y39.9191
G01 X10.1076 Y39.9025
G01 X10.0847 Y39.8856
G01 X10.0786 Y39.8806
G01 X10.0576 Y39.8614
G01 X4.0886 Y33.8924
G01 X4.0668 Y33.8684
G01 X4.0475 Y33.8424
G01 X4.0309 Y33.8146
G01 X4.0163 Y33.7835
G01 X4.0061 Y33.7548
G01 X3.9982 Y33.7234
G01 X3.9935 Y33.6914
G01 X3.9919 Y33.6590
G01 X3.9919 Y23.7996
G01 X3.9643 Y23.7895
G01 X3.8853 Y23.7521
G01 X3.8070 Y23.7054
G01 X3.7320 Y23.6499
G01 X3.6630 Y23.5873
G01 X3.6057 Y23.5240
G01 X3.6007 Y23.5179
G01 X3.5487 Y23.4477
G01 X3.5037 Y23.3729
G01 X3.5000 Y23.3659
G01 X3.4628 Y23.2869
G01 X3.4326 Y23.2029
G01 X3.4099 Y23.1125
G01 X3.3965 Y23.0222
G01 X3.3920 Y22.9311
G01 X3.3962 Y22.8438
G01 X3.3970 Y22.8360
G01 X3.4099 Y22.7496
G01 X3.4310 Y22.6649
G01 X3.4333 Y22.6574
G01 X3.4614 Y22.5788
G01 X3.4644 Y22.5716
G01 X3.5018 Y22.4927
G01 X3.5477 Y22.4160
G01 X3.6007 Y22.3442
G01 X3.6057 Y22.3381
G01 X3.6644 Y22.2734
G01 X3.7320 Y22.2122
G01 X3.8021 Y22.1600
G01 X3.8086 Y22.1557
G01 X3.8836 Y22.1109
G01 X3.9661 Y22.0718
G01 X4.0520 Y22.0411
G01 X4.1367 Y22.0198
G01 X4.1444 Y22.0182
G01 X4.2308 Y22.0055
G01 X4.3220 Y22.0011
G01 X4.4092 Y22.0052
G01 X4.4171 Y22.0060
G01 X4.4996 Y22.0182
G01 X4.5073 Y22.0198
G01 X4.5920 Y22.0411
G01 X4.6779 Y22.0718
G01 X4.7604 Y22.1109
G01 X4.8354 Y22.1557
G01 X4.8419 Y22.1600
G01 X4.9089 Y22.2097
G01 X4.9150 Y22.2147
G01 X4.9796 Y22.2734
G01 X5.0383 Y22.3381
G01 X5.0433 Y22.3442
G01 X5.0930 Y22.4112
G01 X5.0974 Y22.4177
G01 X5.1422 Y22.4927
G01 X5.1812 Y22.5752
G01 X5.2107 Y22.6574
G01 X5.2130 Y22.6649
G01 X5.2341 Y22.7496
G01 X5.2475 Y22.8399
G01 X5.2520 Y22.9310
G01 X5.2478 Y23.0183
G01 X5.2470 Y23.0261
G01 X5.2348 Y23.1086
G01 X5.2333 Y23.1163
G01 X5.2120 Y23.2010
G01 X5.1812 Y23.2869
G01 X5.1422 Y23.3694
G01 X5.0963 Y23.4461
G01 X5.0433 Y23.5179
G01 X5.0383 Y23.5240
G01 X4.9796 Y23.5887
G01 X4.9105 Y23.6512
G01 X4.8387 Y23.7043
G01 X4.7621 Y23.7503
G01 X4.6797 Y23.7895
G01 X4.6521 Y23.7996
G01 X4.6521 Y33.5223
G01 X10.4277 Y39.2979
G01 X26.7913 Y39.2979
G01 X27.8689 Y38.2202
G01 X27.8704 Y38.0102
G01 X27.7894 Y38.1459
G01 X27.7900 Y38.0664
G01 X27.7685 Y38.0586
G01 X27.7726 Y38.0673
G01 X27.7764 Y38.0766
G01 X27.7796 Y38.0861
G01 X27.7822 Y38.0958
G01 X27.7849 Y38.1096
G01 X27.7894 Y38.1459
G00 Z1.0000
G00 X29.7609 Y37.6282
G01 F25.00
G01 Z-0.0520
G01 F120.00
G01 X29.7768 Y37.6547
G01 X29.8648 Y37.7669
G01 X29.9652 Y37.8672
G01 X30.0774 Y37.9553
G01 X30.1038 Y37.9712
G01 X30.1038 Y37.8508
G01 X30.0605 Y37.8185
G01 X29.9835 Y37.7485
G01 X29.9136 Y37.6715
G01 X29.8812 Y37.6282
G01 X29.7609 Y37.6282
G00 Z1.0000
G00 X29.7612 Y36.3415
G01 F25.00
G01 Z-0.0520
G01 F120.00
G01 X29.8812 Y36.3415
G01 X29.9136 Y36.2982
G01 X29.9835 Y36.2212
G01 X30.0605 Y36.1513
G01 X30.1038 Y36.1189
G01 X30.1038 Y35.9990
G01 X30.0773 Y36.0151
G01 X29.9652 Y36.1025
G01 X29.8649 Y36.2033
G01 X29.7768 Y36.3156
G01 X29.7612 Y36.3415
G00 Z1.0000
G00 X31.7327 Y36.3415
G01 F25.00
G01 Z-0.0520
G01 F120.00
G01 X31.7170 Y36.3156
G01 X31.6294 Y36.2033
G01 X31.5287 Y36.1025
G01 X31.4169 Y36.0151
G01 X31.3905 Y35.9991
G01 X31.3905 Y36.1189
G01 X31.4338 Y36.1513
G01 X31.5108 Y36.2212
G01 X31.5807 Y36.2982
G01 X31.6131 Y36.3415
G01 X31.7327 Y36.3415
G00 Z1.0000
G00 X32.8441 Y35.8254
G01 F25.00
G01 Z-0.0520
G01 F120.00
G01 X32.8780 Y35.8254
G01 X32.8780 Y35.7914
G01 X32.8707 Y35.8006
G01 X32.8630 Y35.8090
G01 X32.8533 Y35.8181
G01 X32.8441 Y35.8254
G00 Z1.0000
G00 X33.6983 Y35.7914
G01 F25.00
G01 Z-0.0520
G01 F120.00
G01 X33.6983 Y35.8254
G01 X33.7322 Y35.8254
G01 X33.7231 Y35.8181
G01 X33.7133 Y35.8090
G01 X33.7056 Y35.8006
G01 X33.6983 Y35.7914
G00 Z1.0000
G00 X32.0728 Y37.5528
G01 F25.00
G01 Z-0.0520
G01 F120.00
G01 X32.0869 Y37.5719
G01 X32.0908 Y37.5786
G01 X32.0947 Y37.5874
G01 X32.0979 Y37.5985
G01 X32.1071 Y37.6412
G01 X32.1085 Y37.6505
G01 X32.1088 Y37.6580
G01 X32.1088 Y37.9755
G01 X32.1144 Y38.0249
G01 X32.1277 Y38.0623
G01 X32.1492 Y38.0965
G01 X32.1771 Y38.1244
G01 X32.2113 Y38.1459
G01 X32.2486 Y38.1591
G01 X32.2985 Y38.1647
G01 X34.2779 Y38.1647
G01 X34.3277 Y38.1591
G01 X34.3649 Y38.1459
G01 X34.3988 Y38.1244
G01 X34.4273 Y38.0963
G01 X34.4485 Y38.0626
G01 X34.4614 Y38.0253
G01 X34.4670 Y37.9755
G01 X34.4670 Y35.9957
G01 X34.4614 Y35.9459
G01 X34.4485 Y35.9083
G01 X34.4273 Y35.8749
G01 X34.3986 Y35.8462
G01 X34.3652 Y35.8250
G01 X34.3281 Y35.8122
G01 X34.2779 Y35.8066
G01 X33.8968 Y35.8065
G01 X33.8852 Y35.8054
G01 X33.8427 Y35.7970
G01 X33.8369 Y35.7955
G01 X33.8294 Y35.7928
G01 X33.8187 Y35.7873
G01 X33.7807 Y35.7617
G01 X33.7719 Y35.7545
G01 X33.7667 Y35.7490
G01 X33.7620 Y35.7430
G01 X33.7374 Y35.7067
G01 X33.7326 Y35.6980
G01 X33.7289 Y35.6887
G01 X33.7263 Y35.6791
G01 X33.7183 Y35.6385
G01 X33.7174 Y35.6308
G01 X33.7172 Y35.6250
G01 X33.7172 Y33.7748
G01 X33.7175 Y33.7671
G01 X33.7183 Y33.7614
G01 X33.7271 Y33.7166
G01 X33.7307 Y33.7056
G01 X33.7330 Y33.7004
G01 X33.7368 Y33.6936
G01 X33.7624 Y33.6562
G01 X33.7706 Y33.6466
G01 X36.0698 Y31.3474
G01 X36.0793 Y31.3393
G01 X36.1152 Y31.3146
G01 X36.1253 Y31.3090
G01 X36.1342 Y31.3055
G01 X36.1436 Y31.3031
G01 X36.1846 Y31.2951
G01 X36.1922 Y31.2942
G01 X36.1980 Y31.2940
G01 X50.9272 Y31.2940
G01 X50.9684 Y31.2922
G01 X51.0056 Y31.2875
G01 X51.0420 Y31.2794
G01 X51.0777 Y31.2683
G01 X51.1119 Y31.2538
G01 X51.1457 Y31.2364
G01 X51.1772 Y31.2164
G01 X51.2068 Y31.1937
G01 X51.2374 Y31.1658
G01 X56.5658 Y25.8374
G01 X56.5938 Y25.8067
G01 X56.6165 Y25.7772
G01 X56.6364 Y25.7457
G01 X56.6538 Y25.7119
G01 X56.6683 Y25.6777
G01 X56.6794 Y25.6420
G01 X56.6875 Y25.6056
G01 X56.6922 Y25.5684
G01 X56.6940 Y25.5272
G01 X56.6940 Y22.2130
G01 X56.6922 Y22.1713
G01 X56.6875 Y22.1345
G01 X56.6794 Y22.0977
G01 X56.6683 Y22.0624
G01 X56.6538 Y22.0278
G01 X56.6366 Y21.9946
G01 X56.6165 Y21.9630
G01 X56.5938 Y21.9334
G01 X56.5658 Y21.9028
G01 X55.6552 Y20.9922
G01 X55.6477 Y20.9835
G01 X55.6267 Y20.9540
G01 X55.6224 Y20.9471
G01 X55.6188 Y20.9399
G01 X55.6159 Y20.9324
G01 X55.6051 Y20.8960
G01 X55.6038 Y20.8902
G01 X55.6027 Y20.8823
G01 X55.6025 Y20.8704
G01 X55.6046 Y20.8345
G01 X55.6056 Y20.8270
G01 X55.6296 Y20.7221
G01 X55.6423 Y20.5911
G01 X55.6381 Y20.4593
G01 X55.6169 Y20.3293
G01 X55.6087 Y20.3019
G01 X55.6069 Y20.2938
G01 X55.6021 Y20.2517
G01 X55.6018 Y20.2439
G01 X55.6023 Y20.2361
G01 X55.6039 Y20.2265
G01 X55.6135 Y20.1895
G01 X55.6158 Y20.1822
G01 X55.6180 Y20.1768
G01 X55.6215 Y20.1700
G01 X55.6256 Y20.1635
G01 X55.6476 Y20.1325
G01 X55.6539 Y20.1251
G01 X58.0898 Y17.6891
G01 X58.1178 Y17.6584
G01 X58.1405 Y17.6289
G01 X58.1604 Y17.5974
G01 X58.1778 Y17.5636
G01 X58.1923 Y17.5294
G01 X58.2034 Y17.4937
G01 X58.2115 Y17.4573
G01 X58.2162 Y17.4201
G01 X58.2180 Y17.3789
G01 X58.2180 Y13.5968
G01 X58.2162 Y13.5556
G01 X58.2115 Y13.5184
G01 X58.2034 Y13.4820
G01 X58.1923 Y13.4463
G01 X58.1778 Y13.4121
G01 X58.1604 Y13.3783
G01 X58.1405 Y13.3468
G01 X58.1178 Y13.3172
G01 X58.0898 Y13.2866
G01 X56.5714 Y11.7682
G01 X56.5408 Y11.7402
G01 X56.5112 Y11.7175
G01 X56.4797 Y11.6976
G01 X56.4459 Y11.6802
G01 X56.4117 Y11.6657
G01 X56.3760 Y11.6546
G01 X56.3396 Y11.6465
G01 X56.3024 Y11.6418
G01 X56.2612 Y11.6400
G01 X20.8358 Y11.6400
G01 X20.7946 Y11.6418
G01 X20.7574 Y11.6465
G01 X20.7210 Y11.6546
G01 X20.6853 Y11.6657
G01 X20.6511 Y11.6802
G01 X20.6173 Y11.6976
G01 X20.5858 Y11.7175
G01 X20.5563 Y11.7402
G01 X20.5256 Y11.7682
G01 X14.8449 Y17.4489
G01 X14.8354 Y17.4570
G01 X14.7995 Y17.4817
G01 X14.7894 Y17.4873
G01 X14.7804 Y17.4908
G01 X14.7711 Y17.4932
G01 X14.7301 Y17.5012
G01 X14.7244 Y17.5019
G01 X14.7167 Y17.5023
G01 X5.3623 Y17.5022
G01 X5.3541 Y17.5013
G01 X5.3140 Y17.4940
G01 X5.3083 Y17.4926
G01 X5.3009 Y17.4901
G01 X5.2937 Y17.4868
G01 X5.2886 Y17.4839
G01 X5.2554 Y17.4636
G01 X5.2462 Y17.4566
G01 X5.2393 Y17.4498
G01 X5.2333 Y17.4422
G01 X5.1265 Y17.2894
G01 X5.0379 Y17.1919
G01 X4.9375 Y17.1066
G01 X4.8268 Y17.0345
G01 X4.7080 Y16.9774
G01 X4.5830 Y16.9359
G01 X4.4536 Y16.9105
G01 X4.3220 Y16.9025
G01 X4.1905 Y16.9105
G01 X4.0610 Y16.9359
G01 X3.9360 Y16.9774
G01 X3.8172 Y17.0345
G01 X3.7065 Y17.1066
G01 X3.6061 Y17.1919
G01 X3.5176 Y17.2894
G01 X3.4422 Y17.3977
G01 X3.3813 Y17.5147
G01 X3.3356 Y17.6382
G01 X3.3064 Y17.7668
G01 X3.2937 Y17.8978
G01 X3.2979 Y18.0297
G01 X3.3191 Y18.1599
G01 X3.3563 Y18.2861
G01 X3.4100 Y18.4067
G01 X3.4785 Y18.5195
G01 X3.5604 Y18.6227
G01 X3.6552 Y18.7141
G01 X3.7608 Y18.7933
G01 X3.8757 Y18.8578
G01 X3.9978 Y18.9073
G01 X4.1255 Y18.9408
G01 X4.2561 Y18.9577
G01 X4.3879 Y18.9577
G01 X4.5185 Y18.9408
G01 X4.6462 Y18.9073
G01 X4.7683 Y18.8578
G01 X4.8833 Y18.7933
G01 X4.9888 Y18.7141
G01 X5.0836 Y18.6227
G01 X5.1655 Y18.5195
G01 X5.2092 Y18.4476
G01 X5.2137 Y18.4409
G01 X5.2404 Y18.4103
G01 X5.2487 Y18.4022
G01 X5.2548 Y18.3975
G01 X5.2614 Y18.3934
G01 X5.2930 Y18.3757
G01 X5.3016 Y18.3718
G01 X5.3070 Y18.3699
G01 X5.3144 Y18.3680
G01 X5.3523 Y18.3613
G01 X5.3604 Y18.3604
G01 X14.9659 Y18.3603
G01 X15.0071 Y18.3585
G01 X15.0443 Y18.3538
G01 X15.0807 Y18.3457
G01 X15.1164 Y18.3346
G01 X15.1506 Y18.3201
G01 X15.1844 Y18.3028
G01 X15.2159 Y18.2828
G01 X15.2454 Y18.2601
G01 X15.2761 Y18.2321
G01 X20.9568 Y12.5514
G01 X20.9663 Y12.5433
G01 X21.0005 Y12.5197
G01 X21.0071 Y12.5156
G01 X21.0140 Y12.5122
G01 X21.0212 Y12.5095
G01 X21.0287 Y12.5075
G01 X21.0697 Y12.4995
G01 X21.0792 Y12.4982
G01 X56.0139 Y12.4980
G01 X56.0254 Y12.4991
G01 X56.0664 Y12.5071
G01 X56.0739 Y12.5089
G01 X56.0812 Y12.5115
G01 X56.0882 Y12.5147
G01 X56.0949 Y12.5186
G01 X56.1307 Y12.5433
G01 X56.1387 Y12.5500
G01 X57.3080 Y13.7193
G01 X57.3147 Y13.7273
G01 X57.3394 Y13.7631
G01 X57.3433 Y13.7698
G01 X57.3465 Y13.7768
G01 X57.3491 Y13.7841
G01 X57.3509 Y13.7916
G01 X57.3589 Y13.8326
G01 X57.3596 Y13.8383
G01 X57.3600 Y13.8460
G01 X57.3600 Y17.1297
G01 X57.3596 Y17.1374
G01 X57.3589 Y17.1431
G01 X57.3509 Y17.1841
G01 X57.3485 Y17.1934
G01 X57.3450 Y17.2024
G01 X57.3394 Y17.2125
G01 X57.3147 Y17.2483
G01 X57.3066 Y17.2579
G01 X55.8055 Y18.7594
G01 X55.7960 Y18.7672
G01 X55.7603 Y18.7907
G01 X55.7520 Y18.7954
G01 X55.7450 Y18.7985
G01 X55.7396 Y18.8004
G01 X55.7322 Y18.8022
G01 X55.6902 Y18.8097
G01 X55.6823 Y18.8107
G01 X55.6743 Y18.8109
G01 X55.6663 Y18.8103
G01 X55.6584 Y18.8089
G01 X55.6164 Y18.7993
G01 X55.6090 Y18.7970
G01 X55.6036 Y18.7949
G01 X55.5950 Y18.7904
G01 X55.5886 Y18.7861
G01 X55.5540 Y18.7605
G01 X55.5451 Y18.7525
G01 X55.5387 Y18.7449
G01 X55.5343 Y18.7383
G01 X55.5125 Y18.7015
G01 X55.5076 Y18.6910
G01 X55.5046 Y18.6818
G01 X55.5031 Y18.6742
G01 X55.4973 Y18.6256
G01 X55.4976 Y18.6135
G01 X55.4992 Y18.6036
G01 X55.5133 Y18.5548
G01 X55.5175 Y18.5455
G01 X55.5547 Y18.4744
G01 X55.6004 Y18.3505
G01 X55.6296 Y18.2223
G01 X55.6423 Y18.0908
G01 X55.6381 Y17.9594
G01 X55.6169 Y17.8294
G01 X55.6087 Y17.8021
G01 X55.6070 Y17.7945
G01 X55.6024 Y17.7469
G01 X55.6027 Y17.7372
G01 X55.6042 Y17.7276
G01 X55.6138 Y17.6888
G01 X55.6170 Y17.6793
G01 X55.6204 Y17.6721
G01 X55.6245 Y17.6653
G01 X55.6476 Y17.6326
G01 X55.6552 Y17.6238
G01 X56.5658 Y16.7132
G01 X56.5938 Y16.6825
G01 X56.6165 Y16.6530
G01 X56.6366 Y16.6214
G01 X56.6538 Y16.5882
G01 X56.6683 Y16.5536
G01 X56.6794 Y16.5183
G01 X56.6875 Y16.4815
G01 X56.6922 Y16.4447
G01 X56.6940 Y16.4030
G01 X56.6940 Y14.3588
G01 X56.6922 Y14.3176
G01 X56.6875 Y14.2804
G01 X56.6794 Y14.2440
G01 X56.6683 Y14.2083
G01 X56.6538 Y14.1741
G01 X56.6364 Y14.1403
G01 X56.6165 Y14.1088
G01 X56.5938 Y14.0792
G01 X56.5658 Y14.0486
G01 X55.9364 Y13.4192
G01 X55.9058 Y13.3912
G01 X55.8762 Y13.3685
G01 X55.8447 Y13.3486
G01 X55.8109 Y13.3312
G01 X55.7767 Y13.3167
G01 X55.7410 Y13.3056
G01 X55.7046 Y13.2975
G01 X55.6674 Y13.2928
G01 X55.6262 Y13.2910
G01 X33.2818 Y13.2910
G01 X33.2406 Y13.2928
G01 X33.2034 Y13.2975
G01 X33.1670 Y13.3056
G01 X33.1313 Y13.3167
G01 X33.0971 Y13.3312
G01 X33.0633 Y13.3486
G01 X33.0318 Y13.3685
G01 X33.0023 Y13.3912
G01 X32.9716 Y13.4192
G01 X25.3667 Y21.0246
G01 X25.3389 Y21.0546
G01 X25.3164 Y21.0844
G01 X25.2959 Y21.1166
G01 X25.2784 Y21.1494
G01 X25.2645 Y21.1837
G01 X25.2533 Y21.2194
G01 X25.2451 Y21.2566
G01 X25.2399 Y21.2934
G01 X25.2381 Y21.3346
G01 X25.2379 Y35.7758
G01 X25.2368 Y35.7849
G01 X25.2293 Y35.8249
G01 X25.2273 Y35.8324
G01 X25.2254 Y35.8378
G01 X25.2222 Y35.8448
G01 X25.2184 Y35.8515
G01 X25.1965 Y35.8856
G01 X25.1892 Y35.8949
G01 X25.1837 Y35.9004
G01 X25.1776 Y35.9053
G01 X25.1409 Y35.9309
G01 X25.1328 Y35.9353
G01 X25.1197 Y35.9413
G01 X24.9979 Y36.0151
G01 X24.8856 Y36.1026
G01 X24.7849 Y36.2033
G01 X24.6973 Y36.3156
G01 X24.6235 Y36.4375
G01 X24.5650 Y36.5668
G01 X24.5227 Y36.7028
G01 X24.4970 Y36.8431
G01 X24.4885 Y36.9849
G01 X24.4970 Y37.1271
G01 X24.5227 Y37.2669
G01 X24.5507 Y37.3568
G01 X24.5535 Y37.3686
G01 X24.5585 Y37.4092
G01 X24.5589 Y37.4169
G01 X24.5587 Y37.4227
G01 X24.5571 Y37.4342
G01 X24.5464 Y37.4773
G01 X24.5428 Y37.4865
G01 X24.5382 Y37.4951
G01 X24.5152 Y37.5284
G01 X24.5088 Y37.5364
G01 X24.2932 Y37.7515
G01 X24.2850 Y37.7579
G01 X24.2509 Y37.7814
G01 X24.2459 Y37.7843
G01 X24.2390 Y37.7877
G01 X24.2318 Y37.7905
G01 X24.2243 Y37.7925
G01 X24.1776 Y37.8014
G01 X24.1680 Y37.8020
G01 X17.7830 Y37.8020
G01 X17.7753 Y37.8016
G01 X17.7696 Y37.8008
G01 X17.7286 Y37.7929
G01 X17.7211 Y37.7910
G01 X17.7138 Y37.7885
G01 X17.7068 Y37.7853
G01 X17.7002 Y37.7814
G01 X17.6660 Y37.7579
G01 X17.6594 Y37.7528
G01 X14.3294 Y34.4232
G01 X14.3213 Y34.4137
G01 X14.2956 Y34.3762
G01 X14.2903 Y34.3660
G01 X14.2864 Y34.3551
G01 X14.2772 Y34.3084
G01 X14.2764 Y34.3027
G01 X14.2760 Y34.2950
G01 X14.2760 Y24.7728
G01 X14.2742 Y24.7316
G01 X14.2695 Y24.6944
G01 X14.2614 Y24.6580
G01 X14.2503 Y24.6223
G01 X14.2358 Y24.5881
G01 X14.2184 Y24.5543
G01 X14.1985 Y24.5228
G01 X14.1758 Y24.4932
G01 X14.1478 Y24.4626
G01 X9.8151 Y20.1299
G01 X9.7844 Y20.1019
G01 X9.7549 Y20.0792
G01 X9.7234 Y20.0592
G01 X9.6896 Y20.0419
G01 X9.6554 Y20.0274
G01 X9.6197 Y20.0163
G01 X9.5833 Y20.0082
G01 X9.5461 Y20.0035
G01 X9.5049 Y20.0017
G01 X5.3659 Y20.0017
G01 X5.3556 Y20.0010
G01 X5.3135 Y19.9934
G01 X5.3059 Y19.9914
G01 X5.3004 Y19.9894
G01 X5.2950 Y19.9870
G01 X5.2881 Y19.9833
G01 X5.2549 Y19.9629
G01 X5.2457 Y19.9560
G01 X5.2388 Y19.9492
G01 X5.2329 Y19.9416
G01 X5.1265 Y19.7898
G01 X5.0378 Y19.6922
G01 X4.9375 Y19.6065
G01 X4.8268 Y19.5348
G01 X4.7079 Y19.4773
G01 X4.5832 Y19.4359
G01 X4.4536 Y19.4109
G01 X4.3220 Y19.4024
G01 X4.1905 Y19.4109
G01 X4.0608 Y19.4359
G01 X3.9361 Y19.4773
G01 X3.8172 Y19.5348
G01 X3.7065 Y19.6065
G01 X3.6062 Y19.6922
G01 X3.5175 Y19.7898
G01 X3.4421 Y19.8977
G01 X3.3813 Y20.0145
G01 X3.3356 Y20.1385
G01 X3.3064 Y20.2667
G01 X3.2937 Y20.3982
G01 X3.2979 Y20.5296
G01 X3.3191 Y20.6597
G01 X3.3563 Y20.7860
G01 X3.4100 Y20.9066
G01 X3.4785 Y21.0194
G01 X3.5605 Y21.1226
G01 X3.6552 Y21.2144
G01 X3.7607 Y21.2931
G01 X3.8757 Y21.3577
G01 X3.9978 Y21.4072
G01 X4.1255 Y21.4406
G01 X4.2561 Y21.4576
G01 X4.3879 Y21.4576
G01 X4.5185 Y21.4406
G01 X4.6462 Y21.4072
G01 X4.7683 Y21.3577
G01 X4.8834 Y21.2931
G01 X4.9888 Y21.2144
G01 X5.0835 Y21.1226
G01 X5.1656 Y21.0193
G01 X5.2097 Y20.9468
G01 X5.2140 Y20.9406
G01 X5.2411 Y20.9089
G01 X5.2493 Y20.9010
G01 X5.2554 Y20.8964
G01 X5.2619 Y20.8924
G01 X5.2941 Y20.8747
G01 X5.3033 Y20.8707
G01 X5.3148 Y20.8674
G01 X5.3568 Y20.8601
G01 X5.3649 Y20.8597
G01 X9.2557 Y20.8597
G01 X9.2615 Y20.8599
G01 X9.2691 Y20.8608
G01 X9.3120 Y20.8692
G01 X9.3213 Y20.8718
G01 X9.3302 Y20.8755
G01 X9.3385 Y20.8803
G01 X9.3727 Y20.9037
G01 X9.3793 Y20.9088
G01 X9.3839 Y20.9131
G01 X13.3646 Y24.8938
G01 X13.3727 Y24.9033
G01 X13.3984 Y24.9408
G01 X13.4021 Y24.9475
G01 X13.4052 Y24.9546
G01 X13.4085 Y24.9657
G01 X13.4165 Y25.0067
G01 X13.4176 Y25.0143
G01 X13.4180 Y25.0220
G01 X13.4180 Y34.5442
G01 X13.4198 Y34.5854
G01 X13.4245 Y34.6226
G01 X13.4326 Y34.6590
G01 X13.4437 Y34.6947
G01 X13.4582 Y34.7289
G01 X13.4756 Y34.7627
G01 X13.4956 Y34.7942
G01 X13.5182 Y34.8237
G01 X13.5462 Y34.8544
G01 X17.2236 Y38.5318
G01 X17.2543 Y38.5598
G01 X17.2838 Y38.5824
G01 X17.3153 Y38.6024
G01 X17.3491 Y38.6198
G01 X17.3833 Y38.6343
G01 X17.4190 Y38.6454
G01 X17.4554 Y38.6535
G01 X17.4926 Y38.6582
G01 X17.5338 Y38.6600
G01 X24.4172 Y38.6600
G01 X24.4584 Y38.6582
G01 X24.4956 Y38.6535
G01 X24.5320 Y38.6454
G01 X24.5677 Y38.6343
G01 X24.6020 Y38.6198
G01 X24.6357 Y38.6024
G01 X24.6672 Y38.5824
G01 X24.6968 Y38.5597
G01 X24.7275 Y38.5318
G01 X25.1142 Y38.1451
G01 X25.1220 Y38.1386
G01 X25.1553 Y38.1154
G01 X25.1623 Y38.1113
G01 X25.1716 Y38.1072
G01 X25.1793 Y38.1048
G01 X25.2169 Y38.0951
G01 X25.2288 Y38.0933
G01 X25.2349 Y38.0931
G01 X25.2429 Y38.0935
G01 X25.2810 Y38.0983
G01 X25.2869 Y38.0993
G01 X25.2946 Y38.1013
G01 X25.3850 Y38.1293
G01 X25.5254 Y38.1550
G01 X25.6672 Y38.1636
G01 X25.8094 Y38.1550
G01 X25.9492 Y38.1293
G01 X26.0854 Y38.0869
G01 X26.2152 Y38.0289
G01 X26.3369 Y37.9553
G01 X26.4491 Y37.8672
G01 X26.5495 Y37.7669
G01 X26.6375 Y37.6546
G01 X26.7112 Y37.5329
G01 X26.7734 Y37.3946
G01 X26.7783 Y37.3862
G01 X26.8042 Y37.3499
G01 X26.8123 Y37.3410
G01 X26.8201 Y37.3346
G01 X26.8571 Y37.3104
G01 X26.8661 Y37.3057
G01 X26.8736 Y37.3027
G01 X26.8814 Y37.3005
G01 X26.9234 Y37.2921
G01 X26.9332 Y37.2910
G01 X26.9431 Y37.2912
G01 X26.9528 Y37.2925
G01 X26.9929 Y37.3005
G01 X26.9986 Y37.3021
G01 X27.0061 Y37.3048
G01 X27.0167 Y37.3102
G01 X27.0526 Y37.3331
G01 X27.0604 Y37.3391
G01 X27.0674 Y37.3461
G01 X27.0735 Y37.3538
G01 X27.0953 Y37.3853
G01 X27.0997 Y37.3924
G01 X27.1636 Y37.5329
G01 X27.2368 Y37.6547
G01 X27.3248 Y37.7669
G01 X27.4252 Y37.8672
G01 X27.5373 Y37.9552
G01 X27.6282 Y38.0100
G01 X27.6355 Y38.0158
G01 X27.6671 Y38.0442
G01 X27.6735 Y38.0517
G01 X27.6790 Y38.0598
G01 X27.6976 Y38.0958
G01 X27.7016 Y38.1050
G01 X27.7040 Y38.1126
G01 X27.7056 Y38.1205
G01 X27.7107 Y38.1610
G01 X27.7110 Y38.1726
G01 X27.7096 Y38.1841
G01 X27.6997 Y38.2254
G01 X27.6966 Y38.2347
G01 X27.6923 Y38.2436
G01 X27.6881 Y38.2502
G01 X27.6661 Y38.2819
G01 X27.6582 Y38.2911
G01 X26.8017 Y39.1471
G01 X26.7937 Y39.1537
G01 X26.7595 Y39.1773
G01 X26.7529 Y39.1813
G01 X26.7460 Y39.1847
G01 X26.7388 Y39.1875
G01 X26.7313 Y39.1895
G01 X26.6884 Y39.1978
G01 X26.6789 Y39.1989
G01 X10.5440 Y39.1990
G01 X10.5363 Y39.1986
G01 X10.5306 Y39.1978
G01 X10.4858 Y39.1891
G01 X10.4784 Y39.1869
G01 X10.4713 Y39.1840
G01 X10.4644 Y39.1804
G01 X10.4595 Y39.1773
G01 X10.4253 Y39.1537
G01 X10.4158 Y39.1456
G01 X4.8044 Y33.5342
G01 X4.7963 Y33.5247
G01 X4.7716 Y33.4888
G01 X4.7669 Y33.4805
G01 X4.7638 Y33.4734
G01 X4.7605 Y33.4623
G01 X4.7525 Y33.4213
G01 X4.7514 Y33.4137
G01 X4.7510 Y33.4060
G01 X4.7511 Y23.9695
G01 X4.7522 Y23.9598
G01 X4.7587 Y23.9228
G01 X4.7600 Y23.9170
G01 X4.7625 Y23.9096
G01 X4.7657 Y23.9024
G01 X4.7685 Y23.8973
G01 X4.7878 Y23.8651
G01 X4.7946 Y23.8559
G01 X4.8027 Y23.8477
G01 X4.8349 Y23.8211
G01 X4.8436 Y23.8154
G01 X4.8833 Y23.7930
G01 X4.9888 Y23.7143
G01 X5.0836 Y23.6224
G01 X5.1656 Y23.5197
G01 X5.2339 Y23.4071
G01 X5.2872 Y23.2864
G01 X5.3249 Y23.1600
G01 X5.3461 Y23.0295
G01 X5.3503 Y22.8981
G01 X5.3376 Y22.7670
G01 X5.3084 Y22.6384
G01 X5.2627 Y22.5144
G01 X5.2019 Y22.3975
G01 X5.1265 Y22.2897
G01 X5.0379 Y22.1921
G01 X4.9375 Y22.1068
G01 X4.8268 Y22.0347
G01 X4.7079 Y21.9776
G01 X4.5830 Y21.9357
G01 X4.4536 Y21.9107
G01 X4.3220 Y21.9023
G01 X4.1905 Y21.9107
G01 X4.0610 Y21.9357
G01 X3.9361 Y21.9776
G01 X3.8172 Y22.0347
G01 X3.7065 Y22.1068
G01 X3.6061 Y22.1921
G01 X3.5175 Y22.2897
G01 X3.4421 Y22.3975
G01 X3.3813 Y22.5144
G01 X3.3356 Y22.6384
G01 X3.3064 Y22.7670
G01 X3.2937 Y22.8981
G01 X3.2979 Y23.0295
G01 X3.3191 Y23.1601
G01 X3.3563 Y23.2864
G01 X3.4100 Y23.4070
G01 X3.4784 Y23.5196
G01 X3.5604 Y23.6224
G01 X3.6552 Y23.7143
G01 X3.7607 Y23.7930
G01 X3.8004 Y23.8154
G01 X3.8091 Y23.8211
G01 X3.8413 Y23.8477
G01 X3.8494 Y23.8559
G01 X3.8562 Y23.8651
G01 X3.8755 Y23.8973
G01 X3.8783 Y23.9024
G01 X3.8815 Y23.9096
G01 X3.8840 Y23.9170
G01 X3.8853 Y23.9228
G01 X3.8918 Y23.9598
G01 X3.8929 Y23.9695
G01 X3.8930 Y33.6552
G01 X3.8948 Y33.6964
G01 X3.8995 Y33.7336
G01 X3.9076 Y33.7700
G01 X3.9187 Y33.8057
G01 X3.9332 Y33.8399
G01 X3.9506 Y33.8737
G01 X3.9706 Y33.9052
G01 X3.9932 Y33.9347
G01 X4.0212 Y33.9654
G01 X9.9846 Y39.9288
G01 X10.0153 Y39.9567
G01 X10.0448 Y39.9794
G01 X10.0763 Y39.9994
G01 X10.1101 Y40.0168
G01 X10.1443 Y40.0313
G01 X10.1800 Y40.0424
G01 X10.2164 Y40.0505
G01 X10.2536 Y40.0552
G01 X10.2948 Y40.0570
G01 X26.9242 Y40.0570
G01 X26.9654 Y40.0552
G01 X27.0026 Y40.0505
G01 X27.0390 Y40.0424
G01 X27.0747 Y40.0313
G01 X27.1089 Y40.0168
G01 X27.1427 Y39.9994
G01 X27.1742 Y39.9794
G01 X27.2038 Y39.9567
G01 X27.2344 Y39.9288
G01 X28.4989 Y38.6638
G01 X28.5239 Y38.6365
G01 X28.5498 Y38.6031
G01 X28.5677 Y38.5757
G01 X28.5868 Y38.5388
G01 X28.5999 Y38.5080
G01 X28.6124 Y38.4688
G01 X28.6196 Y38.4364
G01 X28.6252 Y38.3948
G01 X28.6270 Y38.3574
G01 X28.6280 Y38.2020
G01 X28.6285 Y38.1943
G01 X28.6296 Y38.1867
G01 X28.6381 Y38.1454
G01 X28.6417 Y38.1345
G01 X28.6468 Y38.1243
G01 X28.6724 Y38.0853
G01 X28.6788 Y38.0775
G01 X28.6861 Y38.0707
G01 X28.7268 Y38.0420
G01 X28.7336 Y38.0384
G01 X28.7547 Y38.0289
G01 X28.8768 Y37.9553
G01 X28.9887 Y37.8672
G01 X29.0895 Y37.7669
G01 X29.1770 Y37.6547
G01 X29.2507 Y37.5329
G01 X29.3092 Y37.4025
G01 X29.3516 Y37.2669
G01 X29.3773 Y37.1271
G01 X29.3858 Y36.9849
G01 X29.3773 Y36.8431
G01 X29.3516 Y36.7029
G01 X29.3093 Y36.5678
G01 X29.2507 Y36.4374
G01 X29.1770 Y36.3156
G01 X29.0894 Y36.2033
G01 X28.9887 Y36.1025
G01 X28.8768 Y36.0150
G01 X28.7014 Y35.9082
G01 X28.6937 Y35.9026
G01 X28.6867 Y35.8960
G01 X28.6817 Y35.8902
G01 X28.6772 Y35.8840
G01 X28.6554 Y35.8498
G01 X28.6500 Y35.8392
G01 X28.6473 Y35.8317
G01 X28.6457 Y35.8260
G01 X28.6368 Y35.7801
G01 X28.6362 Y35.7702
G01 X28.6362 Y31.8708
G01 X28.6365 Y31.8632
G01 X28.6376 Y31.8555
G01 X28.6456 Y31.8145
G01 X28.6489 Y31.8034
G01 X28.6520 Y31.7964
G01 X28.6558 Y31.7896
G01 X28.6814 Y31.7522
G01 X28.6896 Y31.7426
G01 X44.3248 Y16.1074
G01 X44.3310 Y16.1018
G01 X44.3702 Y16.0746
G01 X44.3768 Y16.0707
G01 X44.3838 Y16.0675
G01 X44.3911 Y16.0649
G01 X44.3986 Y16.0631
G01 X44.4396 Y16.0551
G01 X44.4472 Y16.0542
G01 X44.4530 Y16.0540
G01 X53.6158 Y16.0540
G01 X53.6242 Y16.0547
G01 X53.6602 Y16.0604
G01 X53.6676 Y16.0621
G01 X53.6731 Y16.0639
G01 X53.6819 Y16.0677
G01 X53.7138 Y16.0848
G01 X53.7206 Y16.0892
G01 X53.7270 Y16.0942
G01 X53.7542 Y16.1218
G01 X53.7605 Y16.1290
G01 X53.8096 Y16.1994
G01 X53.8981 Y16.2969
G01 X53.9985 Y16.3822
G01 X54.1092 Y16.4543
G01 X54.2281 Y16.5114
G01 X54.3530 Y16.5533
G01 X54.4825 Y16.5783
G01 X54.6140 Y16.5867
G01 X54.7456 Y16.5783
G01 X54.8750 Y16.5533
G01 X54.9999 Y16.5113
G01 X55.1047 Y16.4612
G01 X55.1119 Y16.4581
G01 X55.1194 Y16.4558
G01 X55.1610 Y16.4452
G01 X55.1669 Y16.4440
G01 X55.1750 Y16.4432
G01 X55.1810 Y16.4432
G01 X55.1891 Y16.4438
G01 X55.2307 Y16.4502
G01 X55.2405 Y16.4523
G01 X55.2480 Y16.4549
G01 X55.2588 Y16.4601
G01 X55.2968 Y16.4836
G01 X55.3048 Y16.4896
G01 X55.3121 Y16.4965
G01 X55.3184 Y16.5044
G01 X55.3417 Y16.5374
G01 X55.3450 Y16.5424
G01 X55.3488 Y16.5495
G01 X55.3519 Y16.5569
G01 X55.3542 Y16.5646
G01 X55.3640 Y16.6100
G01 X55.3649 Y16.6178
G01 X55.3651 Y16.6237
G01 X55.3648 Y16.6296
G01 X55.3638 Y16.6374
G01 X55.3555 Y16.6826
G01 X55.3525 Y16.6918
G01 X55.3476 Y16.7023
G01 X55.3211 Y16.7424
G01 X55.3162 Y16.7486
G01 X55.3122 Y16.7529
G01 X55.0461 Y17.0190
G01 X55.0367 Y17.0267
G01 X55.0082 Y17.0465
G01 X55.0015 Y17.0507
G01 X54.9944 Y17.0542
G01 X54.9870 Y17.0570
G01 X54.9492 Y17.0673
G01 X54.9398 Y17.0692
G01 X54.9284 Y17.0700
G01 X54.8876 Y17.0672
G01 X54.8803 Y17.0664
G01 X54.8730 Y17.0648
G01 X54.8104 Y17.0483
G01 X54.6799 Y17.0314
G01 X54.5481 Y17.0314
G01 X54.4175 Y17.0483
G01 X54.2898 Y17.0818
G01 X54.1677 Y17.1313
G01 X54.0527 Y17.1959
G01 X53.9472 Y17.2745
G01 X53.8525 Y17.3664
G01 X53.7705 Y17.4696
G01 X53.7021 Y17.5823
G01 X53.6488 Y17.7030
G01 X53.6111 Y17.8294
G01 X53.5899 Y17.9594
G01 X53.5857 Y18.0908
G01 X53.5984 Y18.2223
G01 X53.6276 Y18.3505
G01 X53.6733 Y18.4744
G01 X53.7341 Y18.5913
G01 X53.8095 Y18.6992
G01 X53.8982 Y18.7968
G01 X53.9985 Y18.8825
G01 X54.1092 Y18.9542
G01 X54.2281 Y19.0117
G01 X54.3528 Y19.0531
G01 X54.4825 Y19.0781
G01 X54.6140 Y19.0866
G01 X54.7456 Y19.0781
G01 X54.8752 Y19.0531
G01 X54.9999 Y19.0117
G01 X55.1044 Y18.9612
G01 X55.1121 Y18.9579
G01 X55.1181 Y18.9560
G01 X55.1611 Y18.9454
G01 X55.1689 Y18.9441
G01 X55.1748 Y18.9436
G01 X55.1807 Y18.9436
G01 X55.1886 Y18.9442
G01 X55.2341 Y18.9512
G01 X55.2457 Y18.9545
G01 X55.2566 Y18.9595
G01 X55.2963 Y18.9840
G01 X55.3043 Y18.9900
G01 X55.3116 Y18.9969
G01 X55.3167 Y19.0031
G01 X55.3424 Y19.0394
G01 X55.3483 Y19.0498
G01 X55.3519 Y19.0590
G01 X55.3541 Y19.0667
G01 X55.3631 Y19.1078
G01 X55.3642 Y19.1155
G01 X55.3645 Y19.1214
G01 X55.3643 Y19.1292
G01 X55.3637 Y19.1351
G01 X55.3562 Y19.1772
G01 X55.3540 Y19.1866
G01 X55.3513 Y19.1939
G01 X55.3480 Y19.2009
G01 X55.3451 Y19.2060
G01 X55.3217 Y19.2411
G01 X55.3170 Y19.2475
G01 X55.3117 Y19.2533
G01 X55.0462 Y19.5188
G01 X55.0376 Y19.5259
G01 X55.0072 Y19.5467
G01 X55.0005 Y19.5509
G01 X54.9934 Y19.5543
G01 X54.9841 Y19.5576
G01 X54.9468 Y19.5682
G01 X54.9352 Y19.5701
G01 X54.9235 Y19.5702
G01 X54.8865 Y19.5670
G01 X54.8787 Y19.5660
G01 X54.8104 Y19.5482
G01 X54.6799 Y19.5312
G01 X54.5481 Y19.5312
G01 X54.4175 Y19.5482
G01 X54.2898 Y19.5817
G01 X54.1677 Y19.6312
G01 X54.0528 Y19.6957
G01 X53.9472 Y19.7749
G01 X53.8524 Y19.8663
G01 X53.7705 Y19.9695
G01 X53.7021 Y20.0822
G01 X53.6488 Y20.2029
G01 X53.6111 Y20.3292
G01 X53.5899 Y20.4593
G01 X53.5857 Y20.5911
G01 X53.5984 Y20.7222
G01 X53.6276 Y20.8508
G01 X53.6733 Y20.9743
G01 X53.7342 Y21.0913
G01 X53.8096 Y21.1996
G01 X53.8981 Y21.2971
G01 X53.9985 Y21.3824
G01 X54.1092 Y21.4545
G01 X54.2280 Y21.5116
G01 X54.3530 Y21.5530
G01 X54.4825 Y21.5785
G01 X54.6140 Y21.5865
G01 X54.7455 Y21.5785
G01 X54.8865 Y21.5506
G01 X54.8987 Y21.5491
G01 X54.9358 Y21.5485
G01 X54.9437 Y21.5490
G01 X54.9516 Y21.5503
G01 X54.9926 Y21.5620
G01 X55.0033 Y21.5666
G01 X55.0116 Y21.5716
G01 X55.0416 Y21.5931
G01 X55.0488 Y21.5992
G01 X55.3157 Y21.8666
G01 X55.3232 Y21.8759
G01 X55.3493 Y21.9154
G01 X55.3546 Y21.9261
G01 X55.3583 Y21.9375
G01 X55.3666 Y21.9879
G01 X55.3671 Y21.9979
G01 X55.3666 Y22.0058
G01 X55.3649 Y22.0155
G01 X55.3537 Y22.0612
G01 X55.3510 Y22.0685
G01 X55.3485 Y22.0737
G01 X55.3457 Y22.0787
G01 X55.3413 Y22.0851
G01 X55.3153 Y22.1197
G01 X55.3102 Y22.1255
G01 X55.3045 Y22.1308
G01 X55.3000 Y22.1344
G01 X55.2935 Y22.1387
G01 X55.2558 Y22.1600
G01 X55.2506 Y22.1627
G01 X55.2433 Y22.1657
G01 X55.2321 Y22.1688
G01 X55.2243 Y22.1699
G01 X55.1827 Y22.1740
G01 X55.1827 Y22.3232
G01 X55.2055 Y22.3404
G01 X55.2716 Y22.4004
G01 X55.3316 Y22.4666
G01 X55.3488 Y22.4894
G01 X55.6565 Y22.4894
G01 X55.6688 Y22.4907
G01 X55.7114 Y22.4996
G01 X55.7229 Y22.5033
G01 X55.7337 Y22.5086
G01 X55.7718 Y22.5337
G01 X55.7794 Y22.5398
G01 X55.7863 Y22.5467
G01 X55.7912 Y22.5529
G01 X55.8157 Y22.5892
G01 X55.8206 Y22.5979
G01 X55.8237 Y22.6053
G01 X55.8264 Y22.6149
G01 X55.8348 Y22.6574
G01 X55.8360 Y22.6690
G01 X55.8360 Y23.4471
G01 X55.8348 Y23.4587
G01 X55.8269 Y23.4992
G01 X55.8255 Y23.5051
G01 X55.8230 Y23.5127
G01 X55.8197 Y23.5200
G01 X55.8157 Y23.5269
G01 X55.7923 Y23.5616
G01 X55.8127 Y23.5880
G01 X55.8168 Y23.5948
G01 X55.8210 Y23.6038
G01 X55.8240 Y23.6132
G01 X55.8341 Y23.6583
G01 X55.8354 Y23.6660
G01 X55.8360 Y23.6738
G01 X55.8360 Y25.2780
G01 X55.8356 Y25.2857
G01 X55.8349 Y25.2914
G01 X55.8269 Y25.3324
G01 X55.8245 Y25.3418
G01 X55.8210 Y25.3507
G01 X55.8154 Y25.3608
G01 X55.7907 Y25.3967
G01 X55.7826 Y25.4062
G01 X50.8032 Y30.3855
G01 X50.7950 Y30.3919
G01 X50.7609 Y30.4154
G01 X50.7542 Y30.4193
G01 X50.7472 Y30.4225
G01 X50.7399 Y30.4250
G01 X50.7324 Y30.4269
G01 X50.6914 Y30.4348
G01 X50.6838 Y30.4358
G01 X50.6780 Y30.4360
G01 X35.9488 Y30.4360
G01 X35.9076 Y30.4378
G01 X35.8704 Y30.4425
G01 X35.8340 Y30.4506
G01 X35.7983 Y30.4617
G01 X35.7641 Y30.4762
G01 X35.7303 Y30.4936
G01 X35.6988 Y30.5135
G01 X35.6693 Y30.5362
G01 X35.6386 Y30.5642
G01 X32.9874 Y33.2154
G01 X32.9594 Y33.2461
G01 X32.9367 Y33.2756
G01 X32.9167 Y33.3071
G01 X32.8994 Y33.3409
G01 X32.8848 Y33.3751
G01 X32.8738 Y33.4108
G01 X32.8657 Y33.4472
G01 X32.8610 Y33.4844
G01 X32.8591 Y33.5256
G01 X32.8591 Y35.6250
G01 X32.8589 Y35.6308
G01 X32.8580 Y35.6385
G01 X32.8500 Y35.6791
G01 X32.8481 Y35.6868
G01 X32.8461 Y35.6925
G01 X32.8429 Y35.6998
G01 X32.8399 Y35.7050
G01 X32.8143 Y35.7430
G01 X32.8071 Y35.7518
G01 X32.8016 Y35.7570
G01 X32.7956 Y35.7617
G01 X32.7593 Y35.7863
G01 X32.7506 Y35.7911
G01 X32.7413 Y35.7949
G01 X32.7336 Y35.7970
G01 X32.6930 Y35.8050
G01 X32.6873 Y35.8060
G01 X32.6795 Y35.8065
G01 X32.2985 Y35.8066
G01 X32.2482 Y35.8122
G01 X32.2110 Y35.8251
G01 X32.1773 Y35.8462
G01 X32.1492 Y35.8747
G01 X32.1277 Y35.9086
G01 X32.1144 Y35.9462
G01 X32.1088 Y35.9957
G01 X32.1088 Y36.3123
G01 X32.1083 Y36.3216
G01 X32.1071 Y36.3290
G01 X32.0979 Y36.3717
G01 X32.0946 Y36.3830
G01 X32.0906 Y36.3920
G01 X32.0866 Y36.3987
G01 X32.0728 Y36.4173
G01 X32.0898 Y36.4427
G01 X32.0944 Y36.4516
G01 X32.0972 Y36.4590
G01 X32.0997 Y36.4687
G01 X32.1077 Y36.5097
G01 X32.1085 Y36.5154
G01 X32.1088 Y36.5231
G01 X32.1088 Y37.4486
G01 X32.1085 Y37.4543
G01 X32.1074 Y37.4619
G01 X32.0993 Y37.5030
G01 X32.0966 Y37.5124
G01 X32.0937 Y37.5196
G01 X32.0900 Y37.5266
G01 X32.0728 Y37.5528
G00 Z1.0000
G00 X31.3905 Y37.9711
G01 F25.00
G01 Z-0.0520
G01 F120.00
G01 X31.4168 Y37.9553
G01 X31.5287 Y37.8672
G01 X31.6295 Y37.7669
G01 X31.7169 Y37.6547
G01 X31.7329 Y37.6282
G01 X31.6131 Y37.6282
G01 X31.5807 Y37.6715
G01 X31.5108 Y37.7485
G01 X31.4338 Y37.8185
G01 X31.3905 Y37.8508
G01 X31.3905 Y37.9711
G00 Z1.0000
G00 X53.7590 Y23.6267
G01 F25.00
G01 Z-0.0520
G01 F120.00
G01 X53.8096 Y23.6995
G01 X53.8981 Y23.7970
G01 X53.9985 Y23.8823
G01 X54.0453 Y23.9128
G01 X54.0453 Y23.7929
G01 X54.0225 Y23.7757
G01 X53.9564 Y23.7157
G01 X53.8964 Y23.6495
G01 X53.8792 Y23.6267
G01 X53.7590 Y23.6267
G00 Z1.0000
G00 X53.7583 Y22.4894
G01 F25.00
G01 Z-0.0520
G01 F120.00
G01 X53.8792 Y22.4894
G01 X53.8964 Y22.4666
G01 X53.9564 Y22.4004
G01 X54.0225 Y22.3404
G01 X54.0453 Y22.3232
G01 X54.0453 Y22.2016
G01 X53.9471 Y22.2749
G01 X53.8524 Y22.3662
G01 X53.7705 Y22.4694
G01 X53.7583 Y22.4894
G00 Z1.0000
G00 X55.3739 Y22.2771
G01 F25.00
G01 Z-0.0520
G01 F120.00
G01 X55.3908 Y22.2662
G01 X55.4069 Y22.2537
G01 X55.4206 Y22.2414
G01 X55.4345 Y22.2265
G01 X55.4442 Y22.2145
G01 X55.4700 Y22.1803
G01 X55.4764 Y22.1712
G01 X55.4875 Y22.1531
G01 X55.4969 Y22.1341
G01 X55.6959 Y22.3330
G01 X55.6772 Y22.3304
G01 X55.6585 Y22.3294
G01 X55.6544 Y22.3294
G01 X55.4233 Y22.3294
G01 X55.3895 Y22.2922
G01 X55.3739 Y22.2771
G01 X55.8549 Y22.5045
G01 X55.8485 Y22.4964
G01 X55.8420 Y22.4891
G01 X55.8350 Y22.4822
G01 X55.8262 Y22.4745
G01 X55.8143 Y22.4659
G01 X55.7805 Y22.4435
G01 X55.7701 Y22.4373
G01 X55.7556 Y22.4303
G01 X55.7463 Y22.4266
G01 X55.7386 Y22.4241
G01 X55.7269 Y22.4211
G01 X55.6873 Y22.4128
G01 X55.6720 Y22.4103
G01 X55.6554 Y22.4094
G01 X55.6544 Y22.4094
G01 X55.3878 Y22.4094
G01 X55.3289 Y22.3446
G01 X55.2628 Y22.2844
G01 X55.2630 Y22.2434
G01 X55.2784 Y22.2379
G01 X55.2925 Y22.2311
G01 X55.3353 Y22.2069
G01 X55.3450 Y22.2006
G01 X55.3542 Y22.1935
G01 X55.3657 Y22.1831
G01 X55.3774 Y22.1701
G01 X55.4069 Y22.1310
G01 X55.4164 Y22.1164
G01 X55.4241 Y22.1009
G01 X55.4302 Y22.0846
G01 X55.4330 Y22.0744
G01 X55.4441 Y22.0275
G01 X55.4462 Y22.0137
G01 X55.4471 Y21.9979
G01 X55.4466 Y21.9840
G01 X55.4446 Y21.9686
G01 X55.8549 Y22.3789
G01 X55.8549 Y22.5045
G00 Z1.0000
G00 X55.4688 Y23.6267
G01 F25.00
G01 Z-0.0520
G01 F120.00
G01 X55.3488 Y23.6267
G01 X55.3316 Y23.6495
G01 X55.2716 Y23.7157
G01 X55.2055 Y23.7757
G01 X55.1827 Y23.7929
G01 X55.1827 Y23.9128
G01 X55.2295 Y23.8823
G01 X55.3299 Y23.7970
G01 X55.4184 Y23.6996
G01 X55.4688 Y23.6267
G00 Z1.0000
G00 X55.3953 Y18.8176
G01 F25.00
G01 Z-0.0520
G01 F120.00
G01 X55.3840 Y18.8295
G01 X55.3708 Y18.8419
G01 X55.3896 Y18.8539
G01 X55.4048 Y18.8654
G01 X55.4198 Y18.8788
G01 X55.4342 Y18.8941
G01 X55.4461 Y18.9090
G01 X55.4758 Y18.9511
G01 X55.4856 Y18.9672
G01 X55.4942 Y18.9843
G01 X55.5378 Y18.9407
G01 X55.5196 Y18.9316
G01 X55.5023 Y18.9210
G01 X55.4593 Y18.8896
G01 X55.4458 Y18.8786
G01 X55.4320 Y18.8657
G01 X55.4180 Y18.8501
G01 X55.4059 Y18.8342
G01 X55.3953 Y18.8176
G01 X55.4212 Y18.6635
G01 X55.3990 Y18.6934
G01 X55.3928 Y18.7011
G01 X55.3275 Y18.7729
G01 X55.2570 Y18.8369
G01 X55.2493 Y18.8430
G01 X55.2164 Y18.8675
G01 X55.2453 Y18.8720
G01 X55.2590 Y18.8749
G01 X55.2667 Y18.8772
G01 X55.2761 Y18.8805
G01 X55.2835 Y18.8836
G01 X55.2925 Y18.8880
G01 X55.3013 Y18.8930
G01 X55.3367 Y18.9148
G01 X55.3475 Y18.9221
G01 X55.3554 Y18.9283
G01 X55.3628 Y18.9350
G01 X55.3712 Y18.9436
G01 X55.3777 Y18.9513
G01 X55.4065 Y18.9915
G01 X55.4125 Y19.0007
G01 X55.4210 Y19.0165
G01 X55.4249 Y19.0257
G01 X55.4283 Y19.0351
G01 X55.4322 Y19.0495
G01 X55.4414 Y19.0915
G01 X55.4433 Y19.1031
G01 X55.4443 Y19.1148
G01 X55.4445 Y19.1266
G01 X55.4438 Y19.1384
G01 X55.4424 Y19.1493
G01 X55.7030 Y18.8886
G01 X55.6913 Y18.8902
G01 X55.6793 Y18.8909
G01 X55.6673 Y18.8907
G01 X55.6554 Y18.8895
G01 X55.6436 Y18.8875
G01 X55.6005 Y18.8778
G01 X55.5847 Y18.8733
G01 X55.5685 Y18.8668
G01 X55.5599 Y18.8624
G01 X55.5515 Y18.8576
G01 X55.5411 Y18.8505
G01 X55.5025 Y18.8218
G01 X55.4935 Y18.8140
G01 X55.4865 Y18.8069
G01 X55.4799 Y18.7995
G01 X55.4738 Y18.7916
G01 X55.4655 Y18.7791
G01 X55.4442 Y18.7432
G01 X55.4396 Y18.7347
G01 X55.4325 Y18.7188
G01 X55.4273 Y18.7022
G01 X55.4242 Y18.6870
G01 X55.4212 Y18.6635
G00 Z1.0000
G00 X55.3711 Y16.3414
G01 F25.00
G01 Z-0.0520
G01 F120.00
G01 X55.3901 Y16.3535
G01 X55.4053 Y16.3650
G01 X55.4203 Y16.3784
G01 X55.4347 Y16.3937
G01 X55.4466 Y16.4087
G01 X55.4763 Y16.4507
G01 X55.4862 Y16.4670
G01 X55.4947 Y16.4838
G01 X55.7749 Y16.2039
G01 X55.7749 Y15.2625
G01 X55.7624 Y15.2674
G01 X55.7509 Y15.2711
G01 X55.7384 Y15.2745
G01 X55.7266 Y15.2771
G01 X55.7147 Y15.2790
G01 X55.7038 Y15.2803
G01 X55.6676 Y15.2825
G01 X55.6808 Y15.3352
G01 X55.6838 Y15.3491
G01 X55.6974 Y15.4399
G01 X55.6991 Y15.4550
G01 X55.7040 Y15.5570
G01 X55.7037 Y15.5692
G01 X55.6994 Y15.6570
G01 X55.6975 Y15.6750
G01 X55.6851 Y15.7590
G01 X55.6832 Y15.7696
G01 X55.6808 Y15.7807
G01 X55.6601 Y15.8635
G01 X55.6568 Y15.8753
G01 X55.6239 Y15.9678
G01 X55.6165 Y15.9854
G01 X55.5758 Y16.0709
G01 X55.5695 Y16.0820
G01 X55.5264 Y16.1540
G01 X55.5198 Y16.1643
G01 X55.4638 Y16.2401
G01 X55.4553 Y16.2509
G01 X55.3902 Y16.3230
G01 X55.3812 Y16.3321
G01 X55.3711 Y16.3414
G01 X55.4885 Y16.3338
G01 X55.4986 Y16.3454
G01 X55.5078 Y16.3569
G01 X55.6949 Y16.1706
G01 X55.6949 Y16.0058
G01 X55.6886 Y16.0200
G01 X55.6526 Y16.0961
G01 X55.6465 Y16.1082
G01 X55.6385 Y16.1225
G01 X55.5916 Y16.2005
G01 X55.5791 Y16.2190
G01 X55.5242 Y16.2929
G01 X55.5118 Y16.3080
G01 X55.4885 Y16.3338
G00 Z1.0000
G00 X55.5508 Y15.1813
G01 F25.00
G01 Z-0.0520
G01 F120.00
G01 X55.5808 Y15.2657
G01 X55.6048 Y15.3619
G01 X55.6190 Y15.4580
G01 X55.6238 Y15.5501
G01 X55.6238 Y15.5658
G01 X55.6197 Y15.6501
G01 X55.6182 Y15.6647
G01 X55.6044 Y15.7559
G01 X55.5813 Y15.8483
G01 X55.5780 Y15.8586
G01 X55.5499 Y15.9371
G01 X55.5439 Y15.9516
G01 X55.5043 Y16.0349
G01 X55.4580 Y16.1124
G01 X55.4521 Y16.1215
G01 X55.3954 Y16.1979
G01 X55.3302 Y16.2700
G01 X55.3225 Y16.2775
G01 X55.2570 Y16.3368
G01 X55.2493 Y16.3429
G01 X55.2168 Y16.3671
G01 X55.2458 Y16.3716
G01 X55.2595 Y16.3746
G01 X55.2691 Y16.3774
G01 X55.2766 Y16.3802
G01 X55.2840 Y16.3833
G01 X55.2930 Y16.3876
G01 X55.3017 Y16.3926
G01 X55.3371 Y16.4144
G01 X55.3479 Y16.4217
G01 X55.3558 Y16.4279
G01 X55.3633 Y16.4346
G01 X55.3704 Y16.4418
G01 X55.3782 Y16.4509
G01 X55.4070 Y16.4912
G01 X55.4131 Y16.5004
G01 X55.4171 Y16.5073
G01 X55.4216 Y16.5163
G01 X55.4248 Y16.5237
G01 X55.4283 Y16.5331
G01 X55.4328 Y16.5495
G01 X55.4420 Y16.5921
G01 X55.4439 Y16.6037
G01 X55.4449 Y16.6154
G01 X55.4450 Y16.6271
G01 X55.4443 Y16.6389
G01 X55.4430 Y16.6489
G01 X55.8549 Y16.2370
G01 X55.8549 Y15.1083
G01 X55.8435 Y15.1232
G01 X55.8327 Y15.1349
G01 X55.8208 Y15.1456
G01 X55.8079 Y15.1550
G01 X55.7958 Y15.1621
G01 X55.7501 Y15.1860
G01 X55.7352 Y15.1921
G01 X55.7198 Y15.1967
G01 X55.7061 Y15.1994
G01 X55.6921 Y15.2010
G01 X55.6425 Y15.2038
G01 X55.6328 Y15.2037
G01 X55.6231 Y15.2031
G01 X55.6077 Y15.2009
G01 X55.5925 Y15.1972
G01 X55.5815 Y15.1935
G01 X55.5508 Y15.1813
G00 Z1.0000
G00 X55.3770 Y14.1490
G01 F25.00
G01 Z-0.0520
G01 F120.00
G01 X55.3847 Y14.1494
G01 X55.3904 Y14.1501
G01 X55.4314 Y14.1581
G01 X55.4389 Y14.1599
G01 X55.4462 Y14.1625
G01 X55.4532 Y14.1657
G01 X55.4599 Y14.1696
G01 X55.4940 Y14.1931
G01 X55.5022 Y14.1995
G01 X55.7840 Y14.4813
G01 X55.7907 Y14.4893
G01 X55.8154 Y14.5251
G01 X55.8201 Y14.5335
G01 X55.8239 Y14.5424
G01 X55.8265 Y14.5517
G01 X55.8345 Y14.5927
G01 X55.8354 Y14.5984
G01 X55.8360 Y14.6061
G01 X55.8360 Y14.9433
G01 X55.8356 Y14.9512
G01 X55.8344 Y14.9590
G01 X55.8239 Y15.0055
G01 X55.8216 Y15.0129
G01 X55.8187 Y15.0201
G01 X55.8150 Y15.0270
G01 X55.8118 Y15.0319
G01 X55.7823 Y15.0717
G01 X55.7769 Y15.0776
G01 X55.7725 Y15.0817
G01 X55.7662 Y15.0866
G01 X55.7612 Y15.0898
G01 X55.7173 Y15.1130
G01 X55.7080 Y15.1169
G01 X55.6984 Y15.1196
G01 X55.6885 Y15.1210
G01 X55.6408 Y15.1238
G01 X55.6330 Y15.1237
G01 X55.6253 Y15.1228
G01 X55.6177 Y15.1212
G01 X55.6102 Y15.1188
G01 X55.5678 Y15.1019
G01 X55.5592 Y15.0978
G01 X55.5495 Y15.0916
G01 X55.5436 Y15.0867
G01 X55.5395 Y15.0827
G01 X55.5096 Y15.0512
G01 X55.5046 Y15.0455
G01 X55.4992 Y15.0377
G01 X55.4576 Y14.9694
G01 X55.3756 Y14.8666
G01 X55.2808 Y14.7747
G01 X55.1753 Y14.6960
G01 X55.0602 Y14.6309
G01 X54.9384 Y14.5815
G01 X54.8106 Y14.5485
G01 X54.6799 Y14.5315
G01 X54.5481 Y14.5315
G01 X54.4174 Y14.5485
G01 X54.2896 Y14.5815
G01 X54.1678 Y14.6309
G01 X54.0528 Y14.6960
G01 X53.9472 Y14.7747
G01 X53.8524 Y14.8666
G01 X53.7703 Y14.9695
G01 X53.6723 Y15.1293
G01 X53.6665 Y15.1375
G01 X53.6598 Y15.1449
G01 X53.6538 Y15.1502
G01 X53.6473 Y15.1549
G01 X53.6131 Y15.1768
G01 X53.6025 Y15.1822
G01 X53.5950 Y15.1849
G01 X53.5892 Y15.1864
G01 X53.5492 Y15.1944
G01 X53.5394 Y15.1958
G01 X44.2038 Y15.1960
G01 X44.1626 Y15.1978
G01 X44.1254 Y15.2025
G01 X44.0890 Y15.2106
G01 X44.0533 Y15.2217
G01 X44.0191 Y15.2362
G01 X43.9853 Y15.2536
G01 X43.9538 Y15.2735
G01 X43.9243 Y15.2962
G01 X43.8936 Y15.3242
G01 X27.9069 Y31.3114
G01 X27.8787 Y31.3424
G01 X27.8555 Y31.3720
G01 X27.8357 Y31.4031
G01 X27.8186 Y31.4365
G01 X27.8043 Y31.4711
G01 X27.7927 Y31.5073
G01 X27.7846 Y31.5432
G01 X27.7799 Y31.5804
G01 X27.7781 Y31.6216
G01 X27.7781 Y35.7702
G01 X27.7777 Y35.7781
G01 X27.7766 Y35.7859
G01 X27.7685 Y35.8260
G01 X27.7651 Y35.8374
G01 X27.7627 Y35.8428
G01 X27.7589 Y35.8498
G01 X27.7360 Y35.8856
G01 X27.7289 Y35.8947
G01 X27.7206 Y35.9026
G01 X27.6793 Y35.9318
G01 X27.6721 Y35.9357
G01 X27.6588 Y35.9415
G01 X27.5373 Y36.0151
G01 X27.4252 Y36.1025
G01 X27.3249 Y36.2033
G01 X27.2368 Y36.3156
G01 X27.1635 Y36.4374
G01 X27.1006 Y36.5756
G01 X27.0953 Y36.5844
G01 X27.0701 Y36.6205
G01 X27.0622 Y36.6289
G01 X27.0548 Y36.6350
G01 X27.0175 Y36.6596
G01 X27.0088 Y36.6643
G01 X26.9995 Y36.6679
G01 X26.9919 Y36.6699
G01 X26.9499 Y36.6778
G01 X26.9401 Y36.6787
G01 X26.9322 Y36.6786
G01 X26.9225 Y36.6774
G01 X26.8824 Y36.6699
G01 X26.8765 Y36.6684
G01 X26.8689 Y36.6658
G01 X26.8634 Y36.6633
G01 X26.8564 Y36.6593
G01 X26.8211 Y36.6358
G01 X26.8134 Y36.6297
G01 X26.8066 Y36.6228
G01 X26.8018 Y36.6166
G01 X26.7795 Y36.5852
G01 X26.7743 Y36.5769
G01 X26.7113 Y36.4374
G01 X26.6375 Y36.3157
G01 X26.5494 Y36.2033
G01 X26.4491 Y36.1025
G01 X26.3369 Y36.0150
G01 X26.1614 Y35.9082
G01 X26.1552 Y35.9038
G01 X26.1494 Y35.8987
G01 X26.1441 Y35.8932
G01 X26.1405 Y35.8887
G01 X26.1154 Y35.8499
G01 X26.1117 Y35.8431
G01 X26.1087 Y35.8360
G01 X26.1055 Y35.8249
G01 X26.0980 Y35.7849
G01 X26.0970 Y35.7776
G01 X26.0967 Y35.7702
G01 X26.0967 Y21.5833
G01 X26.0970 Y21.5755
G01 X26.0978 Y21.5698
G01 X26.1058 Y21.5292
G01 X26.1083 Y21.5198
G01 X26.1119 Y21.5108
G01 X26.1165 Y21.5022
G01 X26.1406 Y21.4659
G01 X26.1455 Y21.4595
G01 X26.1496 Y21.4551
G01 X33.4028 Y14.2024
G01 X33.4123 Y14.1943
G01 X33.4498 Y14.1686
G01 X33.4565 Y14.1649
G01 X33.4636 Y14.1618
G01 X33.4747 Y14.1585
G01 X33.5157 Y14.1505
G01 X33.5233 Y14.1494
G01 X33.5310 Y14.1490
G01 X55.3770 Y14.1490
G00 Z1.0000
G00 X57.4589 Y17.2459
G01 F25.00
G01 Z-0.0520
G01 F120.00
G01 X57.4589 Y13.7297
G01 X56.1283 Y12.3991
G01 X20.9687 Y12.3991
G01 X15.2031 Y18.1647
G01 X15.1791 Y18.1865
G01 X15.1563 Y18.2035
G01 X15.1498 Y18.2079
G01 X15.1253 Y18.2225
G01 X15.0996 Y18.2347
G01 X15.0924 Y18.2377
G01 X15.0655 Y18.2472
G01 X15.0341 Y18.2551
G01 X15.0059 Y18.2594
G01 X14.9981 Y18.2601
G01 X14.9697 Y18.2614
G01 X5.1904 Y18.2614
G01 X5.1804 Y18.2888
G01 X5.1412 Y18.3712
G01 X5.0953 Y18.4477
G01 X5.0421 Y18.5195
G01 X4.9823 Y18.5858
G01 X4.9768 Y18.5914
G01 X4.9120 Y18.6500
G01 X4.8403 Y18.7032
G01 X4.7638 Y18.7493
G01 X4.7569 Y18.7530
G01 X4.6779 Y18.7903
G01 X4.5920 Y18.8210
G01 X4.5034 Y18.8432
G01 X4.4171 Y18.8561
G01 X4.4092 Y18.8569
G01 X4.3200 Y18.8610
G01 X4.2308 Y18.8566
G01 X4.1406 Y18.8432
G01 X4.0520 Y18.8210
G01 X3.9661 Y18.7903
G01 X3.8836 Y18.7512
G01 X3.8053 Y18.7043
G01 X3.7320 Y18.6500
G01 X3.6644 Y18.5887
G01 X3.6031 Y18.5210
G01 X3.5487 Y18.4477
G01 X3.5018 Y18.3695
G01 X3.4628 Y18.2870
G01 X3.4320 Y18.2010
G01 X3.4099 Y18.1125
G01 X3.3965 Y18.0222
G01 X3.3920 Y17.9330
G01 X3.3965 Y17.8399
G01 X3.4099 Y17.7496
G01 X3.4320 Y17.6611
G01 X3.4628 Y17.5752
G01 X3.5018 Y17.4927
G01 X3.5487 Y17.4144
G01 X3.6031 Y17.3411
G01 X3.6644 Y17.2735
G01 X3.7320 Y17.2122
G01 X3.8053 Y17.1578
G01 X3.8836 Y17.1109
G01 X3.9661 Y17.0719
G01 X4.0520 Y17.0411
G01 X4.1406 Y17.0189
G01 X4.2308 Y17.0055
G01 X4.3200 Y17.0011
G01 X4.4092 Y17.0052
G01 X4.4171 Y17.0060
G01 X4.5034 Y17.0189
G01 X4.5920 Y17.0411
G01 X4.6779 Y17.0719
G01 X4.7569 Y17.1091
G01 X4.7638 Y17.1128
G01 X4.8403 Y17.1589
G01 X4.9120 Y17.2122
G01 X4.9768 Y17.2707
G01 X4.9823 Y17.2763
G01 X5.0421 Y17.3426
G01 X5.0953 Y17.4144
G01 X5.1412 Y17.4909
G01 X5.1804 Y17.5734
G01 X5.1906 Y17.6012
G01 X14.8329 Y17.6012
G01 X20.5986 Y11.8356
G01 X20.6226 Y11.8138
G01 X20.6454 Y11.7968
G01 X20.6519 Y11.7924
G01 X20.6730 Y11.7798
G01 X20.6799 Y11.7761
G01 X20.7057 Y11.7640
G01 X20.7362 Y11.7531
G01 X20.7676 Y11.7452
G01 X20.7977 Y11.7407
G01 X20.8320 Y11.7389
G01 X56.2650 Y11.7389
G01 X56.2974 Y11.7405
G01 X56.3294 Y11.7452
G01 X56.3608 Y11.7531
G01 X56.3877 Y11.7626
G01 X56.3949 Y11.7656
G01 X56.4171 Y11.7761
G01 X56.4240 Y11.7798
G01 X56.4484 Y11.7945
G01 X56.4759 Y11.8151
G01 X56.4984 Y11.8356
G01 X58.0251 Y13.3624
G01 X58.0442 Y13.3836
G01 X58.0635 Y13.4096
G01 X58.0801 Y13.4374
G01 X58.0940 Y13.4667
G01 X58.1049 Y13.4972
G01 X58.1128 Y13.5286
G01 X58.1175 Y13.5606
G01 X58.1191 Y13.5930
G01 X58.1191 Y17.3827
G01 X58.1175 Y17.4150
G01 X58.1128 Y17.4471
G01 X58.1049 Y17.4785
G01 X58.0940 Y17.5090
G01 X58.0801 Y17.5383
G01 X58.0635 Y17.5661
G01 X58.0442 Y17.5921
G01 X58.0224 Y17.6161
G01 X55.4615 Y20.1770
G01 X55.4739 Y20.2039
G01 X55.5034 Y20.2861
G01 X55.5257 Y20.3746
G01 X55.5395 Y20.4668
G01 X55.5440 Y20.5579
G01 X55.5395 Y20.6491
G01 X55.5257 Y20.7413
G01 X55.5034 Y20.8298
G01 X55.4739 Y20.9120
G01 X55.4616 Y20.9387
G01 X56.4998 Y21.9770
G01 X56.5202 Y21.9996
G01 X56.5372 Y22.0224
G01 X56.5416 Y22.0289
G01 X56.5561 Y22.0534
G01 X56.5684 Y22.0791
G01 X56.5714 Y22.0863
G01 X56.5809 Y22.1131
G01 X56.5888 Y22.1446
G01 X56.5935 Y22.1766
G01 X56.5951 Y22.2090
G01 X56.5951 Y25.5330
G01 X56.5935 Y25.5634
G01 X56.5888 Y25.5954
G01 X56.5809 Y25.6268
G01 X56.5714 Y25.6537
G01 X56.5684 Y25.6609
G01 X56.5579 Y25.6831
G01 X56.5542 Y25.6900
G01 X56.5395 Y25.7144
G01 X56.5189 Y25.7419
G01 X56.4984 Y25.7644
G01 X51.1644 Y31.0984
G01 X51.1434 Y31.1176
G01 X51.1373 Y31.1226
G01 X51.1144 Y31.1395
G01 X51.0900 Y31.1542
G01 X51.0831 Y31.1579
G01 X51.0573 Y31.1700
G01 X51.0249 Y31.1815
G01 X50.9954 Y31.1888
G01 X50.9673 Y31.1931
G01 X50.9594 Y31.1938
G01 X50.9310 Y31.1951
G01 X36.0817 Y31.1951
G01 X33.6183 Y33.6586
G01 X33.6183 Y35.9054
G01 X34.2882 Y35.9054
G01 X34.2960 Y35.9058
G01 X34.3038 Y35.9069
G01 X34.3095 Y35.9083
G01 X34.3170 Y35.9107
G01 X34.3224 Y35.9131
G01 X34.3326 Y35.9189
G01 X34.3389 Y35.9235
G01 X34.3433 Y35.9274
G01 X34.3487 Y35.9331
G01 X34.3524 Y35.9377
G01 X34.3557 Y35.9426
G01 X34.3596 Y35.9494
G01 X34.3621 Y35.9548
G01 X34.3647 Y35.9622
G01 X34.3673 Y35.9736
G01 X34.3682 Y35.9854
G01 X34.3681 Y37.9893
G01 X34.3673 Y37.9971
G01 X34.3658 Y38.0048
G01 X34.3635 Y38.0123
G01 X34.3605 Y38.0196
G01 X34.3578 Y38.0248
G01 X34.3536 Y38.0314
G01 X34.3487 Y38.0376
G01 X34.3433 Y38.0433
G01 X34.3374 Y38.0484
G01 X34.3310 Y38.0530
G01 X34.3241 Y38.0568
G01 X34.3188 Y38.0593
G01 X34.3114 Y38.0619
G01 X34.3038 Y38.0638
G01 X34.2960 Y38.0650
G01 X34.2901 Y38.0654
G01 X32.2882 Y38.0654
G01 X32.2803 Y38.0650
G01 X32.2726 Y38.0638
G01 X32.2649 Y38.0619
G01 X32.2575 Y38.0593
G01 X32.2504 Y38.0559
G01 X32.2437 Y38.0519
G01 X32.2374 Y38.0472
G01 X32.2316 Y38.0419
G01 X32.2263 Y38.0361
G01 X32.2216 Y38.0298
G01 X32.2176 Y38.0231
G01 X32.2142 Y38.0160
G01 X32.2116 Y38.0086
G01 X32.2097 Y38.0010
G01 X32.2085 Y37.9932
G01 X32.2082 Y37.9854
G01 X32.2082 Y35.9854
G01 X32.2085 Y35.9775
G01 X32.2097 Y35.9698
G01 X32.2128 Y35.9584
G01 X32.2158 Y35.9512
G01 X32.2186 Y35.9459
G01 X32.2251 Y35.9362
G01 X32.2289 Y35.9317
G01 X32.2344 Y35.9261
G01 X32.2405 Y35.9211
G01 X32.2454 Y35.9178
G01 X32.2557 Y35.9122
G01 X32.2631 Y35.9094
G01 X32.2687 Y35.9078
G01 X32.2764 Y35.9062
G01 X32.2823 Y35.9056
G01 X32.9580 Y35.9054
G01 X32.9581 Y33.5199
G01 X32.9596 Y33.4895
G01 X32.9637 Y33.4613
G01 X32.9652 Y33.4536
G01 X32.9723 Y33.4260
G01 X32.9818 Y33.3992
G01 X32.9848 Y33.3919
G01 X32.9970 Y33.3662
G01 X33.0137 Y33.3384
G01 X33.0330 Y33.3124
G01 X33.0547 Y33.2884
G01 X35.7116 Y30.6316
G01 X35.7356 Y30.6098
G01 X35.7616 Y30.5905
G01 X35.7894 Y30.5739
G01 X35.8169 Y30.5608
G01 X35.8492 Y30.5491
G01 X35.8806 Y30.5412
G01 X35.9126 Y30.5365
G01 X35.9450 Y30.5349
G01 X50.7943 Y30.5349
G01 X55.9349 Y25.3943
G01 X55.9349 Y22.3457
G01 X54.9947 Y21.4055
G01 X54.9681 Y21.4179
G01 X54.8858 Y21.4473
G01 X54.7935 Y21.4704
G01 X54.7052 Y21.4835
G01 X54.6179 Y21.4878
G01 X54.6101 Y21.4878
G01 X54.5209 Y21.4832
G01 X54.4326 Y21.4701
G01 X54.3478 Y21.4489
G01 X54.3403 Y21.4467
G01 X54.2581 Y21.4171
G01 X54.1756 Y21.3781
G01 X54.1006 Y21.3333
G01 X54.0941 Y21.3289
G01 X54.0225 Y21.2756
G01 X53.9564 Y21.2155
G01 X53.8977 Y21.1509
G01 X53.8927 Y21.1448
G01 X53.8407 Y21.0746
G01 X53.7957 Y20.9997
G01 X53.7920 Y20.9928
G01 X53.7548 Y20.9138
G01 X53.7253 Y20.8316
G01 X53.7230 Y20.8241
G01 X53.7019 Y20.7394
G01 X53.6890 Y20.6530
G01 X53.6882 Y20.6452
G01 X53.6840 Y20.5579
G01 X53.6882 Y20.4707
G01 X53.6890 Y20.4629
G01 X53.7019 Y20.3765
G01 X53.7240 Y20.2880
G01 X53.7534 Y20.2057
G01 X53.7564 Y20.1984
G01 X53.7938 Y20.1195
G01 X53.8386 Y20.0446
G01 X53.8430 Y20.0380
G01 X53.8927 Y19.9710
G01 X53.8977 Y19.9650
G01 X53.9564 Y19.9003
G01 X54.0240 Y19.8390
G01 X54.0973 Y19.7847
G01 X54.1773 Y19.7368
G01 X54.2545 Y19.7003
G01 X54.2618 Y19.6973
G01 X54.3440 Y19.6680
G01 X54.4287 Y19.6467
G01 X54.4364 Y19.6451
G01 X54.5228 Y19.6324
G01 X54.6120 Y19.6280
G01 X54.7052 Y19.6324
G01 X54.7974 Y19.6462
G01 X54.8858 Y19.6686
G01 X54.9681 Y19.6980
G01 X54.9945 Y19.7103
G01 X57.4589 Y17.2459
G00 Z1.0000
M05
G00 Z1.0000
G00 Z15.00
G00 X0.0 Y0.0


