(G-CODE GENERATED BY FLATCAM v8.994 - www.flatcam.org - Version Date: 2020/11/7)

(Name: Gerber_BottomLayer.GBL_cutout_cnc)
(Type: G-code from Geometry)
(Units: MM)

(Created on Monday, 07 October 2024 at 20:26)

(This preprocessor is the default preprocessor used by FlatCAM.)
(It is made to work with MACH3 compatible motion controllers.)

(TOOL DIAMETER: 1.0 mm)
(Feedrate_XY: 120.0 mm/min)
(Feedrate_Z: 25.0 mm/min)
(Feedrate rapids 1500.0 mm/min)

(Z_Cut: -2.4 mm)
(DepthPerCut: 0.8 mm <=>3 passes)
(Z_Move: 1.0 mm)
(Z Start: None mm)
(Z End: 15.0 mm)
(X,Y End: 0.0000, 0.0000 mm)
(Steps per circle: 64)
(Preprocessor Geometry: default)

(X range:   -0.5909 ...   59.3999  mm)
(Y range:   -0.5909 ...   42.7629  mm)

(Spindle Speed: 1000.0 RPM)
G21
G90
G94

G01 F120.00

M5
G00 Z15.0000
G00 X0.0000 Y0.0000
T1
M6    
(MSG, Change to Tool Dia = 1.0000)
M0
G00 Z15.0000

M03 S1000.0
G01 F120.00
G00 X-0.5909 Y18.6860
G01 F25.00
G01 Z-0.8000
G01 F120.00
G01 X-0.5909 Y0.0091
G01 X-0.5880 Y-0.0497
G01 X-0.5794 Y-0.1080
G01 X-0.5651 Y-0.1651
G01 X-0.5452 Y-0.2205
G01 X-0.5201 Y-0.2738
G01 X-0.4898 Y-0.3243
G01 X-0.4547 Y-0.3716
G01 X-0.4152 Y-0.4152
G01 X-0.3716 Y-0.4547
G01 X-0.3243 Y-0.4898
G01 X-0.2738 Y-0.5201
G01 X-0.2205 Y-0.5452
G01 X-0.1651 Y-0.5651
G01 X-0.1080 Y-0.5794
G01 X-0.0497 Y-0.5880
G01 X0.0091 Y-0.5909
G01 X58.7999 Y-0.5909
G01 X58.8587 Y-0.5880
G01 X58.9170 Y-0.5794
G01 X58.9741 Y-0.5651
G01 X59.0295 Y-0.5452
G01 X59.0828 Y-0.5201
G01 X59.1333 Y-0.4898
G01 X59.1806 Y-0.4547
G01 X59.2242 Y-0.4152
G01 X59.2637 Y-0.3716
G01 X59.2988 Y-0.3243
G01 X59.3291 Y-0.2738
G01 X59.3542 Y-0.2205
G01 X59.3741 Y-0.1651
G01 X59.3884 Y-0.1080
G01 X59.3970 Y-0.0497
G01 X59.3999 Y0.0091
G01 X59.3999 Y18.6860
G00 X59.3999 Y18.6860
G01 F25.00
G01 Z-1.6000
G01 F120.00
G01 X59.3999 Y0.0091
G01 X59.3970 Y-0.0497
G01 X59.3884 Y-0.1080
G01 X59.3741 Y-0.1651
G01 X59.3542 Y-0.2205
G01 X59.3291 Y-0.2738
G01 X59.2988 Y-0.3243
G01 X59.2637 Y-0.3716
G01 X59.2242 Y-0.4152
G01 X59.1806 Y-0.4547
G01 X59.1333 Y-0.4898
G01 X59.0828 Y-0.5201
G01 X59.0295 Y-0.5452
G01 X58.9741 Y-0.5651
G01 X58.9170 Y-0.5794
G01 X58.8587 Y-0.5880
G01 X58.7999 Y-0.5909
G01 X0.0091 Y-0.5909
G01 X-0.0497 Y-0.5880
G01 X-0.1080 Y-0.5794
G01 X-0.1651 Y-0.5651
G01 X-0.2205 Y-0.5452
G01 X-0.2738 Y-0.5201
G01 X-0.3243 Y-0.4898
G01 X-0.3716 Y-0.4547
G01 X-0.4152 Y-0.4152
G01 X-0.4547 Y-0.3716
G01 X-0.4898 Y-0.3243
G01 X-0.5201 Y-0.2738
G01 X-0.5452 Y-0.2205
G01 X-0.5651 Y-0.1651
G01 X-0.5794 Y-0.1080
G01 X-0.5880 Y-0.0497
G01 X-0.5909 Y0.0091
G01 X-0.5909 Y18.6860
G00 X-0.5909 Y18.6860
G01 F25.00
G01 Z-2.4000
G01 F120.00
G01 X-0.5909 Y0.0091
G01 X-0.5880 Y-0.0497
G01 X-0.5794 Y-0.1080
G01 X-0.5651 Y-0.1651
G01 X-0.5452 Y-0.2205
G01 X-0.5201 Y-0.2738
G01 X-0.4898 Y-0.3243
G01 X-0.4547 Y-0.3716
G01 X-0.4152 Y-0.4152
G01 X-0.3716 Y-0.4547
G01 X-0.3243 Y-0.4898
G01 X-0.2738 Y-0.5201
G01 X-0.2205 Y-0.5452
G01 X-0.1651 Y-0.5651
G01 X-0.1080 Y-0.5794
G01 X-0.0497 Y-0.5880
G01 X0.0091 Y-0.5909
G01 X58.7999 Y-0.5909
G01 X58.8587 Y-0.5880
G01 X58.9170 Y-0.5794
G01 X58.9741 Y-0.5651
G01 X59.0295 Y-0.5452
G01 X59.0828 Y-0.5201
G01 X59.1333 Y-0.4898
G01 X59.1806 Y-0.4547
G01 X59.2242 Y-0.4152
G01 X59.2637 Y-0.3716
G01 X59.2988 Y-0.3243
G01 X59.3291 Y-0.2738
G01 X59.3542 Y-0.2205
G01 X59.3741 Y-0.1651
G01 X59.3884 Y-0.1080
G01 X59.3970 Y-0.0497
G01 X59.3999 Y0.0091
G01 X59.3999 Y18.6860
G00 Z1.0000
G00 X-0.5909 Y23.6860
G01 F25.00
G01 Z-0.8000
G01 F120.00
G01 X-0.5909 Y42.1629
G01 X-0.5880 Y42.2217
G01 X-0.5794 Y42.2800
G01 X-0.5651 Y42.3371
G01 X-0.5452 Y42.3925
G01 X-0.5201 Y42.4458
G01 X-0.4898 Y42.4963
G01 X-0.4547 Y42.5436
G01 X-0.4152 Y42.5872
G01 X-0.3716 Y42.6267
G01 X-0.3243 Y42.6618
G01 X-0.2738 Y42.6921
G01 X-0.2205 Y42.7172
G01 X-0.1651 Y42.7371
G01 X-0.1080 Y42.7514
G01 X-0.0497 Y42.7600
G01 X0.0091 Y42.7629
G01 X58.7999 Y42.7629
G01 X58.8587 Y42.7600
G01 X58.9170 Y42.7514
G01 X58.9741 Y42.7371
G01 X59.0295 Y42.7172
G01 X59.0828 Y42.6921
G01 X59.1333 Y42.6618
G01 X59.1806 Y42.6267
G01 X59.2242 Y42.5872
G01 X59.2637 Y42.5436
G01 X59.2988 Y42.4963
G01 X59.3291 Y42.4458
G01 X59.3542 Y42.3925
G01 X59.3741 Y42.3371
G01 X59.3884 Y42.2800
G01 X59.3970 Y42.2217
G01 X59.3999 Y42.1629
G01 X59.3999 Y23.6860
G00 X59.3999 Y23.6860
G01 F25.00
G01 Z-1.6000
G01 F120.00
G01 X59.3999 Y42.1629
G01 X59.3970 Y42.2217
G01 X59.3884 Y42.2800
G01 X59.3741 Y42.3371
G01 X59.3542 Y42.3925
G01 X59.3291 Y42.4458
G01 X59.2988 Y42.4963
G01 X59.2637 Y42.5436
G01 X59.2242 Y42.5872
G01 X59.1806 Y42.6267
G01 X59.1333 Y42.6618
G01 X59.0828 Y42.6921
G01 X59.0295 Y42.7172
G01 X58.9741 Y42.7371
G01 X58.9170 Y42.7514
G01 X58.8587 Y42.7600
G01 X58.7999 Y42.7629
G01 X0.0091 Y42.7629
G01 X-0.0497 Y42.7600
G01 X-0.1080 Y42.7514
G01 X-0.1651 Y42.7371
G01 X-0.2205 Y42.7172
G01 X-0.2738 Y42.6921
G01 X-0.3243 Y42.6618
G01 X-0.3716 Y42.6267
G01 X-0.4152 Y42.5872
G01 X-0.4547 Y42.5436
G01 X-0.4898 Y42.4963
G01 X-0.5201 Y42.4458
G01 X-0.5452 Y42.3925
G01 X-0.5651 Y42.3371
G01 X-0.5794 Y42.2800
G01 X-0.5880 Y42.2217
G01 X-0.5909 Y42.1629
G01 X-0.5909 Y23.6860
G00 X-0.5909 Y23.6860
G01 F25.00
G01 Z-2.4000
G01 F120.00
G01 X-0.5909 Y42.1629
G01 X-0.5880 Y42.2217
G01 X-0.5794 Y42.2800
G01 X-0.5651 Y42.3371
G01 X-0.5452 Y42.3925
G01 X-0.5201 Y42.4458
G01 X-0.4898 Y42.4963
G01 X-0.4547 Y42.5436
G01 X-0.4152 Y42.5872
G01 X-0.3716 Y42.6267
G01 X-0.3243 Y42.6618
G01 X-0.2738 Y42.6921
G01 X-0.2205 Y42.7172
G01 X-0.1651 Y42.7371
G01 X-0.1080 Y42.7514
G01 X-0.0497 Y42.7600
G01 X0.0091 Y42.7629
G01 X58.7999 Y42.7629
G01 X58.8587 Y42.7600
G01 X58.9170 Y42.7514
G01 X58.9741 Y42.7371
G01 X59.0295 Y42.7172
G01 X59.0828 Y42.6921
G01 X59.1333 Y42.6618
G01 X59.1806 Y42.6267
G01 X59.2242 Y42.5872
G01 X59.2637 Y42.5436
G01 X59.2988 Y42.4963
G01 X59.3291 Y42.4458
G01 X59.3542 Y42.3925
G01 X59.3741 Y42.3371
G01 X59.3884 Y42.2800
G01 X59.3970 Y42.2217
G01 X59.3999 Y42.1629
G01 X59.3999 Y23.6860
G00 Z1.0000
M05
G00 Z1.0000
G00 Z15.00
G00 X0.0 Y0.0


