(G-CODE GENERATED BY FLATCAM v8.994 - www.flatcam.org - Version Date: 2020/11/7)

(Name: Drill_PTH_Through.DRL_edit_cnc)
(Type: G-code from Geometry)
(Units: MM)

(Created on Sunday, 29 September 2024 at 11:08)

(This preprocessor is the default preprocessor used by FlatCAM.)
(It is made to work with MACH3 compatible motion controllers.)


(TOOLS DIAMETER: )
(Tool: 1 -> Dia: 0.9)

(FEEDRATE Z: )
(Tool: 1 -> Feedrate: 25.0)

(FEEDRATE RAPIDS: )
(Tool: 1 -> Feedrate Rapids: 1500)

(Z_CUT: )
(Tool: 1 -> Z_Cut: -2.4)

(Tools Offset: )
(Tool: 1 -> Offset Z: 0.0)

(Z_MOVE: )
(Tool: 1 -> Z_Move: 1.0)

(Z Toolchange: 15 mm)
(X,Y Toolchange: 0.0000, 0.0000 mm)
(Z Start: None mm)
(Z End: 15.0 mm)
(X,Y End: 0.0000, 0.0000 mm)
(Steps per circle: 64)
(Preprocessor Excellon: default)

(X range:    3.8630 ...   27.6230  mm)
(Y range:    3.3550 ...   17.2760  mm)

(Spindle Speed: 1000 RPM)
G21
G90
G94

G01 F25.00

M5
G00 Z15.0000
T1
G00 X0.0000 Y0.0000                
M6
(MSG, Change to Tool Dia = 0.9000 ||| Total drills for tool T1 = 16)
M0
G00 Z15.0000

G01 F25.00
M03 S1000
G00 X9.3930 Y8.1230
G01 Z-2.4000
G01 Z0
G00 Z1.0000
G00 X11.9330 Y8.1230
G01 Z-2.4000
G01 Z0
G00 Z1.0000
G00 X14.4730 Y8.1230
G01 Z-2.4000
G01 Z0
G00 Z1.0000
G00 X17.0130 Y8.1230
G01 Z-2.4000
G01 Z0
G00 Z1.0000
G00 X19.5530 Y8.1230
G01 Z-2.4000
G01 Z0
G00 Z1.0000
G00 X27.1730 Y16.8260
G01 Z-2.4000
G01 Z0
G00 Z1.0000
G00 X27.1730 Y14.3260
G01 Z-2.4000
G01 Z0
G00 Z1.0000
G00 X27.1730 Y11.8260
G01 Z-2.4000
G01 Z0
G00 Z1.0000
G00 X27.1730 Y9.3260
G01 Z-2.4000
G01 Z0
G00 Z1.0000
G00 X22.0930 Y8.1230
G01 Z-2.4000
G01 Z0
G00 Z1.0000
G00 X16.8860 Y3.8050
G01 Z-2.4000
G01 Z0
G00 Z1.0000
G00 X14.3460 Y3.8050
G01 Z-2.4000
G01 Z0
G00 Z1.0000
G00 X4.3130 Y9.0720
G01 Z-2.4000
G01 Z0
G00 Z1.0000
G00 X4.3130 Y11.5720
G01 Z-2.4000
G01 Z0
G00 Z1.0000
G00 X4.3130 Y14.0720
G01 Z-2.4000
G01 Z0
G00 Z1.0000
G00 X4.3130 Y16.5720
G01 Z-2.4000
G01 Z0
G00 Z1.0000
M05
G00 Z15.00
G00 X0.0 Y0.0


