(G-CODE GENERATED BY FLATCAM v8.994 - www.flatcam.org - Version Date: 2020/11/7)

(Name: Gerber_BottomLayer.GBL_ncc_cnc)
(Type: G-code from Geometry)
(Units: MM)

(Created on Sunday, 29 September 2024 at 11:05)

(This preprocessor is the default preprocessor used by FlatCAM.)
(It is made to work with MACH3 compatible motion controllers.)

(TOOL DIAMETER: 0.16 mm)
(Feedrate_XY: 120.0 mm/min)
(Feedrate_Z: 25.0 mm/min)
(Feedrate rapids 1500.0 mm/min)

(Z_Cut: -0.112 mm)
(Z_Move: 1.0 mm)
(Z Start: None mm)
(Z End: 15.0 mm)
(X,Y End: 0.0000, 0.0000 mm)
(Steps per circle: 64)
(Preprocessor Geometry: default)

(X range:    1.3563 ...   31.2789  mm)
(Y range:    0.5820 ...   25.3037  mm)

(Spindle Speed: 1000.0 RPM)
G21
G90
G94

G01 F120.00

M5
G00 Z15.0000
G00 X0.0000 Y0.0000
T1
M6    
(MSG, Change to Tool Dia = 0.1600)
M0
G00 Z15.0000

M03 S1000.0
G01 F120.00
G00 X2.6620 Y1.3563
G01 F25.00
G01 Z-0.1120
G01 F120.00
G01 X2.5198 Y1.3649
G01 X2.3799 Y1.3906
G01 X2.2439 Y1.4329
G01 X2.1141 Y1.4914
G01 X1.9923 Y1.5651
G01 X1.8805 Y1.6527
G01 X1.7797 Y1.7535
G01 X1.6921 Y1.8653
G01 X1.6184 Y1.9871
G01 X1.5599 Y2.1169
G01 X1.5176 Y2.2529
G01 X1.4919 Y2.3928
G01 X1.4833 Y2.5350
G01 X1.4919 Y2.6772
G01 X1.5176 Y2.8171
G01 X1.5599 Y2.9531
G01 X1.6184 Y3.0829
G01 X1.6921 Y3.2047
G01 X1.7797 Y3.3165
G01 X1.8805 Y3.4173
G01 X1.9923 Y3.5049
G01 X2.1141 Y3.5786
G01 X2.2439 Y3.6371
G01 X2.3799 Y3.6794
G01 X2.5198 Y3.7051
G01 X2.6620 Y3.7137
G01 X2.8042 Y3.7051
G01 X2.9441 Y3.6794
G01 X3.0801 Y3.6371
G01 X3.2099 Y3.5786
G01 X3.3317 Y3.5049
G01 X3.4435 Y3.4173
G01 X3.5443 Y3.3165
G01 X3.6319 Y3.2047
G01 X3.7056 Y3.0829
G01 X3.7641 Y2.9531
G01 X3.8064 Y2.8171
G01 X3.8321 Y2.6772
G01 X3.8407 Y2.5350
G01 X3.8321 Y2.3928
G01 X3.8064 Y2.2529
G01 X3.7641 Y2.1169
G01 X3.7056 Y1.9871
G01 X3.6319 Y1.8653
G01 X3.5443 Y1.7535
G01 X3.4435 Y1.6527
G01 X3.3317 Y1.5651
G01 X3.2099 Y1.4914
G01 X3.0801 Y1.4329
G01 X2.9441 Y1.3906
G01 X2.8042 Y1.3649
G01 X2.6620 Y1.3563
G00 Z1.0000
G00 X1.5821 Y2.5389
G01 F25.00
G01 Z-0.1120
G01 F120.00
G01 X1.5821 Y2.5311
G01 X1.5872 Y2.4291
G01 X1.6028 Y2.3243
G01 X1.6285 Y2.2215
G01 X1.6642 Y2.1217
G01 X1.7095 Y2.0259
G01 X1.7640 Y1.9350
G01 X1.8271 Y1.8499
G01 X1.8983 Y1.7713
G01 X1.9769 Y1.7001
G01 X2.0620 Y1.6370
G01 X2.1529 Y1.5825
G01 X2.2487 Y1.5372
G01 X2.3485 Y1.5015
G01 X2.4513 Y1.4758
G01 X2.5561 Y1.4602
G01 X2.6620 Y1.4550
G01 X2.7679 Y1.4602
G01 X2.8727 Y1.4758
G01 X2.9755 Y1.5015
G01 X3.0753 Y1.5372
G01 X3.1711 Y1.5825
G01 X3.2620 Y1.6370
G01 X3.3471 Y1.7001
G01 X3.4257 Y1.7713
G01 X3.4969 Y1.8499
G01 X3.5600 Y1.9350
G01 X3.6145 Y2.0259
G01 X3.6598 Y2.1217
G01 X3.6955 Y2.2215
G01 X3.7212 Y2.3243
G01 X3.7368 Y2.4291
G01 X3.7420 Y2.5350
G01 X3.7368 Y2.6409
G01 X3.7212 Y2.7457
G01 X3.6955 Y2.8485
G01 X3.6598 Y2.9483
G01 X3.6145 Y3.0441
G01 X3.5600 Y3.1350
G01 X3.4969 Y3.2201
G01 X3.4257 Y3.2987
G01 X3.3471 Y3.3699
G01 X3.2620 Y3.4330
G01 X3.1711 Y3.4875
G01 X3.0753 Y3.5328
G01 X2.9755 Y3.5685
G01 X2.8727 Y3.5942
G01 X2.7679 Y3.6098
G01 X2.6620 Y3.6150
G01 X2.5561 Y3.6098
G01 X2.4513 Y3.5942
G01 X2.3485 Y3.5685
G01 X2.2487 Y3.5328
G01 X2.1529 Y3.4875
G01 X2.0620 Y3.4330
G01 X1.9769 Y3.3699
G01 X1.8983 Y3.2987
G01 X1.8271 Y3.2201
G01 X1.7640 Y3.1350
G01 X1.7095 Y3.0441
G01 X1.6642 Y2.9483
G01 X1.6285 Y2.8485
G01 X1.6028 Y2.7457
G01 X1.5872 Y2.6409
G01 X1.5821 Y2.5389
G00 Z1.0000
G00 X3.4580 Y8.5032
G01 F25.00
G01 Z-0.1120
G01 F120.00
G01 X3.5782 Y8.5032
G01 X3.5954 Y8.4805
G01 X3.6554 Y8.4143
G01 X3.7215 Y8.3543
G01 X3.7443 Y8.3371
G01 X3.7443 Y8.2172
G01 X3.6975 Y8.2477
G01 X3.5971 Y8.3330
G01 X3.5086 Y8.4305
G01 X3.4580 Y8.5032
G00 Z1.0000
G00 X3.4245 Y9.6406
G01 F25.00
G01 Z-0.1120
G01 F120.00
G01 X3.4216 Y9.6786
G01 X3.4207 Y9.6844
G01 X3.4188 Y9.6920
G01 X3.4161 Y9.6994
G01 X3.4137 Y9.7048
G01 X3.3920 Y9.7453
G01 X3.3855 Y9.7551
G01 X3.3817 Y9.7596
G01 X3.3762 Y9.7652
G01 X3.3345 Y9.7977
G01 X3.3245 Y9.8034
G01 X3.3175 Y9.8064
G01 X3.3120 Y9.8082
G01 X3.2676 Y9.8199
G01 X3.2617 Y9.8210
G01 X3.2537 Y9.8219
G01 X3.2456 Y9.8219
G01 X3.2376 Y9.8211
G01 X3.1926 Y9.8134
G01 X3.1833 Y9.8110
G01 X3.1727 Y9.8066
G01 X3.1644 Y9.8019
G01 X3.1276 Y9.7779
G01 X3.1210 Y9.7728
G01 X3.1165 Y9.7686
G01 X2.6350 Y9.2870
G01 X2.6283 Y9.2790
G01 X2.6047 Y9.2448
G01 X2.6016 Y9.2399
G01 X2.5980 Y9.2331
G01 X2.5951 Y9.2259
G01 X2.5925 Y9.2166
G01 X2.5842 Y9.1737
G01 X2.5830 Y9.1623
G01 X2.5830 Y7.9931
G01 X2.5842 Y7.9816
G01 X2.5921 Y7.9406
G01 X2.5940 Y7.9331
G01 X2.5958 Y7.9276
G01 X2.5989 Y7.9205
G01 X2.6026 Y7.9138
G01 X2.6271 Y7.8780
G01 X2.6322 Y7.8714
G01 X2.6364 Y7.8668
G01 X9.0098 Y1.4934
G01 X9.0144 Y1.4892
G01 X9.0210 Y1.4841
G01 X9.0535 Y1.4617
G01 X9.0618 Y1.4567
G01 X9.0724 Y1.4521
G01 X9.0817 Y1.4495
G01 X9.1246 Y1.4411
G01 X9.1322 Y1.4402
G01 X9.1380 Y1.4400
G01 X19.1730 Y1.4400
G01 X19.1788 Y1.4402
G01 X19.1864 Y1.4411
G01 X19.2274 Y1.4491
G01 X19.2368 Y1.4515
G01 X19.2475 Y1.4559
G01 X19.2559 Y1.4606
G01 X19.2917 Y1.4853
G01 X19.3012 Y1.4934
G01 X21.6106 Y3.8028
G01 X21.6187 Y3.8123
G01 X21.6444 Y3.8498
G01 X21.6498 Y3.8600
G01 X21.6519 Y3.8654
G01 X21.6541 Y3.8728
G01 X21.6629 Y3.9176
G01 X21.6636 Y3.9233
G01 X21.6640 Y3.9310
G01 X21.6640 Y7.1837
G01 X21.6634 Y7.1931
G01 X21.6570 Y7.2323
G01 X21.6551 Y7.2398
G01 X21.6533 Y7.2453
G01 X21.6494 Y7.2542
G01 X21.6322 Y7.2853
G01 X21.6282 Y7.2918
G01 X21.6236 Y7.2979
G01 X21.6171 Y7.3049
G01 X21.5874 Y7.3315
G01 X21.5798 Y7.3370
G01 X21.5350 Y7.3656
G01 X21.4391 Y7.4465
G01 X21.3548 Y7.5402
G01 X21.2836 Y7.6437
G01 X21.2270 Y7.7555
G01 X21.1858 Y7.8745
G01 X21.1605 Y7.9976
G01 X21.1521 Y8.1230
G01 X21.1605 Y8.2484
G01 X21.1858 Y8.3715
G01 X21.2270 Y8.4905
G01 X21.2836 Y8.6023
G01 X21.3548 Y8.7058
G01 X21.4391 Y8.7995
G01 X21.5350 Y8.8804
G01 X21.5798 Y8.9090
G01 X21.5874 Y8.9145
G01 X21.6171 Y8.9411
G01 X21.6236 Y8.9481
G01 X21.6282 Y8.9542
G01 X21.6322 Y8.9606
G01 X21.6494 Y8.9918
G01 X21.6533 Y9.0007
G01 X21.6551 Y9.0062
G01 X21.6570 Y9.0137
G01 X21.6632 Y9.0510
G01 X21.6640 Y9.0623
G01 X21.6640 Y11.8022
G01 X21.6658 Y11.8434
G01 X21.6705 Y11.8806
G01 X21.6786 Y11.9170
G01 X21.6897 Y11.9527
G01 X21.7042 Y11.9869
G01 X21.7216 Y12.0207
G01 X21.7416 Y12.0522
G01 X21.7642 Y12.0817
G01 X21.7922 Y12.1124
G01 X24.3070 Y14.6267
G01 X24.3370 Y14.6544
G01 X24.3668 Y14.6770
G01 X24.3990 Y14.6974
G01 X24.4318 Y14.7149
G01 X24.4660 Y14.7289
G01 X24.5017 Y14.7400
G01 X24.5390 Y14.7483
G01 X24.5758 Y14.7534
G01 X24.6170 Y14.7552
G01 X26.1291 Y14.7552
G01 X26.1414 Y14.7562
G01 X26.1833 Y14.7639
G01 X26.1945 Y14.7674
G01 X26.1998 Y14.7697
G01 X26.2066 Y14.7734
G01 X26.2409 Y14.7943
G01 X26.2487 Y14.8003
G01 X26.2556 Y14.8071
G01 X26.2617 Y14.8148
G01 X26.3685 Y14.9676
G01 X26.4571 Y15.0651
G01 X26.5575 Y15.1504
G01 X26.6682 Y15.2225
G01 X26.7870 Y15.2796
G01 X26.9120 Y15.3210
G01 X27.0415 Y15.3465
G01 X27.1730 Y15.3545
G01 X27.3046 Y15.3465
G01 X27.4340 Y15.3210
G01 X27.5590 Y15.2796
G01 X27.6778 Y15.2225
G01 X27.7885 Y15.1504
G01 X27.8889 Y15.0651
G01 X27.9774 Y14.9677
G01 X28.0587 Y14.8502
G01 X28.0905 Y14.8118
G01 X28.0959 Y14.8060
G01 X28.1034 Y14.7995
G01 X28.1099 Y14.7950
G01 X28.1187 Y14.7904
G01 X28.1617 Y14.7708
G01 X28.1692 Y14.7680
G01 X28.1770 Y14.7660
G01 X28.1849 Y14.7648
G01 X28.1929 Y14.7643
G01 X28.2449 Y14.7657
G01 X28.2563 Y14.7677
G01 X28.2674 Y14.7712
G01 X28.3128 Y14.7934
G01 X28.3196 Y14.7972
G01 X28.3245 Y14.8005
G01 X28.3306 Y14.8054
G01 X28.3361 Y14.8109
G01 X28.3691 Y14.8519
G01 X28.3734 Y14.8582
G01 X28.3780 Y14.8666
G01 X28.3814 Y14.8756
G01 X28.3835 Y14.8830
G01 X28.3935 Y14.9285
G01 X28.3946 Y14.9362
G01 X28.3950 Y14.9420
G01 X28.3950 Y16.2133
G01 X28.3944 Y16.2212
G01 X28.3930 Y16.2290
G01 X28.3829 Y16.2736
G01 X28.3799 Y16.2830
G01 X28.3757 Y16.2920
G01 X28.3716 Y16.2988
G01 X28.3526 Y16.3244
G01 X28.3747 Y16.3572
G01 X28.3787 Y16.3641
G01 X28.3820 Y16.3714
G01 X28.3839 Y16.3771
G01 X28.3859 Y16.3849
G01 X28.3938 Y16.4254
G01 X28.3949 Y16.4351
G01 X28.3950 Y17.2151
G01 X28.3938 Y17.2267
G01 X28.3859 Y17.2672
G01 X28.3839 Y17.2750
G01 X28.3820 Y17.2807
G01 X28.3787 Y17.2880
G01 X28.3747 Y17.2949
G01 X28.3513 Y17.3296
G01 X28.3706 Y17.3544
G01 X28.3749 Y17.3610
G01 X28.3792 Y17.3699
G01 X28.3830 Y17.3812
G01 X28.3935 Y17.4282
G01 X28.3946 Y17.4360
G01 X28.3950 Y17.4438
G01 X28.3950 Y17.5239
G01 X28.3946 Y17.5297
G01 X28.3935 Y17.5373
G01 X28.3855 Y17.5783
G01 X28.3835 Y17.5858
G01 X28.3808 Y17.5930
G01 X28.3774 Y17.5999
G01 X28.3744 Y17.6048
G01 X28.3509 Y17.6390
G01 X28.3445 Y17.6472
G01 X27.6832 Y18.3086
G01 X27.6737 Y18.3167
G01 X27.6395 Y18.3403
G01 X27.6312 Y18.3453
G01 X27.6242 Y18.3485
G01 X27.6169 Y18.3510
G01 X27.6094 Y18.3529
G01 X27.5684 Y18.3608
G01 X27.5608 Y18.3618
G01 X27.5550 Y18.3620
G01 X6.7821 Y18.3619
G01 X6.7725 Y18.3608
G01 X6.7296 Y18.3525
G01 X6.7222 Y18.3505
G01 X6.7150 Y18.3477
G01 X6.7081 Y18.3443
G01 X6.7015 Y18.3403
G01 X6.6673 Y18.3167
G01 X6.6593 Y18.3101
G01 X5.6574 Y17.3086
G01 X5.6504 Y17.2996
G01 X5.6248 Y17.2615
G01 X5.6212 Y17.2543
G01 X5.6189 Y17.2487
G01 X5.6157 Y17.2371
G01 X5.6078 Y17.1961
G01 X5.6068 Y17.1884
G01 X5.6067 Y17.1806
G01 X5.6078 Y17.1691
G01 X5.6158 Y17.1286
G01 X5.6172 Y17.1227
G01 X5.6197 Y17.1151
G01 X5.6229 Y17.1078
G01 X5.6269 Y17.1009
G01 X5.6514 Y17.0646
G01 X5.6562 Y17.0587
G01 X5.6600 Y17.0545
G01 X5.6657 Y17.0494
G01 X5.6702 Y17.0459
G01 X5.7065 Y17.0213
G01 X5.7134 Y17.0174
G01 X5.7188 Y17.0148
G01 X5.7264 Y17.0121
G01 X5.7322 Y17.0106
G01 X5.7785 Y17.0017
G01 X5.7882 Y17.0011
G01 X8.5602 Y17.0011
G01 X8.6014 Y16.9993
G01 X8.6386 Y16.9946
G01 X8.6749 Y16.9864
G01 X8.7106 Y16.9754
G01 X8.7449 Y16.9608
G01 X8.7787 Y16.9435
G01 X8.8101 Y16.9235
G01 X8.8397 Y16.9008
G01 X8.8704 Y16.8728
G01 X16.6547 Y9.0882
G01 X16.6612 Y9.0829
G01 X16.6888 Y9.0629
G01 X16.6990 Y9.0570
G01 X16.7081 Y9.0532
G01 X16.7404 Y9.0429
G01 X16.7481 Y9.0409
G01 X16.7559 Y9.0396
G01 X16.7659 Y9.0392
G01 X16.7979 Y9.0397
G01 X16.8057 Y9.0402
G01 X16.9188 Y9.0587
G01 X17.0445 Y9.0629
G01 X17.1694 Y9.0508
G01 X17.2915 Y9.0213
G01 X17.4091 Y8.9763
G01 X17.5190 Y8.9160
G01 X17.6201 Y8.8416
G01 X17.7105 Y8.7540
G01 X17.7887 Y8.6552
G01 X17.8528 Y8.5471
G01 X17.9014 Y8.4316
G01 X17.9347 Y8.3102
G01 X17.9515 Y8.1857
G01 X17.9515 Y8.0603
G01 X17.9347 Y7.9358
G01 X17.9014 Y7.8144
G01 X17.8528 Y7.6988
G01 X17.7887 Y7.5908
G01 X17.7105 Y7.4920
G01 X17.6201 Y7.4044
G01 X17.5190 Y7.3300
G01 X17.4091 Y7.2697
G01 X17.2915 Y7.2247
G01 X17.1694 Y7.1952
G01 X17.0445 Y7.1831
G01 X16.9188 Y7.1873
G01 X16.7949 Y7.2079
G01 X16.6751 Y7.2453
G01 X16.5608 Y7.2982
G01 X16.4550 Y7.3656
G01 X16.3591 Y7.4465
G01 X16.2748 Y7.5402
G01 X16.2036 Y7.6437
G01 X16.1470 Y7.7555
G01 X16.1058 Y7.8745
G01 X16.0805 Y7.9976
G01 X16.0721 Y8.1230
G01 X16.0805 Y8.2483
G01 X16.0961 Y8.3244
G01 X16.0968 Y8.3324
G01 X16.0978 Y8.3660
G01 X16.0975 Y8.3760
G01 X16.0967 Y8.3820
G01 X16.0949 Y8.3899
G01 X16.0841 Y8.4251
G01 X16.0805 Y8.4342
G01 X16.0768 Y8.4410
G01 X16.0736 Y8.4459
G01 X16.0532 Y8.4749
G01 X16.0482 Y8.4810
G01 X8.4392 Y16.0896
G01 X8.4296 Y16.0978
G01 X8.3922 Y16.1234
G01 X8.3854 Y16.1272
G01 X8.3784 Y16.1303
G01 X8.3729 Y16.1321
G01 X8.3654 Y16.1339
G01 X8.3244 Y16.1419
G01 X8.3129 Y16.1430
G01 X5.3569 Y16.1430
G01 X5.3466 Y16.1424
G01 X5.3045 Y16.1347
G01 X5.2987 Y16.1333
G01 X5.2911 Y16.1307
G01 X5.2803 Y16.1254
G01 X5.2476 Y16.1050
G01 X5.2410 Y16.1004
G01 X5.2364 Y16.0966
G01 X5.2293 Y16.0894
G01 X5.2244 Y16.0831
G01 X5.1176 Y15.9307
G01 X5.0289 Y15.8331
G01 X4.9285 Y15.7478
G01 X4.8178 Y15.6757
G01 X4.6989 Y15.6186
G01 X4.5740 Y15.5767
G01 X4.4446 Y15.5517
G01 X4.3130 Y15.5433
G01 X4.1815 Y15.5517
G01 X4.0520 Y15.5767
G01 X3.9271 Y15.6186
G01 X3.8082 Y15.6757
G01 X3.6975 Y15.7478
G01 X3.5971 Y15.8331
G01 X3.5085 Y15.9307
G01 X3.4331 Y16.0385
G01 X3.3723 Y16.1554
G01 X3.3266 Y16.2794
G01 X3.2974 Y16.4080
G01 X3.2847 Y16.5391
G01 X3.2889 Y16.6705
G01 X3.3101 Y16.8010
G01 X3.3478 Y16.9274
G01 X3.4011 Y17.0481
G01 X3.4694 Y17.1606
G01 X3.5514 Y17.2634
G01 X3.6462 Y17.3553
G01 X3.7518 Y17.4340
G01 X3.8668 Y17.4991
G01 X3.9886 Y17.5485
G01 X4.1164 Y17.5815
G01 X4.2471 Y17.5985
G01 X4.3790 Y17.5985
G01 X4.5096 Y17.5815
G01 X4.5733 Y17.5650
G01 X4.5808 Y17.5634
G01 X4.6215 Y17.5597
G01 X4.6294 Y17.5594
G01 X4.6372 Y17.5598
G01 X4.6468 Y17.5615
G01 X4.6841 Y17.5721
G01 X4.6916 Y17.5747
G01 X4.6987 Y17.5779
G01 X4.7055 Y17.5819
G01 X4.7376 Y17.6039
G01 X4.7421 Y17.6073
G01 X4.7475 Y17.6123
G01 X6.2265 Y19.0918
G01 X6.2572 Y19.1198
G01 X6.2868 Y19.1424
G01 X6.3182 Y19.1624
G01 X6.3520 Y19.1798
G01 X6.3863 Y19.1943
G01 X6.4220 Y19.2054
G01 X6.4583 Y19.2135
G01 X6.4956 Y19.2182
G01 X6.5368 Y19.2200
G01 X27.8042 Y19.2200
G01 X27.8454 Y19.2182
G01 X27.8826 Y19.2135
G01 X27.9190 Y19.2054
G01 X27.9547 Y19.1943
G01 X27.9889 Y19.1798
G01 X28.0227 Y19.1624
G01 X28.0542 Y19.1424
G01 X28.0837 Y19.1198
G01 X28.1144 Y19.0918
G01 X29.1248 Y18.0814
G01 X29.1528 Y18.0507
G01 X29.1755 Y18.0212
G01 X29.1954 Y17.9897
G01 X29.2128 Y17.9559
G01 X29.2273 Y17.9217
G01 X29.2384 Y17.8860
G01 X29.2465 Y17.8496
G01 X29.2512 Y17.8124
G01 X29.2530 Y17.7712
G01 X29.2530 Y10.9817
G01 X29.2512 Y10.9405
G01 X29.2465 Y10.9033
G01 X29.2384 Y10.8670
G01 X29.2273 Y10.8313
G01 X29.2128 Y10.7970
G01 X29.1954 Y10.7632
G01 X29.1755 Y10.7318
G01 X29.1528 Y10.7022
G01 X29.1248 Y10.6715
G01 X28.2137 Y9.7610
G01 X28.2057 Y9.7516
G01 X28.1820 Y9.7170
G01 X28.1784 Y9.7101
G01 X28.1755 Y9.7029
G01 X28.1641 Y9.6648
G01 X28.1619 Y9.6531
G01 X28.1614 Y9.6471
G01 X28.1615 Y9.6392
G01 X28.1636 Y9.6033
G01 X28.1646 Y9.5958
G01 X28.1886 Y9.4899
G01 X28.2013 Y9.3589
G01 X28.1971 Y9.2270
G01 X28.1759 Y9.0970
G01 X28.1382 Y8.9706
G01 X28.0849 Y8.8499
G01 X28.0166 Y8.7373
G01 X27.9346 Y8.6346
G01 X27.8398 Y8.5427
G01 X27.7343 Y8.4640
G01 X27.6192 Y8.3989
G01 X27.4974 Y8.3495
G01 X27.3696 Y8.3165
G01 X27.2389 Y8.2995
G01 X27.1071 Y8.2995
G01 X26.9764 Y8.3165
G01 X26.8486 Y8.3495
G01 X26.7268 Y8.3989
G01 X26.6118 Y8.4640
G01 X26.5062 Y8.5427
G01 X26.4114 Y8.6346
G01 X26.3294 Y8.7373
G01 X26.2611 Y8.8499
G01 X26.2078 Y8.9706
G01 X26.1701 Y9.0970
G01 X26.1489 Y9.2270
G01 X26.1447 Y9.3589
G01 X26.1574 Y9.4899
G01 X26.1866 Y9.6186
G01 X26.2323 Y9.7426
G01 X26.2931 Y9.8595
G01 X26.3685 Y9.9673
G01 X26.4571 Y10.0649
G01 X26.5575 Y10.1502
G01 X26.6682 Y10.2223
G01 X26.7871 Y10.2794
G01 X26.9120 Y10.3213
G01 X27.0415 Y10.3463
G01 X27.1730 Y10.3547
G01 X27.3044 Y10.3463
G01 X27.4465 Y10.3185
G01 X27.4557 Y10.3174
G01 X27.4906 Y10.3163
G01 X27.5027 Y10.3169
G01 X27.5145 Y10.3192
G01 X27.5518 Y10.3307
G01 X27.5591 Y10.3338
G01 X27.5644 Y10.3366
G01 X27.5712 Y10.3409
G01 X27.5981 Y10.3602
G01 X27.6067 Y10.3674
G01 X27.8712 Y10.6318
G01 X27.8762 Y10.6374
G01 X27.8807 Y10.6434
G01 X27.9072 Y10.6846
G01 X27.9114 Y10.6937
G01 X27.9145 Y10.7033
G01 X27.9229 Y10.7498
G01 X27.9238 Y10.7574
G01 X27.9241 Y10.7651
G01 X27.9237 Y10.7709
G01 X27.9227 Y10.7785
G01 X27.9117 Y10.8243
G01 X27.9094 Y10.8316
G01 X27.9064 Y10.8387
G01 X27.9026 Y10.8455
G01 X27.8994 Y10.8503
G01 X27.8734 Y10.8849
G01 X27.8671 Y10.8923
G01 X27.8585 Y10.9000
G01 X27.8505 Y10.9055
G01 X27.8110 Y10.9277
G01 X27.8040 Y10.9310
G01 X27.7985 Y10.9330
G01 X27.7910 Y10.9351
G01 X27.7833 Y10.9364
G01 X27.7402 Y10.9407
G01 X27.7303 Y10.9411
G01 X27.7223 Y10.9405
G01 X27.7107 Y10.9381
G01 X27.6691 Y10.9254
G01 X27.6619 Y10.9228
G01 X27.6533 Y10.9186
G01 X27.6192 Y10.8993
G01 X27.4972 Y10.8498
G01 X27.3695 Y10.8163
G01 X27.2389 Y10.7994
G01 X27.1071 Y10.7994
G01 X26.9765 Y10.8163
G01 X26.8488 Y10.8498
G01 X26.7267 Y10.8993
G01 X26.6117 Y10.9639
G01 X26.5611 Y11.0018
G01 X26.5543 Y11.0064
G01 X26.5146 Y11.0265
G01 X26.5037 Y11.0307
G01 X26.4962 Y11.0326
G01 X26.4885 Y11.0337
G01 X26.4504 Y11.0374
G01 X26.4406 Y11.0375
G01 X26.4348 Y11.0370
G01 X26.4270 Y11.0357
G01 X26.3850 Y11.0250
G01 X26.3760 Y11.0214
G01 X26.3659 Y11.0158
G01 X26.3327 Y10.9927
G01 X26.3249 Y10.9861
G01 X25.6219 Y10.2827
G01 X25.6153 Y10.2747
G01 X25.5906 Y10.2388
G01 X25.5867 Y10.2322
G01 X25.5835 Y10.2252
G01 X25.5810 Y10.2179
G01 X25.5791 Y10.2104
G01 X25.5712 Y10.1694
G01 X25.5700 Y10.1579
G01 X25.5701 Y9.0071
G01 X25.5712 Y8.9976
G01 X25.5795 Y8.9547
G01 X25.5815 Y8.9472
G01 X25.5843 Y8.9400
G01 X25.5877 Y8.9331
G01 X25.5917 Y8.9265
G01 X25.6153 Y8.8923
G01 X25.6220 Y8.8843
G01 X26.5358 Y7.9704
G01 X26.5420 Y7.9648
G01 X26.5470 Y7.9611
G01 X26.5812 Y7.9376
G01 X26.5913 Y7.9320
G01 X26.6002 Y7.9285
G01 X26.6077 Y7.9265
G01 X26.6506 Y7.9181
G01 X26.6621 Y7.9170
G01 X27.6820 Y7.9170
G01 X27.6916 Y7.9176
G01 X27.7383 Y7.9265
G01 X27.7458 Y7.9285
G01 X27.7530 Y7.9312
G01 X27.7599 Y7.9346
G01 X27.7665 Y7.9387
G01 X27.8007 Y7.9623
G01 X27.8102 Y7.9704
G01 X30.2466 Y10.4068
G01 X30.2547 Y10.4163
G01 X30.2783 Y10.4505
G01 X30.2824 Y10.4571
G01 X30.2858 Y10.4640
G01 X30.2885 Y10.4712
G01 X30.2905 Y10.4787
G01 X30.2985 Y10.5197
G01 X30.2996 Y10.5273
G01 X30.3000 Y10.5350
G01 X30.3000 Y18.4110
G01 X30.2992 Y18.4225
G01 X30.2905 Y18.4673
G01 X30.2885 Y18.4748
G01 X30.2858 Y18.4820
G01 X30.2824 Y18.4889
G01 X30.2783 Y18.4955
G01 X30.2547 Y18.5297
G01 X30.2480 Y18.5377
G01 X28.8262 Y19.9596
G01 X28.8167 Y19.9677
G01 X28.7825 Y19.9913
G01 X28.7759 Y19.9953
G01 X28.7672 Y19.9995
G01 X28.7599 Y20.0020
G01 X28.7524 Y20.0039
G01 X28.7114 Y20.0118
G01 X28.7057 Y20.0126
G01 X28.6980 Y20.0130
G01 X4.3062 Y20.0128
G01 X4.2967 Y20.0115
G01 X4.2557 Y20.0035
G01 X4.2482 Y20.0015
G01 X4.2410 Y19.9987
G01 X4.2341 Y19.9953
G01 X4.2275 Y19.9913
G01 X4.1933 Y19.9677
G01 X4.1853 Y19.9610
G01 X2.5094 Y18.2852
G01 X2.5038 Y18.2790
G01 X2.5001 Y18.2740
G01 X2.4756 Y18.2382
G01 X2.4719 Y18.2315
G01 X2.4688 Y18.2244
G01 X2.4670 Y18.2189
G01 X2.4651 Y18.2114
G01 X2.4572 Y18.1704
G01 X2.4560 Y18.1589
G01 X2.4560 Y15.8690
G01 X2.4564 Y15.8613
G01 X2.4572 Y15.8556
G01 X2.4664 Y15.8089
G01 X2.4703 Y15.7980
G01 X2.4756 Y15.7878
G01 X2.5013 Y15.7503
G01 X2.5094 Y15.7408
G01 X3.3918 Y14.8579
G01 X3.4006 Y14.8503
G01 X3.4379 Y14.8251
G01 X3.4429 Y14.8222
G01 X3.4498 Y14.8189
G01 X3.4570 Y14.8163
G01 X3.4626 Y14.8147
G01 X3.5030 Y14.8062
G01 X3.5150 Y14.8046
G01 X3.5230 Y14.8046
G01 X3.5290 Y14.8051
G01 X3.5775 Y14.8145
G01 X3.5889 Y14.8183
G01 X3.5978 Y14.8227
G01 X3.6390 Y14.8502
G01 X3.7517 Y14.9341
G01 X3.8667 Y14.9987
G01 X3.9888 Y15.0482
G01 X4.1165 Y15.0816
G01 X4.2471 Y15.0986
G01 X4.3790 Y15.0986
G01 X4.5095 Y15.0816
G01 X4.6372 Y15.0482
G01 X4.7593 Y14.9987
G01 X4.8744 Y14.9341
G01 X4.9798 Y14.8554
G01 X5.0745 Y14.7636
G01 X5.1565 Y14.6604
G01 X5.2250 Y14.5476
G01 X5.2452 Y14.5020
G01 X5.2496 Y14.4935
G01 X5.2762 Y14.4551
G01 X5.2839 Y14.4461
G01 X5.2896 Y14.4409
G01 X5.2959 Y14.4362
G01 X5.3317 Y14.4132
G01 X5.3405 Y14.4086
G01 X5.3479 Y14.4057
G01 X5.3556 Y14.4036
G01 X5.3976 Y14.3952
G01 X5.4054 Y14.3942
G01 X5.4113 Y14.3940
G01 X8.3732 Y14.3940
G01 X8.4144 Y14.3922
G01 X8.4516 Y14.3875
G01 X8.4880 Y14.3794
G01 X8.5237 Y14.3683
G01 X8.5579 Y14.3538
G01 X8.5917 Y14.3364
G01 X8.6232 Y14.3164
G01 X8.6528 Y14.2937
G01 X8.6834 Y14.2658
G01 X13.9221 Y9.0270
G01 X13.9302 Y9.0208
G01 X13.9659 Y8.9974
G01 X13.9726 Y8.9937
G01 X13.9796 Y8.9906
G01 X13.9850 Y8.9888
G01 X13.9925 Y8.9869
G01 X14.0350 Y8.9794
G01 X14.0430 Y8.9784
G01 X14.0510 Y8.9782
G01 X14.0570 Y8.9786
G01 X14.0649 Y8.9798
G01 X14.1104 Y8.9904
G01 X14.1199 Y8.9938
G01 X14.1349 Y9.0006
G01 X14.2549 Y9.0381
G01 X14.3788 Y9.0587
G01 X14.5045 Y9.0629
G01 X14.6294 Y9.0508
G01 X14.7515 Y9.0213
G01 X14.8691 Y8.9763
G01 X14.9790 Y8.9160
G01 X15.0801 Y8.8416
G01 X15.1705 Y8.7540
G01 X15.2487 Y8.6552
G01 X15.3128 Y8.5471
G01 X15.3614 Y8.4316
G01 X15.3947 Y8.3102
G01 X15.4115 Y8.1857
G01 X15.4115 Y8.0603
G01 X15.3947 Y7.9358
G01 X15.3614 Y7.8144
G01 X15.3128 Y7.6988
G01 X15.2487 Y7.5908
G01 X15.1705 Y7.4920
G01 X15.0801 Y7.4044
G01 X14.9790 Y7.3300
G01 X14.8691 Y7.2697
G01 X14.7515 Y7.2247
G01 X14.6294 Y7.1952
G01 X14.5045 Y7.1831
G01 X14.3788 Y7.1873
G01 X14.2549 Y7.2079
G01 X14.1351 Y7.2453
G01 X14.0208 Y7.2982
G01 X13.9150 Y7.3656
G01 X13.8191 Y7.4465
G01 X13.7348 Y7.5402
G01 X13.6636 Y7.6437
G01 X13.6070 Y7.7555
G01 X13.5658 Y7.8745
G01 X13.5406 Y7.9974
G01 X13.5318 Y8.1391
G01 X13.5309 Y8.1471
G01 X13.5194 Y8.1943
G01 X13.5158 Y8.2034
G01 X13.5101 Y8.2138
G01 X13.4870 Y8.2470
G01 X13.4804 Y8.2548
G01 X13.1230 Y8.6122
G01 X13.1186 Y8.6162
G01 X13.1122 Y8.6209
G01 X13.0700 Y8.6474
G01 X13.0592 Y8.6525
G01 X13.0477 Y8.6558
G01 X12.9961 Y8.6632
G01 X12.9881 Y8.6637
G01 X12.9781 Y8.6632
G01 X12.9721 Y8.6623
G01 X12.9643 Y8.6604
G01 X12.9202 Y8.6461
G01 X12.9110 Y8.6425
G01 X12.9040 Y8.6387
G01 X12.8990 Y8.6355
G01 X12.8927 Y8.6306
G01 X12.8587 Y8.5998
G01 X12.8518 Y8.5927
G01 X12.8469 Y8.5864
G01 X12.8427 Y8.5797
G01 X12.8383 Y8.5708
G01 X12.8209 Y8.5278
G01 X12.8175 Y8.5164
G01 X12.8160 Y8.5066
G01 X12.8157 Y8.4967
G01 X12.8183 Y8.4511
G01 X12.8192 Y8.4429
G01 X12.8210 Y8.4348
G01 X12.8547 Y8.3103
G01 X12.8715 Y8.1857
G01 X12.8715 Y8.0605
G01 X12.8530 Y7.9273
G01 X12.8492 Y7.8835
G01 X12.8495 Y7.8736
G01 X12.8510 Y7.8638
G01 X12.8616 Y7.8240
G01 X12.8657 Y7.8131
G01 X12.8714 Y7.8028
G01 X12.8940 Y7.7701
G01 X12.9021 Y7.7606
G01 X16.0878 Y4.5754
G01 X16.0933 Y4.5704
G01 X16.0978 Y4.5669
G01 X16.1278 Y4.5455
G01 X16.1327 Y4.5425
G01 X16.1395 Y4.5390
G01 X16.1502 Y4.5350
G01 X16.1880 Y4.5248
G01 X16.1978 Y4.5231
G01 X16.2098 Y4.5226
G01 X16.2484 Y4.5259
G01 X16.2564 Y4.5270
G01 X16.2643 Y4.5290
G01 X16.2720 Y4.5317
G01 X16.3115 Y4.5495
G01 X16.3187 Y4.5539
G01 X16.4067 Y4.6144
G01 X16.5185 Y4.6710
G01 X16.6375 Y4.7122
G01 X16.7606 Y4.7375
G01 X16.8860 Y4.7459
G01 X17.0114 Y4.7375
G01 X17.1345 Y4.7122
G01 X17.2535 Y4.6710
G01 X17.3653 Y4.6144
G01 X17.4688 Y4.5432
G01 X17.5625 Y4.4589
G01 X17.6434 Y4.3630
G01 X17.7108 Y4.2572
G01 X17.7637 Y4.1429
G01 X17.8011 Y4.0231
G01 X17.8217 Y3.8992
G01 X17.8259 Y3.7735
G01 X17.8138 Y3.6486
G01 X17.7843 Y3.5265
G01 X17.7393 Y3.4089
G01 X17.6790 Y3.2990
G01 X17.6046 Y3.1979
G01 X17.5170 Y3.1075
G01 X17.4182 Y3.0293
G01 X17.3102 Y2.9652
G01 X17.1946 Y2.9166
G01 X17.0732 Y2.8833
G01 X16.9487 Y2.8665
G01 X16.8233 Y2.8665
G01 X16.6988 Y2.8833
G01 X16.5774 Y2.9166
G01 X16.4619 Y2.9652
G01 X16.3538 Y3.0293
G01 X16.2550 Y3.1075
G01 X16.1674 Y3.1979
G01 X16.0931 Y3.2989
G01 X16.0268 Y3.4203
G01 X16.0204 Y3.4293
G01 X15.9981 Y3.4568
G01 X15.9927 Y3.4627
G01 X15.9428 Y3.5060
G01 X15.1685 Y4.2800
G01 X15.1610 Y4.2858
G01 X15.1246 Y4.3103
G01 X15.1157 Y4.3149
G01 X15.1064 Y4.3184
G01 X15.0986 Y4.3204
G01 X15.0600 Y4.3280
G01 X15.0523 Y4.3291
G01 X15.0445 Y4.3295
G01 X15.0042 Y4.3295
G01 X14.9943 Y4.3421
G01 X14.9414 Y4.4004
G01 X14.8831 Y4.4533
G01 X14.8705 Y4.4632
G01 X14.8705 Y4.5035
G01 X14.8701 Y4.5113
G01 X14.8690 Y4.5190
G01 X14.8614 Y4.5576
G01 X14.8594 Y4.5654
G01 X14.8551 Y4.5765
G01 X14.8502 Y4.5853
G01 X14.8257 Y4.6215
G01 X14.8184 Y4.6303
G01 X12.2939 Y7.1554
G01 X12.2882 Y7.1606
G01 X12.2540 Y7.1851
G01 X12.2490 Y7.1882
G01 X12.2419 Y7.1918
G01 X12.2326 Y7.1952
G01 X12.1977 Y7.2049
G01 X12.1858 Y7.2073
G01 X12.1737 Y7.2078
G01 X12.1329 Y7.2053
G01 X12.1247 Y7.2039
G01 X12.0891 Y7.1952
G01 X11.9645 Y7.1831
G01 X11.8388 Y7.1873
G01 X11.7149 Y7.2079
G01 X11.5951 Y7.2453
G01 X11.4808 Y7.2982
G01 X11.3750 Y7.3656
G01 X11.2791 Y7.4465
G01 X11.1948 Y7.5402
G01 X11.1236 Y7.6437
G01 X11.0670 Y7.7555
G01 X11.0258 Y7.8745
G01 X11.0005 Y7.9976
G01 X10.9921 Y8.1230
G01 X11.0005 Y8.2484
G01 X11.0258 Y8.3715
G01 X11.0670 Y8.4905
G01 X11.1236 Y8.6023
G01 X11.1948 Y8.7058
G01 X11.2791 Y8.7995
G01 X11.3750 Y8.8803
G01 X11.4808 Y8.9477
G01 X11.5951 Y9.0007
G01 X11.7149 Y9.0381
G01 X11.8388 Y9.0587
G01 X11.9645 Y9.0629
G01 X12.0894 Y9.0508
G01 X12.2121 Y9.0211
G01 X12.2321 Y9.0139
G01 X12.2394 Y9.0118
G01 X12.2877 Y9.0031
G01 X12.2997 Y9.0027
G01 X12.3117 Y9.0041
G01 X12.3542 Y9.0136
G01 X12.3616 Y9.0159
G01 X12.3671 Y9.0180
G01 X12.3740 Y9.0215
G01 X12.3806 Y9.0257
G01 X12.4142 Y9.0491
G01 X12.4188 Y9.0528
G01 X12.4244 Y9.0581
G01 X12.4283 Y9.0624
G01 X12.4330 Y9.0686
G01 X12.4554 Y9.1032
G01 X12.4594 Y9.1102
G01 X12.4627 Y9.1176
G01 X12.4662 Y9.1292
G01 X12.4743 Y9.1697
G01 X12.4756 Y9.1792
G01 X12.4758 Y9.1868
G01 X12.4755 Y9.1925
G01 X12.4744 Y9.2000
G01 X12.4655 Y9.2420
G01 X12.4632 Y9.2496
G01 X12.4594 Y9.2588
G01 X12.4544 Y9.2675
G01 X12.4314 Y9.3021
G01 X12.4278 Y9.3069
G01 X12.4224 Y9.3129
G01 X8.2522 Y13.4826
G01 X8.2444 Y13.4895
G01 X8.2069 Y13.5154
G01 X8.2002 Y13.5193
G01 X8.1932 Y13.5225
G01 X8.1859 Y13.5250
G01 X8.1784 Y13.5269
G01 X8.1374 Y13.5348
G01 X8.1259 Y13.5360
G01 X5.2853 Y13.5360
G01 X5.2769 Y13.5355
G01 X5.2389 Y13.5296
G01 X5.2333 Y13.5284
G01 X5.2260 Y13.5261
G01 X5.2172 Y13.5223
G01 X5.1871 Y13.5062
G01 X5.1801 Y13.5020
G01 X5.1752 Y13.4984
G01 X5.1677 Y13.4916
G01 X5.1422 Y13.4654
G01 X5.1374 Y13.4594
G01 X5.1174 Y13.4307
G01 X5.0288 Y13.3332
G01 X4.9285 Y13.2475
G01 X4.8178 Y13.1758
G01 X4.6989 Y13.1183
G01 X4.5742 Y13.0769
G01 X4.4446 Y13.0519
G01 X4.3130 Y13.0434
G01 X4.1815 Y13.0519
G01 X4.0518 Y13.0769
G01 X3.9271 Y13.1183
G01 X3.8082 Y13.1758
G01 X3.6975 Y13.2475
G01 X3.5972 Y13.3332
G01 X3.5085 Y13.4308
G01 X3.4331 Y13.5387
G01 X3.3649 Y13.6693
G01 X3.3591 Y13.6779
G01 X3.3320 Y13.7123
G01 X3.3252 Y13.7190
G01 X3.2638 Y13.7725
G01 X1.7262 Y15.3096
G01 X1.6983 Y15.3402
G01 X1.6756 Y15.3698
G01 X1.6556 Y15.4013
G01 X1.6382 Y15.4351
G01 X1.6237 Y15.4693
G01 X1.6126 Y15.5050
G01 X1.6045 Y15.5414
G01 X1.5998 Y15.5786
G01 X1.5980 Y15.6198
G01 X1.5980 Y18.4062
G01 X1.5998 Y18.4474
G01 X1.6045 Y18.4846
G01 X1.6126 Y18.5210
G01 X1.6237 Y18.5567
G01 X1.6382 Y18.5909
G01 X1.6556 Y18.6247
G01 X1.6756 Y18.6562
G01 X1.6982 Y18.6857
G01 X1.7262 Y18.7164
G01 X3.7526 Y20.7428
G01 X3.7833 Y20.7708
G01 X3.8128 Y20.7934
G01 X3.8443 Y20.8134
G01 X3.8781 Y20.8308
G01 X3.9123 Y20.8453
G01 X3.9480 Y20.8564
G01 X3.9844 Y20.8645
G01 X4.0216 Y20.8692
G01 X4.0628 Y20.8710
G01 X28.9472 Y20.8710
G01 X28.9884 Y20.8692
G01 X29.0256 Y20.8645
G01 X29.0620 Y20.8564
G01 X29.0977 Y20.8453
G01 X29.1319 Y20.8308
G01 X29.1657 Y20.8134
G01 X29.1972 Y20.7934
G01 X29.2267 Y20.7708
G01 X29.2574 Y20.7428
G01 X31.0298 Y18.9704
G01 X31.0578 Y18.9397
G01 X31.0803 Y18.9104
G01 X31.1036 Y18.8731
G01 X31.1095 Y18.8649
G01 X31.1149 Y18.8589
G01 X31.1468 Y18.8270
G01 X31.1513 Y18.8230
G01 X31.1578 Y18.8183
G01 X31.1683 Y18.8124
G01 X31.2145 Y18.7948
G01 X31.2222 Y18.7924
G01 X31.2321 Y18.7904
G01 X31.2422 Y18.7897
G01 X31.2789 Y18.7921
G01 X31.2789 Y10.1539
G01 X31.2422 Y10.1563
G01 X31.2321 Y10.1556
G01 X31.2222 Y10.1536
G01 X31.2145 Y10.1512
G01 X31.1683 Y10.1336
G01 X31.1578 Y10.1277
G01 X31.1513 Y10.1230
G01 X31.1468 Y10.1190
G01 X31.1149 Y10.0871
G01 X31.1095 Y10.0811
G01 X31.1036 Y10.0729
G01 X31.0803 Y10.0356
G01 X31.0578 Y10.0062
G01 X31.0298 Y9.9756
G01 X28.2414 Y7.1872
G01 X28.2107 Y7.1592
G01 X28.1812 Y7.1365
G01 X28.1497 Y7.1166
G01 X28.1159 Y7.0992
G01 X28.0817 Y7.0847
G01 X28.0460 Y7.0736
G01 X28.0096 Y7.0655
G01 X27.9724 Y7.0608
G01 X27.9312 Y7.0590
G01 X26.4148 Y7.0590
G01 X26.3736 Y7.0608
G01 X26.3364 Y7.0655
G01 X26.3000 Y7.0736
G01 X26.2643 Y7.0847
G01 X26.2301 Y7.0992
G01 X26.1963 Y7.1166
G01 X26.1648 Y7.1365
G01 X26.1353 Y7.1592
G01 X26.1046 Y7.1872
G01 X24.8402 Y8.4516
G01 X24.8122 Y8.4823
G01 X24.7896 Y8.5118
G01 X24.7696 Y8.5433
G01 X24.7522 Y8.5771
G01 X24.7377 Y8.6113
G01 X24.7266 Y8.6470
G01 X24.7185 Y8.6834
G01 X24.7138 Y8.7206
G01 X24.7120 Y8.7618
G01 X24.7120 Y10.4052
G01 X24.7138 Y10.4464
G01 X24.7185 Y10.4836
G01 X24.7266 Y10.5200
G01 X24.7377 Y10.5557
G01 X24.7522 Y10.5899
G01 X24.7696 Y10.6237
G01 X24.7896 Y10.6552
G01 X24.8122 Y10.6847
G01 X24.8402 Y10.7154
G01 X26.1353 Y12.0102
G01 X26.1401 Y12.0158
G01 X26.1596 Y12.0418
G01 X26.1635 Y12.0483
G01 X26.1676 Y12.0568
G01 X26.1701 Y12.0640
G01 X26.1857 Y12.1159
G01 X26.2323 Y12.2424
G01 X26.2931 Y12.3593
G01 X26.3685 Y12.4672
G01 X26.4572 Y12.5648
G01 X26.5575 Y12.6505
G01 X26.6682 Y12.7222
G01 X26.7871 Y12.7797
G01 X26.9118 Y12.8211
G01 X27.0415 Y12.8461
G01 X27.1730 Y12.8546
G01 X27.3046 Y12.8461
G01 X27.4342 Y12.8211
G01 X27.5589 Y12.7797
G01 X27.6778 Y12.7222
G01 X27.7885 Y12.6505
G01 X27.8888 Y12.5648
G01 X27.9774 Y12.4673
G01 X28.0598 Y12.3483
G01 X28.0944 Y12.3072
G01 X28.1030 Y12.2995
G01 X28.1126 Y12.2931
G01 X28.1194 Y12.2896
G01 X28.1624 Y12.2706
G01 X28.1698 Y12.2679
G01 X28.1754 Y12.2664
G01 X28.1851 Y12.2649
G01 X28.1929 Y12.2645
G01 X28.2410 Y12.2656
G01 X28.2487 Y12.2663
G01 X28.2563 Y12.2678
G01 X28.2637 Y12.2700
G01 X28.2692 Y12.2721
G01 X28.3163 Y12.2954
G01 X28.3245 Y12.3006
G01 X28.3306 Y12.3055
G01 X28.3387 Y12.3139
G01 X28.3679 Y12.3505
G01 X28.3724 Y12.3567
G01 X28.3771 Y12.3650
G01 X28.3808 Y12.3739
G01 X28.3830 Y12.3812
G01 X28.3935 Y12.4287
G01 X28.3949 Y12.4402
G01 X28.3950 Y13.7115
G01 X28.3944 Y13.7214
G01 X28.3930 Y13.7291
G01 X28.3824 Y13.7757
G01 X28.3792 Y13.7850
G01 X28.3757 Y13.7922
G01 X28.3705 Y13.8006
G01 X28.3410 Y13.8397
G01 X28.3331 Y13.8481
G01 X28.3256 Y13.8541
G01 X28.3174 Y13.8591
G01 X28.2770 Y13.8809
G01 X28.2679 Y13.8848
G01 X28.2583 Y13.8876
G01 X28.2465 Y13.8893
G01 X28.1969 Y13.8916
G01 X28.1891 Y13.8912
G01 X28.1833 Y13.8904
G01 X28.1719 Y13.8875
G01 X28.1276 Y13.8704
G01 X28.1204 Y13.8672
G01 X28.1136 Y13.8634
G01 X28.1088 Y13.8601
G01 X28.1027 Y13.8551
G01 X28.0985 Y13.8510
G01 X28.0686 Y13.8195
G01 X28.0624 Y13.8122
G01 X28.0582 Y13.8059
G01 X28.0166 Y13.7375
G01 X27.9346 Y13.6343
G01 X27.8398 Y13.5429
G01 X27.7343 Y13.4637
G01 X27.6193 Y13.3992
G01 X27.4972 Y13.3497
G01 X27.3695 Y13.3162
G01 X27.2389 Y13.2992
G01 X27.1071 Y13.2992
G01 X26.9765 Y13.3162
G01 X26.8488 Y13.3497
G01 X26.7267 Y13.3992
G01 X26.6118 Y13.4637
G01 X26.5062 Y13.5429
G01 X26.4114 Y13.6343
G01 X26.3295 Y13.7375
G01 X26.2837 Y13.8128
G01 X26.2774 Y13.8208
G01 X26.2505 Y13.8511
G01 X26.2444 Y13.8564
G01 X26.2379 Y13.8610
G01 X26.2046 Y13.8804
G01 X26.1942 Y13.8854
G01 X26.1832 Y13.8889
G01 X26.1417 Y13.8959
G01 X26.1306 Y13.8967
G01 X24.8637 Y13.8966
G01 X24.8560 Y13.8961
G01 X24.8502 Y13.8951
G01 X24.8097 Y13.8871
G01 X24.7985 Y13.8838
G01 X24.7914 Y13.8806
G01 X24.7846 Y13.8768
G01 X24.7499 Y13.8539
G01 X24.7434 Y13.8492
G01 X24.7375 Y13.8438
G01 X22.5754 Y11.6812
G01 X22.5673 Y11.6717
G01 X22.5416 Y11.6342
G01 X22.5387 Y11.6292
G01 X22.5355 Y11.6222
G01 X22.5335 Y11.6168
G01 X22.5315 Y11.6093
G01 X22.5232 Y11.5664
G01 X22.5222 Y11.5588
G01 X22.5220 Y11.5530
G01 X22.5220 Y9.0643
G01 X22.5228 Y9.0532
G01 X22.5285 Y9.0184
G01 X22.5304 Y9.0106
G01 X22.5323 Y9.0049
G01 X22.5355 Y8.9976
G01 X22.5506 Y8.9674
G01 X22.5545 Y8.9608
G01 X22.5590 Y8.9547
G01 X22.5641 Y8.9490
G01 X22.5860 Y8.9266
G01 X22.5929 Y8.9203
G01 X22.7001 Y8.8415
G01 X22.7905 Y8.7540
G01 X22.8687 Y8.6552
G01 X22.9328 Y8.5471
G01 X22.9814 Y8.4316
G01 X23.0147 Y8.3102
G01 X23.0315 Y8.1857
G01 X23.0315 Y8.0603
G01 X23.0147 Y7.9358
G01 X22.9814 Y7.8144
G01 X22.9328 Y7.6988
G01 X22.8687 Y7.5908
G01 X22.7905 Y7.4920
G01 X22.7001 Y7.4045
G01 X22.5929 Y7.3257
G01 X22.5860 Y7.3194
G01 X22.5641 Y7.2970
G01 X22.5590 Y7.2913
G01 X22.5545 Y7.2851
G01 X22.5506 Y7.2786
G01 X22.5347 Y7.2466
G01 X22.5316 Y7.2392
G01 X22.5285 Y7.2276
G01 X22.5226 Y7.1909
G01 X22.5220 Y7.1817
G01 X22.5220 Y3.6818
G01 X22.5202 Y3.6406
G01 X22.5155 Y3.6034
G01 X22.5074 Y3.5670
G01 X22.4963 Y3.5313
G01 X22.4818 Y3.4971
G01 X22.4644 Y3.4633
G01 X22.4445 Y3.4318
G01 X22.4218 Y3.4022
G01 X22.3938 Y3.3716
G01 X19.7324 Y0.7102
G01 X19.7018 Y0.6822
G01 X19.6722 Y0.6595
G01 X19.6407 Y0.6396
G01 X19.6069 Y0.6222
G01 X19.5727 Y0.6077
G01 X19.5370 Y0.5966
G01 X19.5006 Y0.5885
G01 X19.4634 Y0.5838
G01 X19.4222 Y0.5820
G01 X8.8888 Y0.5820
G01 X8.8476 Y0.5838
G01 X8.8104 Y0.5885
G01 X8.7740 Y0.5966
G01 X8.7383 Y0.6077
G01 X8.7041 Y0.6222
G01 X8.6703 Y0.6396
G01 X8.6388 Y0.6595
G01 X8.6093 Y0.6822
G01 X8.5786 Y0.7102
G01 X1.8532 Y7.4356
G01 X1.8252 Y7.4663
G01 X1.8026 Y7.4958
G01 X1.7826 Y7.5273
G01 X1.7652 Y7.5611
G01 X1.7507 Y7.5953
G01 X1.7396 Y7.6310
G01 X1.7315 Y7.6674
G01 X1.7268 Y7.7046
G01 X1.7250 Y7.7458
G01 X1.7250 Y9.4095
G01 X1.7268 Y9.4507
G01 X1.7315 Y9.4879
G01 X1.7396 Y9.5243
G01 X1.7507 Y9.5600
G01 X1.7652 Y9.5943
G01 X1.7826 Y9.6280
G01 X1.8026 Y9.6595
G01 X1.8252 Y9.6891
G01 X1.8532 Y9.7197
G01 X3.2718 Y11.1378
G01 X3.2793 Y11.1465
G01 X3.3014 Y11.1777
G01 X3.3074 Y11.1882
G01 X3.3117 Y11.1995
G01 X3.3224 Y11.2359
G01 X3.3239 Y11.2437
G01 X3.3247 Y11.2536
G01 X3.3225 Y11.2936
G01 X3.3214 Y11.3030
G01 X3.2974 Y11.4079
G01 X3.2847 Y11.5388
G01 X3.2889 Y11.6707
G01 X3.3101 Y11.8007
G01 X3.3478 Y11.9271
G01 X3.4011 Y12.0478
G01 X3.4695 Y12.1605
G01 X3.5514 Y12.2637
G01 X3.6462 Y12.3551
G01 X3.7518 Y12.4343
G01 X3.8667 Y12.4988
G01 X3.9888 Y12.5483
G01 X4.1165 Y12.5818
G01 X4.2471 Y12.5987
G01 X4.3790 Y12.5987
G01 X4.5095 Y12.5818
G01 X4.6372 Y12.5483
G01 X4.7593 Y12.4988
G01 X4.8743 Y12.4343
G01 X4.9798 Y12.3551
G01 X5.0746 Y12.2637
G01 X5.1565 Y12.1605
G01 X5.2249 Y12.0478
G01 X5.2782 Y11.9271
G01 X5.3159 Y11.8007
G01 X5.3371 Y11.6707
G01 X5.3413 Y11.5388
G01 X5.3286 Y11.4078
G01 X5.2994 Y11.2792
G01 X5.2537 Y11.1557
G01 X5.1928 Y11.0387
G01 X5.1174 Y10.9304
G01 X5.0289 Y10.8329
G01 X4.9285 Y10.7476
G01 X4.8178 Y10.6755
G01 X4.6990 Y10.6184
G01 X4.5740 Y10.5769
G01 X4.4446 Y10.5515
G01 X4.3130 Y10.5435
G01 X4.1815 Y10.5515
G01 X4.0368 Y10.5801
G01 X4.0274 Y10.5809
G01 X3.9904 Y10.5819
G01 X3.9803 Y10.5811
G01 X3.9705 Y10.5790
G01 X3.9351 Y10.5682
G01 X3.9277 Y10.5653
G01 X3.9205 Y10.5616
G01 X3.9155 Y10.5585
G01 X3.8824 Y10.5346
G01 X3.8769 Y10.5295
G01 X3.6095 Y10.2614
G01 X3.6033 Y10.2536
G01 X3.5772 Y10.2141
G01 X3.5736 Y10.2073
G01 X3.5713 Y10.2020
G01 X3.5694 Y10.1965
G01 X3.5676 Y10.1890
G01 X3.5595 Y10.1426
G01 X3.5589 Y10.1330
G01 X3.5594 Y10.1234
G01 X3.5611 Y10.1139
G01 X3.5724 Y10.0681
G01 X3.5744 Y10.0625
G01 X3.5777 Y10.0554
G01 X3.5817 Y10.0486
G01 X3.5851 Y10.0437
G01 X3.6118 Y10.0091
G01 X3.6171 Y10.0032
G01 X3.6215 Y9.9990
G01 X3.6279 Y9.9941
G01 X3.6329 Y9.9908
G01 X3.6707 Y9.9695
G01 X3.6777 Y9.9660
G01 X3.6832 Y9.9638
G01 X3.6944 Y9.9607
G01 X3.7022 Y9.9596
G01 X3.7443 Y9.9554
G01 X3.7443 Y9.8068
G01 X3.7215 Y9.7896
G01 X3.6554 Y9.7295
G01 X3.5954 Y9.6634
G01 X3.5782 Y9.6406
G01 X3.4245 Y9.6406
G00 Z1.0000
G00 X3.3853 Y9.9515
G01 F25.00
G01 Z-0.1120
G01 F120.00
G01 X3.4291 Y9.9953
G01 X3.4342 Y9.9846
G01 X3.4393 Y9.9750
G01 X3.4502 Y9.9574
G01 X3.4574 Y9.9474
G01 X3.4837 Y9.9132
G01 X3.4926 Y9.9023
G01 X3.5064 Y9.8876
G01 X3.5206 Y9.8749
G01 X3.5366 Y9.8627
G01 X3.5526 Y9.8524
G01 X3.5409 Y9.8413
G01 X3.5288 Y9.8283
G01 X3.5181 Y9.8449
G01 X3.5067 Y9.8596
G01 X3.4935 Y9.8742
G01 X3.4785 Y9.8882
G01 X3.4373 Y9.9207
G01 X3.4245 Y9.9300
G01 X3.4149 Y9.9362
G01 X3.4058 Y9.9415
G01 X3.3956 Y9.9468
G01 X3.3853 Y9.9515
G01 X3.2200 Y9.8993
G01 X3.4814 Y10.1607
G01 X3.4794 Y10.1459
G01 X3.4789 Y10.1305
G01 X3.4799 Y10.1151
G01 X3.4819 Y10.1018
G01 X3.4930 Y10.0551
G01 X3.4959 Y10.0446
G01 X3.5021 Y10.0280
G01 X3.5102 Y10.0122
G01 X3.5199 Y9.9973
G01 X3.5502 Y9.9580
G01 X3.5611 Y9.9461
G01 X3.5730 Y9.9353
G01 X3.5810 Y9.9293
G01 X3.5911 Y9.9226
G01 X3.6340 Y9.8984
G01 X3.6481 Y9.8916
G01 X3.6643 Y9.8858
G01 X3.6643 Y9.8457
G01 X3.5995 Y9.7868
G01 X3.5392 Y9.7206
G01 X3.4936 Y9.7206
G01 X3.4897 Y9.7309
G01 X3.4856 Y9.7399
G01 X3.4630 Y9.7822
G01 X3.4549 Y9.7956
G01 X3.4467 Y9.8066
G01 X3.4363 Y9.8183
G01 X3.4262 Y9.8277
G01 X3.3876 Y9.8580
G01 X3.3767 Y9.8657
G01 X3.3685 Y9.8707
G01 X3.3601 Y9.8751
G01 X3.3513 Y9.8790
G01 X3.3424 Y9.8825
G01 X3.3305 Y9.8861
G01 X3.2830 Y9.8984
G01 X3.2671 Y9.9010
G01 X3.2511 Y9.9020
G01 X3.2350 Y9.9013
G01 X3.2200 Y9.8993
G00 Z1.0000
G00 X4.8817 Y9.9284
G01 F25.00
G01 Z-0.1120
G01 F120.00
G01 X4.9799 Y9.8551
G01 X5.0746 Y9.7638
G01 X5.1565 Y9.6606
G01 X5.1687 Y9.6406
G01 X5.0478 Y9.6406
G01 X5.0306 Y9.6634
G01 X4.9706 Y9.7295
G01 X4.9045 Y9.7896
G01 X4.8817 Y9.8067
G01 X4.8817 Y9.9284
G00 Z1.0000
G00 X8.5511 Y8.1269
G01 F25.00
G01 Z-0.1120
G01 F120.00
G01 X8.5511 Y8.1191
G01 X8.5551 Y8.0405
G01 X8.5672 Y7.9587
G01 X8.5873 Y7.8786
G01 X8.6151 Y7.8008
G01 X8.6504 Y7.7261
G01 X8.6929 Y7.6552
G01 X8.7421 Y7.5888
G01 X8.7976 Y7.5276
G01 X8.8588 Y7.4721
G01 X8.9252 Y7.4229
G01 X8.9961 Y7.3804
G01 X9.0708 Y7.3451
G01 X9.1486 Y7.3173
G01 X9.2287 Y7.2972
G01 X9.3105 Y7.2851
G01 X9.3930 Y7.2810
G01 X9.4755 Y7.2851
G01 X9.5573 Y7.2972
G01 X9.6374 Y7.3173
G01 X9.7152 Y7.3451
G01 X9.7899 Y7.3804
G01 X9.8608 Y7.4229
G01 X9.9272 Y7.4721
G01 X9.9884 Y7.5276
G01 X10.0439 Y7.5888
G01 X10.0931 Y7.6552
G01 X10.1356 Y7.7261
G01 X10.1709 Y7.8008
G01 X10.1987 Y7.8786
G01 X10.2188 Y7.9587
G01 X10.2309 Y8.0405
G01 X10.2350 Y8.1230
G01 X10.2309 Y8.2055
G01 X10.2188 Y8.2873
G01 X10.1987 Y8.3674
G01 X10.1709 Y8.4452
G01 X10.1356 Y8.5199
G01 X10.0931 Y8.5908
G01 X10.0439 Y8.6572
G01 X9.9884 Y8.7184
G01 X9.9272 Y8.7739
G01 X9.8608 Y8.8231
G01 X9.7899 Y8.8656
G01 X9.7152 Y8.9009
G01 X9.6374 Y8.9287
G01 X9.5573 Y8.9488
G01 X9.4755 Y8.9609
G01 X9.3930 Y8.9650
G01 X9.3105 Y8.9609
G01 X9.2287 Y8.9488
G01 X9.1486 Y8.9287
G01 X9.0708 Y8.9009
G01 X8.9961 Y8.8656
G01 X8.9252 Y8.8231
G01 X8.8588 Y8.7739
G01 X8.7976 Y8.7184
G01 X8.7421 Y8.6572
G01 X8.6929 Y8.5908
G01 X8.6504 Y8.5199
G01 X8.6151 Y8.4452
G01 X8.5873 Y8.3674
G01 X8.5672 Y8.2873
G01 X8.5551 Y8.2055
G01 X8.5511 Y8.1269
G00 Z1.0000
G00 X9.4245 Y7.1831
G01 F25.00
G01 Z-0.1120
G01 F120.00
G01 X9.2988 Y7.1873
G01 X9.1749 Y7.2079
G01 X9.0551 Y7.2453
G01 X8.9408 Y7.2982
G01 X8.8350 Y7.3656
G01 X8.7391 Y7.4465
G01 X8.6548 Y7.5402
G01 X8.5836 Y7.6437
G01 X8.5270 Y7.7555
G01 X8.4858 Y7.8745
G01 X8.4605 Y7.9976
G01 X8.4521 Y8.1230
G01 X8.4605 Y8.2484
G01 X8.4858 Y8.3715
G01 X8.5270 Y8.4905
G01 X8.5836 Y8.6023
G01 X8.6548 Y8.7058
G01 X8.7391 Y8.7995
G01 X8.8350 Y8.8803
G01 X8.9408 Y8.9477
G01 X9.0551 Y9.0007
G01 X9.1749 Y9.0381
G01 X9.2988 Y9.0587
G01 X9.4245 Y9.0629
G01 X9.5494 Y9.0508
G01 X9.6715 Y9.0213
G01 X9.7891 Y8.9763
G01 X9.8990 Y8.9160
G01 X10.0001 Y8.8416
G01 X10.0905 Y8.7540
G01 X10.1687 Y8.6552
G01 X10.2328 Y8.5471
G01 X10.2814 Y8.4316
G01 X10.3147 Y8.3102
G01 X10.3315 Y8.1857
G01 X10.3315 Y8.0603
G01 X10.3147 Y7.9358
G01 X10.2814 Y7.8144
G01 X10.2328 Y7.6988
G01 X10.1687 Y7.5908
G01 X10.0905 Y7.4920
G01 X10.0001 Y7.4044
G01 X9.8990 Y7.3300
G01 X9.7891 Y7.2697
G01 X9.6715 Y7.2247
G01 X9.5494 Y7.1952
G01 X9.4245 Y7.1831
G00 Z1.0000
G00 X12.2471 Y7.3421
G01 F25.00
G01 Z-0.1120
G01 F120.00
G01 X16.0176 Y3.5716
G01 X16.0416 Y3.5498
G01 X16.0644 Y3.5328
G01 X16.0709 Y3.5284
G01 X16.0972 Y3.5129
G01 X16.1089 Y3.4810
G01 X16.1425 Y3.4098
G01 X16.1870 Y3.3356
G01 X16.2351 Y3.2708
G01 X16.2879 Y3.2125
G01 X16.2935 Y3.2069
G01 X16.3534 Y3.1529
G01 X16.4182 Y3.1049
G01 X16.4891 Y3.0624
G01 X16.5638 Y3.0271
G01 X16.6416 Y2.9993
G01 X16.7217 Y2.9792
G01 X16.8035 Y2.9671
G01 X16.8860 Y2.9630
G01 X16.9685 Y2.9671
G01 X17.0503 Y2.9792
G01 X17.1304 Y2.9993
G01 X17.2082 Y3.0271
G01 X17.2829 Y3.0624
G01 X17.3538 Y3.1049
G01 X17.4202 Y3.1541
G01 X17.4814 Y3.2096
G01 X17.5381 Y3.2724
G01 X17.5861 Y3.3372
G01 X17.6286 Y3.4081
G01 X17.6639 Y3.4828
G01 X17.6917 Y3.5606
G01 X17.7118 Y3.6407
G01 X17.7239 Y3.7225
G01 X17.7280 Y3.8050
G01 X17.7242 Y3.8836
G01 X17.7235 Y3.8914
G01 X17.7125 Y3.9654
G01 X17.7110 Y3.9731
G01 X17.6917 Y4.0494
G01 X17.6653 Y4.1236
G01 X17.6623 Y4.1308
G01 X17.6286 Y4.2019
G01 X17.5861 Y4.2728
G01 X17.5369 Y4.3392
G01 X17.4800 Y4.4018
G01 X17.4202 Y4.4559
G01 X17.3570 Y4.5028
G01 X17.3505 Y4.5072
G01 X17.2829 Y4.5476
G01 X17.2118 Y4.5813
G01 X17.2046 Y4.5843
G01 X17.1341 Y4.6095
G01 X17.1266 Y4.6118
G01 X17.0503 Y4.6308
G01 X16.9685 Y4.6429
G01 X16.8860 Y4.6470
G01 X16.8054 Y4.6431
G01 X16.7217 Y4.6308
G01 X16.6416 Y4.6107
G01 X16.5638 Y4.5829
G01 X16.4874 Y4.5466
G01 X16.4182 Y4.5051
G01 X16.3503 Y4.4546
G01 X16.2892 Y4.3990
G01 X16.2364 Y4.3407
G01 X16.2132 Y4.3097
G01 X12.7139 Y7.8089
G01 X12.7387 Y7.8786
G01 X12.7580 Y7.9549
G01 X12.7595 Y7.9626
G01 X12.7709 Y8.0405
G01 X12.7750 Y8.1230
G01 X12.7712 Y8.2016
G01 X12.7705 Y8.2094
G01 X12.7588 Y8.2873
G01 X12.7387 Y8.3674
G01 X12.7123 Y8.4416
G01 X12.7093 Y8.4488
G01 X12.6756 Y8.5199
G01 X12.6352 Y8.5875
G01 X12.6308 Y8.5940
G01 X12.5839 Y8.6572
G01 X12.5284 Y8.7184
G01 X12.4701 Y8.7713
G01 X12.4641 Y8.7763
G01 X12.4008 Y8.8231
G01 X12.3299 Y8.8656
G01 X12.2588 Y8.8993
G01 X12.2516 Y8.9023
G01 X12.1774 Y8.9287
G01 X12.0973 Y8.9488
G01 X12.0194 Y8.9605
G01 X12.0116 Y8.9612
G01 X11.9330 Y8.9650
G01 X11.8505 Y8.9609
G01 X11.7726 Y8.9495
G01 X11.7649 Y8.9480
G01 X11.6886 Y8.9287
G01 X11.6108 Y8.9009
G01 X11.5361 Y8.8656
G01 X11.4652 Y8.8231
G01 X11.3988 Y8.7739
G01 X11.3376 Y8.7184
G01 X11.2821 Y8.6572
G01 X11.2329 Y8.5908
G01 X11.1904 Y8.5199
G01 X11.1551 Y8.4452
G01 X11.1273 Y8.3674
G01 X11.1072 Y8.2873
G01 X11.0951 Y8.2055
G01 X11.0910 Y8.1230
G01 X11.0951 Y8.0405
G01 X11.1072 Y7.9587
G01 X11.1273 Y7.8786
G01 X11.1551 Y7.8008
G01 X11.1904 Y7.7261
G01 X11.2329 Y7.6552
G01 X11.2821 Y7.5888
G01 X11.3376 Y7.5276
G01 X11.3988 Y7.4721
G01 X11.4652 Y7.4229
G01 X11.5361 Y7.3804
G01 X11.6108 Y7.3451
G01 X11.6886 Y7.3173
G01 X11.7687 Y7.2972
G01 X11.8505 Y7.2851
G01 X11.9330 Y7.2810
G01 X12.0155 Y7.2851
G01 X12.0973 Y7.2972
G01 X12.1774 Y7.3173
G01 X12.2471 Y7.3421
G00 Z1.0000
G00 X13.0215 Y8.7405
G01 F25.00
G01 Z-0.1120
G01 F120.00
G01 X12.5542 Y9.2078
G01 X12.5554 Y9.1969
G01 X12.5558 Y9.1874
G01 X12.5555 Y9.1760
G01 X12.5547 Y9.1665
G01 X12.5529 Y9.1552
G01 X12.5451 Y9.1156
G01 X12.5415 Y9.1009
G01 X12.5361 Y9.0857
G01 X12.5329 Y9.0783
G01 X12.5283 Y9.0693
G01 X12.5231 Y9.0607
G01 X12.4996 Y9.0244
G01 X12.4940 Y9.0165
G01 X12.4879 Y9.0090
G01 X12.4813 Y9.0018
G01 X12.4729 Y8.9938
G01 X12.4608 Y8.9841
G01 X12.4257 Y8.9595
G01 X12.4124 Y8.9513
G01 X12.3984 Y8.9444
G01 X12.3838 Y8.9389
G01 X12.3696 Y8.9351
G01 X12.4444 Y8.8902
G01 X12.5117 Y8.8405
G01 X12.5239 Y8.8306
G01 X12.5856 Y8.7743
G01 X12.6451 Y8.7087
G01 X12.6951 Y8.6417
G01 X12.7038 Y8.6286
G01 X12.7464 Y8.5571
G01 X12.7679 Y8.6091
G01 X12.7754 Y8.6232
G01 X12.7843 Y8.6363
G01 X12.7931 Y8.6471
G01 X12.8028 Y8.6571
G01 X12.8397 Y8.6906
G01 X12.8474 Y8.6969
G01 X12.8554 Y8.7027
G01 X12.8708 Y8.7118
G01 X12.8870 Y8.7192
G01 X12.9386 Y8.7362
G01 X12.9522 Y8.7399
G01 X12.9680 Y8.7426
G01 X12.9781 Y8.7435
G01 X12.9861 Y8.7437
G01 X13.0022 Y8.7430
G01 X13.0215 Y8.7405
G01 X12.5233 Y8.9316
G01 X12.5606 Y8.9039
G01 X12.5717 Y8.8950
G01 X12.6330 Y8.8396
G01 X12.6422 Y8.8308
G01 X12.7050 Y8.7617
G01 X12.7139 Y8.7506
G01 X12.7433 Y8.7109
G01 X12.7867 Y8.7505
G01 X12.8038 Y8.7641
G01 X12.8161 Y8.7725
G01 X12.8289 Y8.7801
G01 X12.8421 Y8.7869
G01 X12.8559 Y8.7929
G01 X12.6050 Y9.0438
G01 X12.5995 Y9.0329
G01 X12.5925 Y9.0207
G01 X12.5682 Y8.9830
G01 X12.5608 Y8.9722
G01 X12.5525 Y8.9615
G01 X12.5429 Y8.9505
G01 X12.5327 Y8.9402
G01 X12.5233 Y8.9316
G00 Z1.0000
G00 X16.2321 Y8.4371
G01 F25.00
G01 Z-0.1120
G01 F120.00
G01 X16.2073 Y8.3674
G01 X16.1872 Y8.2873
G01 X16.1751 Y8.2055
G01 X16.1710 Y8.1230
G01 X16.1751 Y8.0405
G01 X16.1872 Y7.9587
G01 X16.2073 Y7.8786
G01 X16.2351 Y7.8008
G01 X16.2704 Y7.7261
G01 X16.3129 Y7.6552
G01 X16.3621 Y7.5888
G01 X16.4176 Y7.5276
G01 X16.4788 Y7.4721
G01 X16.5452 Y7.4229
G01 X16.6161 Y7.3804
G01 X16.6908 Y7.3451
G01 X16.7686 Y7.3173
G01 X16.8487 Y7.2972
G01 X16.9305 Y7.2851
G01 X17.0130 Y7.2810
G01 X17.0955 Y7.2851
G01 X17.1773 Y7.2972
G01 X17.2574 Y7.3173
G01 X17.3352 Y7.3451
G01 X17.4099 Y7.3804
G01 X17.4808 Y7.4229
G01 X17.5472 Y7.4721
G01 X17.6084 Y7.5276
G01 X17.6639 Y7.5888
G01 X17.7131 Y7.6552
G01 X17.7556 Y7.7261
G01 X17.7909 Y7.8008
G01 X17.8187 Y7.8786
G01 X17.8380 Y7.9549
G01 X17.8395 Y7.9626
G01 X17.8509 Y8.0405
G01 X17.8550 Y8.1230
G01 X17.8512 Y8.2016
G01 X17.8505 Y8.2094
G01 X17.8388 Y8.2873
G01 X17.8187 Y8.3674
G01 X17.7923 Y8.4416
G01 X17.7893 Y8.4488
G01 X17.7556 Y8.5199
G01 X17.7152 Y8.5875
G01 X17.7108 Y8.5940
G01 X17.6639 Y8.6572
G01 X17.6084 Y8.7184
G01 X17.5501 Y8.7713
G01 X17.5441 Y8.7763
G01 X17.4808 Y8.8231
G01 X17.4099 Y8.8656
G01 X17.3388 Y8.8993
G01 X17.3316 Y8.9023
G01 X17.2574 Y8.9287
G01 X17.1773 Y8.9488
G01 X17.0994 Y8.9605
G01 X17.0916 Y8.9612
G01 X17.0130 Y8.9650
G01 X16.9305 Y8.9609
G01 X16.8526 Y8.9495
G01 X16.8449 Y8.9480
G01 X16.7686 Y8.9287
G01 X16.6989 Y8.9039
G01 X8.7974 Y16.8055
G01 X8.7718 Y16.8285
G01 X8.7474 Y16.8465
G01 X8.7196 Y16.8632
G01 X8.6903 Y16.8770
G01 X8.6635 Y16.8867
G01 X8.6560 Y16.8890
G01 X8.6322 Y16.8950
G01 X8.6245 Y16.8965
G01 X8.5963 Y16.9006
G01 X8.5659 Y16.9022
G01 X5.1815 Y16.9022
G01 X5.1722 Y16.9279
G01 X5.1609 Y16.9521
G01 X6.6697 Y18.4609
G01 X27.6713 Y18.4609
G01 X28.4939 Y17.6383
G01 X28.4939 Y11.1147
G01 X27.5530 Y10.1738
G01 X27.5271 Y10.1859
G01 X27.4411 Y10.2164
G01 X27.3544 Y10.2381
G01 X27.2622 Y10.2516
G01 X27.1730 Y10.2559
G01 X27.0818 Y10.2515
G01 X26.9916 Y10.2381
G01 X26.9012 Y10.2153
G01 X26.8171 Y10.1851
G01 X26.7346 Y10.1461
G01 X26.6563 Y10.0992
G01 X26.5830 Y10.0448
G01 X26.5154 Y9.9835
G01 X26.4541 Y9.9159
G01 X26.3997 Y9.8426
G01 X26.3547 Y9.7678
G01 X26.3510 Y9.7608
G01 X26.3154 Y9.6854
G01 X26.3124 Y9.6782
G01 X26.2830 Y9.5959
G01 X26.2617 Y9.5112
G01 X26.2602 Y9.5035
G01 X26.2475 Y9.4171
G01 X26.2431 Y9.3299
G01 X26.2431 Y9.3220
G01 X26.2475 Y9.2348
G01 X26.2602 Y9.1484
G01 X26.2617 Y9.1407
G01 X26.2830 Y9.0560
G01 X26.3124 Y8.9737
G01 X26.3154 Y8.9665
G01 X26.3528 Y8.8875
G01 X26.3976 Y8.8126
G01 X26.4020 Y8.8060
G01 X26.4541 Y8.7360
G01 X26.5127 Y8.6712
G01 X26.5182 Y8.6656
G01 X26.5830 Y8.6070
G01 X26.6531 Y8.5549
G01 X26.6596 Y8.5506
G01 X26.7346 Y8.5058
G01 X26.8135 Y8.4683
G01 X26.8208 Y8.4653
G01 X26.9030 Y8.4360
G01 X26.9877 Y8.4147
G01 X26.9954 Y8.4131
G01 X27.0818 Y8.4004
G01 X27.1691 Y8.3960
G01 X27.1769 Y8.3960
G01 X27.2642 Y8.4004
G01 X27.3506 Y8.4131
G01 X27.3583 Y8.4147
G01 X27.4430 Y8.4360
G01 X27.5252 Y8.4653
G01 X27.5325 Y8.4683
G01 X27.6079 Y8.5040
G01 X27.6148 Y8.5077
G01 X27.6897 Y8.5527
G01 X27.7630 Y8.6070
G01 X27.8306 Y8.6683
G01 X27.8931 Y8.7375
G01 X27.9463 Y8.8093
G01 X27.9913 Y8.8841
G01 X27.9950 Y8.8910
G01 X28.0322 Y8.9700
G01 X28.0617 Y9.0522
G01 X28.0640 Y9.0598
G01 X28.0851 Y9.1445
G01 X28.0983 Y9.2328
G01 X28.1029 Y9.3220
G01 X28.1029 Y9.3299
G01 X28.0985 Y9.4171
G01 X28.0855 Y9.5054
G01 X28.0624 Y9.5978
G01 X28.0329 Y9.6800
G01 X28.0203 Y9.7073
G01 X29.0588 Y10.7459
G01 X29.0792 Y10.7685
G01 X29.0962 Y10.7913
G01 X29.1006 Y10.7979
G01 X29.1151 Y10.8223
G01 X29.1274 Y10.8480
G01 X29.1304 Y10.8553
G01 X29.1399 Y10.8821
G01 X29.1478 Y10.9135
G01 X29.1525 Y10.9456
G01 X29.1541 Y10.9780
G01 X29.1541 Y17.7750
G01 X29.1528 Y17.8034
G01 X29.1521 Y17.8113
G01 X29.1478 Y17.8394
G01 X29.1399 Y17.8708
G01 X29.1290 Y17.9013
G01 X29.1169 Y17.9271
G01 X29.1132 Y17.9340
G01 X29.1006 Y17.9551
G01 X29.0962 Y17.9616
G01 X29.0792 Y17.9844
G01 X29.0574 Y18.0084
G01 X28.0386 Y19.0271
G01 X28.0174 Y19.0462
G01 X27.9914 Y19.0655
G01 X27.9636 Y19.0821
G01 X27.9379 Y19.0944
G01 X27.9307 Y19.0974
G01 X27.9038 Y19.1069
G01 X27.8762 Y19.1139
G01 X27.8685 Y19.1155
G01 X27.8443 Y19.1191
G01 X27.8364 Y19.1198
G01 X27.8080 Y19.1211
G01 X6.5310 Y19.1211
G01 X6.5006 Y19.1195
G01 X6.4686 Y19.1148
G01 X6.4371 Y19.1069
G01 X6.4066 Y19.0960
G01 X6.3773 Y19.0821
G01 X6.3496 Y19.0655
G01 X6.3235 Y19.0462
G01 X6.3024 Y19.0271
G01 X4.6944 Y17.4193
G01 X4.6671 Y17.4320
G01 X4.5811 Y17.4626
G01 X4.4944 Y17.4842
G01 X4.4022 Y17.4977
G01 X4.3130 Y17.5020
G01 X4.2218 Y17.4976
G01 X4.1316 Y17.4842
G01 X4.0449 Y17.4626
G01 X3.9571 Y17.4313
G01 X3.8781 Y17.3940
G01 X3.8712 Y17.3903
G01 X3.7996 Y17.3474
G01 X3.7931 Y17.3431
G01 X3.7230 Y17.2909
G01 X3.6554 Y17.2297
G01 X3.5941 Y17.1620
G01 X3.5397 Y17.0887
G01 X3.4947 Y17.0139
G01 X3.4910 Y17.0069
G01 X3.4538 Y16.9279
G01 X3.4243 Y16.8457
G01 X3.4220 Y16.8382
G01 X3.4009 Y16.7535
G01 X3.3875 Y16.6632
G01 X3.3830 Y16.5721
G01 X3.3872 Y16.4848
G01 X3.3880 Y16.4770
G01 X3.4009 Y16.3906
G01 X3.4220 Y16.3059
G01 X3.4243 Y16.2984
G01 X3.4538 Y16.2162
G01 X3.4928 Y16.1337
G01 X3.5376 Y16.0587
G01 X3.5420 Y16.0522
G01 X3.5941 Y15.9821
G01 X3.6527 Y15.9173
G01 X3.6582 Y15.9117
G01 X3.7230 Y15.8532
G01 X3.7931 Y15.8010
G01 X3.7996 Y15.7967
G01 X3.8746 Y15.7519
G01 X3.9535 Y15.7144
G01 X3.9608 Y15.7114
G01 X4.0430 Y15.6821
G01 X4.1335 Y15.6596
G01 X4.2218 Y15.6465
G01 X4.3130 Y15.6421
G01 X4.4042 Y15.6465
G01 X4.4906 Y15.6592
G01 X4.4983 Y15.6608
G01 X4.5792 Y15.6810
G01 X4.5867 Y15.6833
G01 X4.6689 Y15.7128
G01 X4.7531 Y15.7528
G01 X4.8297 Y15.7988
G01 X4.9030 Y15.8532
G01 X4.9706 Y15.9144
G01 X5.0306 Y15.9806
G01 X5.0863 Y16.0554
G01 X5.1322 Y16.1319
G01 X5.1714 Y16.2143
G01 X5.1815 Y16.2419
G01 X8.4272 Y16.2419
G01 X16.2321 Y8.4371
G00 Z1.0000
G00 X18.7747 Y8.6475
G01 F25.00
G01 Z-0.1120
G01 F120.00
G01 X18.8148 Y8.7058
G01 X18.8991 Y8.7995
G01 X18.9950 Y8.8803
G01 X19.0285 Y8.9017
G01 X19.0285 Y8.7812
G01 X19.0159 Y8.7713
G01 X18.9576 Y8.7184
G01 X18.9047 Y8.6601
G01 X18.8948 Y8.6475
G01 X18.7747 Y8.6475
G00 Z1.0000
G00 X18.7747 Y7.5985
G01 F25.00
G01 Z-0.1120
G01 F120.00
G01 X18.8948 Y7.5985
G01 X18.9047 Y7.5859
G01 X18.9576 Y7.5276
G01 X19.0159 Y7.4747
G01 X19.0285 Y7.4648
G01 X19.0285 Y7.3443
G01 X18.9950 Y7.3656
G01 X18.8991 Y7.4465
G01 X18.8148 Y7.5402
G01 X18.7747 Y7.5985
G00 Z1.0000
G00 X20.0775 Y7.3436
G01 F25.00
G01 Z-0.1120
G01 F120.00
G01 X20.0775 Y7.4648
G01 X20.0901 Y7.4747
G01 X20.1484 Y7.5276
G01 X20.2013 Y7.5859
G01 X20.2112 Y7.5985
G01 X20.3332 Y7.5985
G01 X20.3287 Y7.5908
G01 X20.2505 Y7.4920
G01 X20.1601 Y7.4044
G01 X20.0775 Y7.3436
G00 Z1.0000
G00 X20.0775 Y8.9024
G01 F25.00
G01 Z-0.1120
G01 F120.00
G01 X20.1601 Y8.8416
G01 X20.2505 Y8.7540
G01 X20.3287 Y8.6552
G01 X20.3332 Y8.6475
G01 X20.2112 Y8.6475
G01 X20.2013 Y8.6601
G01 X20.1484 Y8.7184
G01 X20.0901 Y8.7713
G01 X20.0775 Y8.7812
G01 X20.0775 Y8.9024
G00 Z1.0000
G00 X21.7629 Y7.3487
G01 F25.00
G01 Z-0.1120
G01 F120.00
G01 X21.7629 Y3.8147
G01 X19.2893 Y1.3411
G01 X9.0217 Y1.3411
G01 X2.4841 Y7.8787
G01 X2.4841 Y9.2766
G01 X3.9321 Y10.7246
G01 X3.9589 Y10.7121
G01 X4.0449 Y10.6816
G01 X4.1316 Y10.6599
G01 X4.2199 Y10.6468
G01 X4.3130 Y10.6421
G01 X4.4002 Y10.6462
G01 X4.4081 Y10.6470
G01 X4.4964 Y10.6603
G01 X4.5830 Y10.6821
G01 X4.6689 Y10.7129
G01 X4.7514 Y10.7519
G01 X4.8264 Y10.7967
G01 X4.8329 Y10.8011
G01 X4.8999 Y10.8507
G01 X4.9060 Y10.8557
G01 X4.9706 Y10.9145
G01 X5.0306 Y10.9806
G01 X5.0863 Y11.0554
G01 X5.1313 Y11.1302
G01 X5.1350 Y11.1372
G01 X5.1706 Y11.2126
G01 X5.1736 Y11.2198
G01 X5.2030 Y11.3021
G01 X5.2251 Y11.3906
G01 X5.2385 Y11.4809
G01 X5.2430 Y11.5721
G01 X5.2385 Y11.6632
G01 X5.2251 Y11.7535
G01 X5.2030 Y11.8420
G01 X5.1736 Y11.9243
G01 X5.1706 Y11.9315
G01 X5.1350 Y12.0070
G01 X5.1313 Y12.0139
G01 X5.0863 Y12.0887
G01 X5.0343 Y12.1590
G01 X5.0293 Y12.1650
G01 X4.9706 Y12.2297
G01 X4.9030 Y12.2910
G01 X4.8297 Y12.3453
G01 X4.7514 Y12.3922
G01 X4.6689 Y12.4313
G01 X4.5830 Y12.4620
G01 X4.4944 Y12.4842
G01 X4.4042 Y12.4976
G01 X4.3130 Y12.5021
G01 X4.2218 Y12.4976
G01 X4.1316 Y12.4842
G01 X4.0430 Y12.4620
G01 X3.9571 Y12.4313
G01 X3.8746 Y12.3922
G01 X3.7963 Y12.3453
G01 X3.7215 Y12.2897
G01 X3.6554 Y12.2297
G01 X3.5941 Y12.1620
G01 X3.5397 Y12.0887
G01 X3.4947 Y12.0139
G01 X3.4910 Y12.0070
G01 X3.4554 Y11.9315
G01 X3.4524 Y11.9243
G01 X3.4230 Y11.8420
G01 X3.4013 Y11.7554
G01 X3.3875 Y11.6632
G01 X3.3831 Y11.5760
G01 X3.3831 Y11.5681
G01 X3.3877 Y11.4790
G01 X3.4009 Y11.3906
G01 X3.4225 Y11.3040
G01 X3.4531 Y11.2180
G01 X3.4653 Y11.1915
G01 X1.9192 Y9.6453
G01 X1.8988 Y9.6227
G01 X1.8795 Y9.5967
G01 X1.8629 Y9.5689
G01 X1.8506 Y9.5432
G01 X1.8476 Y9.5360
G01 X1.8393 Y9.5129
G01 X1.8370 Y9.5054
G01 X1.8302 Y9.4777
G01 X1.8255 Y9.4457
G01 X1.8239 Y9.4133
G01 X1.8240 Y7.7381
G01 X1.8255 Y7.7096
G01 X1.8302 Y7.6776
G01 X1.8381 Y7.6462
G01 X1.8476 Y7.6193
G01 X1.8506 Y7.6121
G01 X1.8611 Y7.5899
G01 X1.8648 Y7.5830
G01 X1.8795 Y7.5586
G01 X1.8976 Y7.5341
G01 X1.9206 Y7.5086
G01 X8.6516 Y0.7776
G01 X8.6756 Y0.7558
G01 X8.6984 Y0.7388
G01 X8.7049 Y0.7344
G01 X8.7311 Y0.7190
G01 X8.7551 Y0.7076
G01 X8.7623 Y0.7046
G01 X8.7892 Y0.6951
G01 X8.8168 Y0.6881
G01 X8.8245 Y0.6865
G01 X8.8526 Y0.6825
G01 X8.8850 Y0.6809
G01 X19.4260 Y0.6809
G01 X19.4584 Y0.6825
G01 X19.4923 Y0.6876
G01 X19.5218 Y0.6951
G01 X19.5487 Y0.7046
G01 X19.5559 Y0.7076
G01 X19.5816 Y0.7199
G01 X19.6094 Y0.7365
G01 X19.6323 Y0.7534
G01 X19.6384 Y0.7584
G01 X19.6594 Y0.7776
G01 X22.3264 Y3.4446
G01 X22.3456 Y3.4656
G01 X22.3506 Y3.4717
G01 X22.3675 Y3.4946
G01 X22.3822 Y3.5190
G01 X22.3859 Y3.5259
G01 X22.3980 Y3.5517
G01 X22.4095 Y3.5841
G01 X22.4168 Y3.6136
G01 X22.4211 Y3.6417
G01 X22.4218 Y3.6496
G01 X22.4231 Y3.6780
G01 X22.4231 Y7.3487
G01 X22.4899 Y7.3804
G01 X22.5575 Y7.4208
G01 X22.5640 Y7.4252
G01 X22.6272 Y7.4721
G01 X22.6884 Y7.5276
G01 X22.7413 Y7.5859
G01 X22.7463 Y7.5919
G01 X22.7931 Y7.6552
G01 X22.8336 Y7.7227
G01 X22.8373 Y7.7296
G01 X22.8709 Y7.8008
G01 X22.8987 Y7.8786
G01 X22.9180 Y7.9549
G01 X22.9195 Y7.9626
G01 X22.9309 Y8.0405
G01 X22.9350 Y8.1230
G01 X22.9312 Y8.2016
G01 X22.9305 Y8.2094
G01 X22.9188 Y8.2873
G01 X22.8987 Y8.3674
G01 X22.8723 Y8.4416
G01 X22.8693 Y8.4488
G01 X22.8356 Y8.5199
G01 X22.7931 Y8.5908
G01 X22.7463 Y8.6541
G01 X22.7413 Y8.6601
G01 X22.6884 Y8.7184
G01 X22.6272 Y8.7739
G01 X22.5640 Y8.8208
G01 X22.5575 Y8.8252
G01 X22.4899 Y8.8656
G01 X22.4231 Y8.8973
G01 X22.4231 Y11.6693
G01 X24.7497 Y13.9958
G01 X26.3045 Y13.9958
G01 X26.3146 Y13.9682
G01 X26.3519 Y13.8893
G01 X26.4008 Y13.8076
G01 X26.4517 Y13.7390
G01 X26.4567 Y13.7330
G01 X26.5154 Y13.6683
G01 X26.5815 Y13.6083
G01 X26.6531 Y13.5549
G01 X26.6596 Y13.5506
G01 X26.7346 Y13.5057
G01 X26.8135 Y13.4683
G01 X26.8208 Y13.4653
G01 X26.9030 Y13.4360
G01 X26.9877 Y13.4147
G01 X26.9954 Y13.4131
G01 X27.0818 Y13.4004
G01 X27.1730 Y13.3959
G01 X27.2642 Y13.4004
G01 X27.3544 Y13.4138
G01 X27.4430 Y13.4360
G01 X27.5289 Y13.4667
G01 X27.6114 Y13.5057
G01 X27.6880 Y13.5516
G01 X27.7630 Y13.6070
G01 X27.8278 Y13.6656
G01 X27.8333 Y13.6712
G01 X27.8893 Y13.7330
G01 X27.8943 Y13.7390
G01 X27.9463 Y13.8092
G01 X27.9913 Y13.8841
G01 X27.9950 Y13.8910
G01 X28.0322 Y13.9700
G01 X28.0630 Y14.0560
G01 X28.0851 Y14.1445
G01 X28.0980 Y14.2309
G01 X28.0988 Y14.2387
G01 X28.1030 Y14.3259
G01 X28.0988 Y14.4132
G01 X28.0980 Y14.4210
G01 X28.0858 Y14.5035
G01 X28.0843 Y14.5112
G01 X28.0630 Y14.5959
G01 X28.0322 Y14.6818
G01 X27.9950 Y14.7608
G01 X27.9913 Y14.7677
G01 X27.9463 Y14.8426
G01 X27.8943 Y14.9128
G01 X27.8893 Y14.9189
G01 X27.8306 Y14.9835
G01 X27.7615 Y15.0461
G01 X27.6897 Y15.0992
G01 X27.6114 Y15.1461
G01 X27.5289 Y15.1851
G01 X27.4430 Y15.2159
G01 X27.3544 Y15.2381
G01 X27.2642 Y15.2515
G01 X27.1730 Y15.2559
G01 X27.0799 Y15.2512
G01 X26.9916 Y15.2381
G01 X26.9068 Y15.2169
G01 X26.8993 Y15.2147
G01 X26.8171 Y15.1851
G01 X26.7381 Y15.1479
G01 X26.7312 Y15.1442
G01 X26.6563 Y15.0992
G01 X26.5845 Y15.0461
G01 X26.5182 Y14.9862
G01 X26.5127 Y14.9807
G01 X26.4541 Y14.9159
G01 X26.4008 Y14.8442
G01 X26.3519 Y14.7626
G01 X26.3146 Y14.6836
G01 X26.3045 Y14.6561
G01 X24.6110 Y14.6560
G01 X24.5806 Y14.6545
G01 X24.5524 Y14.6504
G01 X24.5447 Y14.6489
G01 X24.5171 Y14.6418
G01 X24.4903 Y14.6323
G01 X24.4830 Y14.6293
G01 X24.4591 Y14.6180
G01 X24.4328 Y14.6025
G01 X24.4263 Y14.5982
G01 X24.4035 Y14.5811
G01 X24.3795 Y14.5594
G01 X21.8596 Y12.0394
G01 X21.8366 Y12.0139
G01 X21.8185 Y11.9894
G01 X21.8019 Y11.9616
G01 X21.7880 Y11.9323
G01 X21.7783 Y11.9056
G01 X21.7760 Y11.8980
G01 X21.7701 Y11.8742
G01 X21.7685 Y11.8665
G01 X21.7645 Y11.8384
G01 X21.7629 Y11.8080
G01 X21.7629 Y8.8973
G01 X21.6961 Y8.8656
G01 X21.6285 Y8.8252
G01 X21.6220 Y8.8208
G01 X21.5588 Y8.7739
G01 X21.4976 Y8.7184
G01 X21.4447 Y8.6601
G01 X21.4397 Y8.6541
G01 X21.3929 Y8.5908
G01 X21.3504 Y8.5199
G01 X21.3167 Y8.4488
G01 X21.3137 Y8.4416
G01 X21.2873 Y8.3674
G01 X21.2680 Y8.2911
G01 X21.2665 Y8.2834
G01 X21.2551 Y8.2055
G01 X21.2510 Y8.1250
G01 X21.2548 Y8.0444
G01 X21.2555 Y8.0366
G01 X21.2672 Y7.9587
G01 X21.2873 Y7.8786
G01 X21.3137 Y7.8044
G01 X21.3167 Y7.7972
G01 X21.3504 Y7.7261
G01 X21.3929 Y7.6552
G01 X21.4421 Y7.5888
G01 X21.4949 Y7.5305
G01 X21.5005 Y7.5249
G01 X21.5588 Y7.4721
G01 X21.6220 Y7.4252
G01 X21.6285 Y7.4208
G01 X21.6961 Y7.3804
G01 X21.7629 Y7.3487
G00 Z1.0000
G00 X26.4536 Y11.1174
G01 F25.00
G01 Z-0.1120
G01 F120.00
G01 X26.4416 Y11.1176
G01 X26.4289 Y11.1169
G01 X26.4421 Y11.1301
G01 X26.4536 Y11.1174
G00 Z1.0000
G00 X27.9312 Y11.0436
G01 F25.00
G01 Z-0.1120
G01 F120.00
G01 X27.9409 Y11.0526
G01 X27.9505 Y11.0624
G01 X28.0143 Y11.1331
G01 X28.0228 Y11.1439
G01 X28.0788 Y11.2197
G01 X28.0854 Y11.2300
G01 X28.0856 Y11.2304
G01 X28.1285 Y11.3020
G01 X28.1348 Y11.3131
G01 X28.1755 Y11.3986
G01 X28.1829 Y11.4162
G01 X28.2158 Y11.5087
G01 X28.2191 Y11.5205
G01 X28.2398 Y11.6033
G01 X28.2422 Y11.6144
G01 X28.2441 Y11.6250
G01 X28.2565 Y11.7090
G01 X28.2584 Y11.7270
G01 X28.2586 Y11.7310
G01 X28.2627 Y11.8143
G01 X28.2627 Y11.8148
G01 X28.2630 Y11.8270
G01 X28.2579 Y11.9309
G01 X28.2563 Y11.9446
G01 X28.2428 Y12.0349
G01 X28.2398 Y12.0488
G01 X28.2257 Y12.1052
G01 X28.2563 Y12.1062
G01 X28.2697 Y12.1077
G01 X28.2822 Y12.1097
G01 X28.2963 Y12.1129
G01 X28.3094 Y12.1166
G01 X28.3213 Y12.1207
G01 X28.3339 Y12.1258
G01 X28.3339 Y11.1810
G01 X28.0538 Y10.9009
G01 X28.0444 Y10.9199
G01 X28.0334 Y10.9380
G01 X28.0269 Y10.9470
G01 X28.0012 Y10.9812
G01 X27.9915 Y10.9933
G01 X27.9775 Y11.0081
G01 X27.9639 Y11.0205
G01 X27.9478 Y11.0329
G01 X27.9312 Y11.0436
G01 X28.0477 Y11.0504
G01 X28.0708 Y11.0760
G01 X28.0832 Y11.0911
G01 X28.1381 Y11.1650
G01 X28.1506 Y11.1835
G01 X28.1975 Y11.2615
G01 X28.2055 Y11.2758
G01 X28.2116 Y11.2879
G01 X28.2476 Y11.3640
G01 X28.2539 Y11.3782
G01 X28.2539 Y11.2141
G01 X28.0668 Y11.0270
G01 X28.0573 Y11.0393
G01 X28.0477 Y11.0504
G01 X28.4139 Y12.2798
G01 X28.4139 Y11.1478
G01 X28.0016 Y10.7356
G01 X28.0033 Y10.7484
G01 X28.0040 Y10.7599
G01 X28.0039 Y10.7715
G01 X28.0026 Y10.7849
G01 X27.9996 Y10.8010
G01 X27.9898 Y10.8421
G01 X27.9860 Y10.8550
G01 X27.9826 Y10.8641
G01 X27.9787 Y10.8729
G01 X27.9743 Y10.8814
G01 X27.9693 Y10.8897
G01 X27.9628 Y10.8992
G01 X27.9343 Y10.9369
G01 X27.9280 Y10.9442
G01 X27.9199 Y10.9526
G01 X27.9112 Y10.9603
G01 X27.9020 Y10.9673
G01 X27.8889 Y10.9757
G01 X27.8460 Y10.9997
G01 X27.8299 Y11.0068
G01 X27.8132 Y11.0120
G01 X27.7979 Y11.0152
G01 X27.7766 Y11.0175
G01 X27.8083 Y11.0411
G01 X27.8160 Y11.0472
G01 X27.8815 Y11.1065
G01 X27.8892 Y11.1140
G01 X27.9544 Y11.1861
G01 X28.0111 Y11.2625
G01 X28.0170 Y11.2716
G01 X28.0599 Y11.3431
G01 X28.0673 Y11.3570
G01 X28.1065 Y11.4405
G01 X28.1370 Y11.5254
G01 X28.1403 Y11.5357
G01 X28.1634 Y11.6281
G01 X28.1772 Y11.7193
G01 X28.1787 Y11.7349
G01 X28.1828 Y11.8192
G01 X28.1828 Y11.8339
G01 X28.1780 Y11.9260
G01 X28.1634 Y12.0241
G01 X28.1398 Y12.1183
G01 X28.1083 Y12.2071
G01 X28.1308 Y12.1971
G01 X28.1437 Y12.1923
G01 X28.1588 Y12.1882
G01 X28.1762 Y12.1854
G01 X28.1938 Y12.1845
G01 X28.2438 Y12.1856
G01 X28.2592 Y12.1870
G01 X28.2745 Y12.1899
G01 X28.2893 Y12.1942
G01 X28.3037 Y12.1999
G01 X28.3508 Y12.2231
G01 X28.3643 Y12.2310
G01 X28.3770 Y12.2401
G01 X28.3901 Y12.2518
G01 X28.3994 Y12.2618
G01 X28.4139 Y12.2798
G00 Z1.0000
G00 X28.2257 Y14.6050
G01 F25.00
G01 Z-0.1120
G01 F120.00
G01 X28.2563 Y14.6061
G01 X28.2698 Y14.6076
G01 X28.2822 Y14.6096
G01 X28.2964 Y14.6128
G01 X28.3094 Y14.6165
G01 X28.3213 Y14.6206
G01 X28.3339 Y14.6257
G01 X28.3339 Y14.0308
G01 X28.3211 Y14.0357
G01 X28.3088 Y14.0397
G01 X28.2973 Y14.0428
G01 X28.2836 Y14.0457
G01 X28.2718 Y14.0475
G01 X28.2599 Y14.0488
G01 X28.2266 Y14.0505
G01 X28.2396 Y14.1023
G01 X28.2424 Y14.1152
G01 X28.2568 Y14.2113
G01 X28.2585 Y14.2294
G01 X28.2629 Y14.3181
G01 X28.2627 Y14.3372
G01 X28.2578 Y14.4318
G01 X28.2563 Y14.4445
G01 X28.2428 Y14.5347
G01 X28.2398 Y14.5486
G01 X28.2257 Y14.6050
G01 X28.1082 Y14.7072
G01 X28.1312 Y14.6968
G01 X28.1444 Y14.6919
G01 X28.1599 Y14.6878
G01 X28.1757 Y14.6853
G01 X28.1857 Y14.6845
G01 X28.1938 Y14.6843
G01 X28.2439 Y14.6855
G01 X28.2593 Y14.6869
G01 X28.2745 Y14.6898
G01 X28.2893 Y14.6941
G01 X28.3037 Y14.6998
G01 X28.3508 Y14.7230
G01 X28.3643 Y14.7308
G01 X28.3770 Y14.7400
G01 X28.3901 Y14.7516
G01 X28.3994 Y14.7617
G01 X28.4139 Y14.7797
G01 X28.4139 Y13.8761
G01 X28.4033 Y13.8900
G01 X28.3930 Y13.9014
G01 X28.3816 Y13.9118
G01 X28.3678 Y13.9221
G01 X28.3562 Y13.9291
G01 X28.3106 Y13.9535
G01 X28.2940 Y13.9604
G01 X28.2788 Y13.9650
G01 X28.2651 Y13.9677
G01 X28.2512 Y13.9692
G01 X28.2016 Y13.9715
G01 X28.1918 Y13.9715
G01 X28.1821 Y13.9709
G01 X28.1666 Y13.9686
G01 X28.1514 Y13.9649
G01 X28.1402 Y13.9611
G01 X28.1099 Y13.9494
G01 X28.1398 Y14.0337
G01 X28.1638 Y14.1299
G01 X28.1782 Y14.2279
G01 X28.1830 Y14.3269
G01 X28.1780 Y14.4259
G01 X28.1638 Y14.5220
G01 X28.1398 Y14.6182
G01 X28.1082 Y14.7072
G00 Z1.0000
G00 X28.0287 Y16.2574
G01 F25.00
G01 Z-0.1120
G01 F120.00
G01 X28.0166 Y16.2374
G01 X27.9346 Y16.1342
G01 X27.8399 Y16.0429
G01 X27.7417 Y15.9696
G01 X27.7417 Y16.0912
G01 X27.7645 Y16.1084
G01 X27.8306 Y16.1684
G01 X27.8906 Y16.2346
G01 X27.9078 Y16.2574
G01 X28.0287 Y16.2574
G00 Z1.0000
G00 X28.0278 Y17.3947
G01 F25.00
G01 Z-0.1120
G01 F120.00
G01 X27.9078 Y17.3947
G01 X27.8906 Y17.4175
G01 X27.8306 Y17.4837
G01 X27.7645 Y17.5437
G01 X27.7417 Y17.5609
G01 X27.7417 Y17.6808
G01 X27.7885 Y17.6503
G01 X27.8889 Y17.5650
G01 X27.9774 Y17.4676
G01 X28.0278 Y17.3947
G00 Z1.0000
G00 X26.3180 Y17.3947
G01 F25.00
G01 Z-0.1120
G01 F120.00
G01 X26.3686 Y17.4675
G01 X26.4571 Y17.5650
G01 X26.5575 Y17.6503
G01 X26.6043 Y17.6808
G01 X26.6043 Y17.5609
G01 X26.5815 Y17.5437
G01 X26.5154 Y17.4837
G01 X26.4554 Y17.4175
G01 X26.4382 Y17.3947
G01 X26.3180 Y17.3947
G00 Z1.0000
G00 X26.3173 Y16.2574
G01 F25.00
G01 Z-0.1120
G01 F120.00
G01 X26.4382 Y16.2574
G01 X26.4554 Y16.2346
G01 X26.5154 Y16.1684
G01 X26.5815 Y16.1084
G01 X26.6043 Y16.0912
G01 X26.6043 Y15.9696
G01 X26.5061 Y16.0429
G01 X26.4114 Y16.1342
G01 X26.3295 Y16.2374
G01 X26.3173 Y16.2574
G00 Z1.0000
G00 X31.1318 Y18.7412
G01 F25.00
G01 Z-0.1120
G01 F120.00
G01 X31.1458 Y18.7352
G01 X31.1874 Y18.7196
G01 X31.1989 Y18.7158
G01 X31.1989 Y10.2302
G01 X31.1874 Y10.2264
G01 X31.1458 Y10.2108
G01 X31.1318 Y10.2048
G01 X31.1372 Y10.2428
G01 X31.1391 Y10.2820
G01 X31.1391 Y18.6640
G01 X31.1372 Y18.7032
G01 X31.1318 Y18.7412
G00 Z1.0000
G00 X28.8240 Y22.9463
G01 F25.00
G01 Z-0.1120
G01 F120.00
G01 X28.6818 Y22.9549
G01 X28.5419 Y22.9806
G01 X28.4059 Y23.0229
G01 X28.2761 Y23.0814
G01 X28.1543 Y23.1551
G01 X28.0425 Y23.2426
G01 X27.9417 Y23.3435
G01 X27.8541 Y23.4553
G01 X27.7804 Y23.5771
G01 X27.7219 Y23.7069
G01 X27.6796 Y23.8429
G01 X27.6539 Y23.9828
G01 X27.6453 Y24.1250
G01 X27.6539 Y24.2672
G01 X27.6796 Y24.4071
G01 X27.7219 Y24.5431
G01 X27.7804 Y24.6729
G01 X27.8541 Y24.7947
G01 X27.9417 Y24.9065
G01 X28.0425 Y25.0073
G01 X28.1543 Y25.0949
G01 X28.2761 Y25.1686
G01 X28.4059 Y25.2271
G01 X28.5419 Y25.2694
G01 X28.6818 Y25.2951
G01 X28.8240 Y25.3037
G01 X28.9662 Y25.2951
G01 X29.1061 Y25.2694
G01 X29.2421 Y25.2271
G01 X29.3719 Y25.1686
G01 X29.4937 Y25.0949
G01 X29.6055 Y25.0073
G01 X29.7063 Y24.9065
G01 X29.7939 Y24.7947
G01 X29.8676 Y24.6729
G01 X29.9261 Y24.5431
G01 X29.9684 Y24.4071
G01 X29.9941 Y24.2672
G01 X30.0027 Y24.1250
G01 X29.9941 Y23.9828
G01 X29.9684 Y23.8429
G01 X29.9261 Y23.7069
G01 X29.8676 Y23.5771
G01 X29.7939 Y23.4553
G01 X29.7063 Y23.3435
G01 X29.6055 Y23.2426
G01 X29.4937 Y23.1551
G01 X29.3719 Y23.0814
G01 X29.2421 Y23.0229
G01 X29.1061 Y22.9806
G01 X28.9662 Y22.9549
G01 X28.8240 Y22.9463
G00 Z1.0000
G00 X27.7441 Y24.1289
G01 F25.00
G01 Z-0.1120
G01 F120.00
G01 X27.7441 Y24.1211
G01 X27.7492 Y24.0191
G01 X27.7648 Y23.9143
G01 X27.7905 Y23.8115
G01 X27.8262 Y23.7117
G01 X27.8715 Y23.6159
G01 X27.9260 Y23.5250
G01 X27.9891 Y23.4399
G01 X28.0603 Y23.3613
G01 X28.1389 Y23.2901
G01 X28.2240 Y23.2270
G01 X28.3149 Y23.1725
G01 X28.4107 Y23.1272
G01 X28.5105 Y23.0915
G01 X28.6133 Y23.0658
G01 X28.7181 Y23.0502
G01 X28.8240 Y23.0450
G01 X28.9299 Y23.0502
G01 X29.0347 Y23.0658
G01 X29.1375 Y23.0915
G01 X29.2373 Y23.1272
G01 X29.3331 Y23.1725
G01 X29.4240 Y23.2270
G01 X29.5091 Y23.2901
G01 X29.5877 Y23.3613
G01 X29.6589 Y23.4399
G01 X29.7220 Y23.5250
G01 X29.7765 Y23.6159
G01 X29.8218 Y23.7117
G01 X29.8575 Y23.8115
G01 X29.8832 Y23.9143
G01 X29.8988 Y24.0191
G01 X29.9040 Y24.1250
G01 X29.8988 Y24.2309
G01 X29.8832 Y24.3357
G01 X29.8575 Y24.4385
G01 X29.8218 Y24.5383
G01 X29.7765 Y24.6341
G01 X29.7220 Y24.7250
G01 X29.6589 Y24.8101
G01 X29.5877 Y24.8887
G01 X29.5091 Y24.9599
G01 X29.4240 Y25.0230
G01 X29.3331 Y25.0775
G01 X29.2373 Y25.1228
G01 X29.1375 Y25.1585
G01 X29.0347 Y25.1842
G01 X28.9299 Y25.1998
G01 X28.8240 Y25.2050
G01 X28.7181 Y25.1998
G01 X28.6133 Y25.1842
G01 X28.5105 Y25.1585
G01 X28.4107 Y25.1228
G01 X28.3149 Y25.0775
G01 X28.2240 Y25.0230
G01 X28.1389 Y24.9599
G01 X28.0603 Y24.8887
G01 X27.9891 Y24.8101
G01 X27.9260 Y24.7250
G01 X27.8715 Y24.6341
G01 X27.8262 Y24.5383
G01 X27.7905 Y24.4385
G01 X27.7648 Y24.3357
G01 X27.7492 Y24.2309
G01 X27.7441 Y24.1289
G00 Z1.0000
G00 X27.7441 Y2.5389
G01 F25.00
G01 Z-0.1120
G01 F120.00
G01 X27.7441 Y2.5311
G01 X27.7492 Y2.4291
G01 X27.7648 Y2.3243
G01 X27.7905 Y2.2215
G01 X27.8262 Y2.1217
G01 X27.8715 Y2.0259
G01 X27.9260 Y1.9350
G01 X27.9891 Y1.8499
G01 X28.0603 Y1.7713
G01 X28.1389 Y1.7001
G01 X28.2240 Y1.6370
G01 X28.3149 Y1.5825
G01 X28.4107 Y1.5372
G01 X28.5105 Y1.5015
G01 X28.6133 Y1.4758
G01 X28.7181 Y1.4602
G01 X28.8240 Y1.4550
G01 X28.9299 Y1.4602
G01 X29.0347 Y1.4758
G01 X29.1375 Y1.5015
G01 X29.2373 Y1.5372
G01 X29.3331 Y1.5825
G01 X29.4240 Y1.6370
G01 X29.5091 Y1.7001
G01 X29.5877 Y1.7713
G01 X29.6589 Y1.8499
G01 X29.7220 Y1.9350
G01 X29.7765 Y2.0259
G01 X29.8218 Y2.1217
G01 X29.8575 Y2.2215
G01 X29.8832 Y2.3243
G01 X29.8988 Y2.4291
G01 X29.9040 Y2.5350
G01 X29.8988 Y2.6409
G01 X29.8832 Y2.7457
G01 X29.8575 Y2.8485
G01 X29.8218 Y2.9483
G01 X29.7765 Y3.0441
G01 X29.7220 Y3.1350
G01 X29.6589 Y3.2201
G01 X29.5877 Y3.2987
G01 X29.5091 Y3.3699
G01 X29.4240 Y3.4330
G01 X29.3331 Y3.4875
G01 X29.2373 Y3.5328
G01 X29.1375 Y3.5685
G01 X29.0347 Y3.5942
G01 X28.9299 Y3.6098
G01 X28.8240 Y3.6150
G01 X28.7181 Y3.6098
G01 X28.6133 Y3.5942
G01 X28.5105 Y3.5685
G01 X28.4107 Y3.5328
G01 X28.3149 Y3.4875
G01 X28.2240 Y3.4330
G01 X28.1389 Y3.3699
G01 X28.0603 Y3.2987
G01 X27.9891 Y3.2201
G01 X27.9260 Y3.1350
G01 X27.8715 Y3.0441
G01 X27.8262 Y2.9483
G01 X27.7905 Y2.8485
G01 X27.7648 Y2.7457
G01 X27.7492 Y2.6409
G01 X27.7441 Y2.5389
G00 Z1.0000
G00 X28.8240 Y1.3563
G01 F25.00
G01 Z-0.1120
G01 F120.00
G01 X28.6818 Y1.3649
G01 X28.5419 Y1.3906
G01 X28.4059 Y1.4329
G01 X28.2761 Y1.4914
G01 X28.1543 Y1.5651
G01 X28.0425 Y1.6527
G01 X27.9417 Y1.7535
G01 X27.8541 Y1.8653
G01 X27.7804 Y1.9871
G01 X27.7219 Y2.1169
G01 X27.6796 Y2.2529
G01 X27.6539 Y2.3928
G01 X27.6453 Y2.5350
G01 X27.6539 Y2.6772
G01 X27.6796 Y2.8171
G01 X27.7219 Y2.9531
G01 X27.7804 Y3.0829
G01 X27.8541 Y3.2047
G01 X27.9417 Y3.3165
G01 X28.0425 Y3.4173
G01 X28.1543 Y3.5049
G01 X28.2761 Y3.5786
G01 X28.4059 Y3.6371
G01 X28.5419 Y3.6794
G01 X28.6818 Y3.7051
G01 X28.8240 Y3.7137
G01 X28.9662 Y3.7051
G01 X29.1061 Y3.6794
G01 X29.2421 Y3.6371
G01 X29.3719 Y3.5786
G01 X29.4937 Y3.5049
G01 X29.6055 Y3.4173
G01 X29.7063 Y3.3165
G01 X29.7939 Y3.2047
G01 X29.8676 Y3.0829
G01 X29.9261 Y2.9531
G01 X29.9684 Y2.8171
G01 X29.9941 Y2.6772
G01 X30.0027 Y2.5350
G01 X29.9941 Y2.3928
G01 X29.9684 Y2.2529
G01 X29.9261 Y2.1169
G01 X29.8676 Y1.9871
G01 X29.7939 Y1.8653
G01 X29.7063 Y1.7535
G01 X29.6055 Y1.6527
G01 X29.4937 Y1.5651
G01 X29.3719 Y1.4914
G01 X29.2421 Y1.4329
G01 X29.1061 Y1.3906
G01 X28.9662 Y1.3649
G01 X28.8240 Y1.3563
G00 Z1.0000
G00 X16.1928 Y4.4432
G01 F25.00
G01 Z-0.1120
G01 F120.00
G01 X16.2079 Y4.4426
G01 X16.2213 Y4.4432
G01 X16.2078 Y4.4282
G01 X16.1928 Y4.4432
G00 Z1.0000
G00 X15.0683 Y4.4077
G01 F25.00
G01 Z-0.1120
G01 F120.00
G01 X15.0552 Y4.4091
G01 X15.0412 Y4.4095
G01 X14.9986 Y4.4563
G01 X14.9505 Y4.5002
G01 X14.9501 Y4.5142
G01 X14.9487 Y4.5273
G01 X15.0683 Y4.4077
G00 Z1.0000
G00 X13.5673 Y4.3295
G01 F25.00
G01 Z-0.1120
G01 F120.00
G01 X13.5887 Y4.3630
G01 X13.6695 Y4.4589
G01 X13.7632 Y4.5432
G01 X13.8215 Y4.5833
G01 X13.8215 Y4.4632
G01 X13.8089 Y4.4533
G01 X13.7506 Y4.4004
G01 X13.6977 Y4.3421
G01 X13.6878 Y4.3295
G01 X13.5673 Y4.3295
G00 Z1.0000
G00 X13.5666 Y3.2805
G01 F25.00
G01 Z-0.1120
G01 F120.00
G01 X13.6878 Y3.2805
G01 X13.6977 Y3.2679
G01 X13.7506 Y3.2096
G01 X13.8089 Y3.1567
G01 X13.8215 Y3.1468
G01 X13.8215 Y3.0248
G01 X13.8138 Y3.0293
G01 X13.7150 Y3.1075
G01 X13.6274 Y3.1979
G01 X13.5666 Y3.2805
G00 Z1.0000
G00 X3.4337 Y13.7719
G01 F25.00
G01 Z-0.1120
G01 F120.00
G01 X3.4546 Y13.7142
G01 X3.4938 Y13.6318
G01 X3.5397 Y13.5552
G01 X3.5929 Y13.4835
G01 X3.6527 Y13.4172
G01 X3.6582 Y13.4116
G01 X3.7230 Y13.3530
G01 X3.7947 Y13.2998
G01 X3.8712 Y13.2537
G01 X3.8781 Y13.2500
G01 X3.9571 Y13.2127
G01 X4.0430 Y13.1820
G01 X4.1277 Y13.1607
G01 X4.1354 Y13.1591
G01 X4.2218 Y13.1464
G01 X4.3110 Y13.1420
G01 X4.4002 Y13.1461
G01 X4.4081 Y13.1469
G01 X4.4944 Y13.1598
G01 X4.5792 Y13.1809
G01 X4.5867 Y13.1832
G01 X4.6689 Y13.2127
G01 X4.7479 Y13.2500
G01 X4.7548 Y13.2537
G01 X4.8297 Y13.2987
G01 X4.8999 Y13.3506
G01 X4.9060 Y13.3556
G01 X4.9706 Y13.4143
G01 X5.0319 Y13.4819
G01 X5.0840 Y13.5520
G01 X5.0884 Y13.5586
G01 X5.1339 Y13.6349
G01 X8.2403 Y13.6349
G01 X13.6394 Y8.2357
G01 X13.6349 Y8.2036
G01 X13.6310 Y8.1250
G01 X13.6349 Y8.0424
G01 X13.6472 Y7.9587
G01 X13.6678 Y7.8767
G01 X13.6937 Y7.8044
G01 X13.6967 Y7.7972
G01 X13.7304 Y7.7261
G01 X13.7708 Y7.6585
G01 X13.7752 Y7.6520
G01 X13.8221 Y7.5888
G01 X13.8776 Y7.5276
G01 X13.9359 Y7.4747
G01 X13.9419 Y7.4697
G01 X14.0052 Y7.4229
G01 X14.0727 Y7.3824
G01 X14.0796 Y7.3787
G01 X14.1508 Y7.3451
G01 X14.2286 Y7.3173
G01 X14.3049 Y7.2980
G01 X14.3126 Y7.2965
G01 X14.3905 Y7.2851
G01 X14.4691 Y7.2811
G01 X14.4769 Y7.2811
G01 X14.5555 Y7.2851
G01 X14.6334 Y7.2965
G01 X14.6411 Y7.2980
G01 X14.7174 Y7.3173
G01 X14.7916 Y7.3437
G01 X14.7988 Y7.3467
G01 X14.8699 Y7.3804
G01 X14.9375 Y7.4208
G01 X14.9440 Y7.4252
G01 X15.0072 Y7.4721
G01 X15.0655 Y7.5249
G01 X15.0711 Y7.5305
G01 X15.1239 Y7.5888
G01 X15.1708 Y7.6520
G01 X15.1752 Y7.6585
G01 X15.2136 Y7.7227
G01 X15.2173 Y7.7296
G01 X15.2509 Y7.8008
G01 X15.2775 Y7.8749
G01 X15.2798 Y7.8824
G01 X15.2988 Y7.9587
G01 X15.3105 Y8.0366
G01 X15.3112 Y8.0444
G01 X15.3150 Y8.1230
G01 X15.3112 Y8.2016
G01 X15.3105 Y8.2094
G01 X15.2988 Y8.2873
G01 X15.2798 Y8.3636
G01 X15.2775 Y8.3711
G01 X15.2509 Y8.4452
G01 X15.2173 Y8.5164
G01 X15.2136 Y8.5233
G01 X15.1731 Y8.5908
G01 X15.1226 Y8.6587
G01 X15.0684 Y8.7184
G01 X15.0072 Y8.7739
G01 X14.9408 Y8.8231
G01 X14.8699 Y8.8656
G01 X14.7952 Y8.9009
G01 X14.7174 Y8.9287
G01 X14.6373 Y8.9488
G01 X14.5594 Y8.9605
G01 X14.5516 Y8.9612
G01 X14.4730 Y8.9650
G01 X14.3905 Y8.9609
G01 X14.3087 Y8.9488
G01 X14.2324 Y8.9298
G01 X14.2249 Y8.9275
G01 X14.1508 Y8.9009
G01 X14.0796 Y8.8673
G01 X14.0727 Y8.8636
G01 X14.0085 Y8.8252
G01 X13.9940 Y8.8149
G01 X8.6104 Y14.1984
G01 X8.5864 Y14.2202
G01 X8.5620 Y14.2384
G01 X8.5360 Y14.2542
G01 X8.5291 Y14.2579
G01 X8.5033 Y14.2700
G01 X8.4728 Y14.2809
G01 X8.4452 Y14.2879
G01 X8.4375 Y14.2895
G01 X8.4094 Y14.2935
G01 X8.3790 Y14.2951
G01 X5.2148 Y14.2951
G01 X5.2024 Y14.3438
G01 X5.1714 Y14.4296
G01 X5.1332 Y14.5103
G01 X5.0873 Y14.5870
G01 X5.0343 Y14.6588
G01 X5.0293 Y14.6649
G01 X4.9706 Y14.7295
G01 X4.9045 Y14.7896
G01 X4.8329 Y14.8429
G01 X4.8264 Y14.8473
G01 X4.7514 Y14.8921
G01 X4.6689 Y14.9311
G01 X4.5830 Y14.9619
G01 X4.4983 Y14.9832
G01 X4.4906 Y14.9847
G01 X4.4022 Y14.9976
G01 X4.3130 Y15.0019
G01 X4.2258 Y14.9977
G01 X4.2179 Y14.9970
G01 X4.1316 Y14.9841
G01 X4.0468 Y14.9629
G01 X4.0393 Y14.9607
G01 X3.9571 Y14.9311
G01 X3.8781 Y14.8939
G01 X3.8712 Y14.8902
G01 X3.7996 Y14.8473
G01 X3.7931 Y14.8429
G01 X3.7230 Y14.7908
G01 X3.6582 Y14.7322
G01 X3.6527 Y14.7267
G01 X3.5941 Y14.6619
G01 X3.5420 Y14.5918
G01 X3.5327 Y14.5771
G01 X2.3571 Y15.7527
G01 X2.3571 Y18.2733
G01 X4.1957 Y20.1119
G01 X28.8143 Y20.1119
G01 X30.3989 Y18.5273
G01 X30.3989 Y10.4187
G01 X27.7983 Y7.8181
G01 X26.5477 Y7.8181
G01 X25.4711 Y8.8947
G01 X25.4711 Y10.2723
G01 X26.4459 Y11.2470
G01 X26.4567 Y11.2331
G01 X26.5154 Y11.1685
G01 X26.5830 Y11.1072
G01 X26.6563 Y11.0528
G01 X26.7346 Y11.0059
G01 X26.8171 Y10.9669
G01 X26.9030 Y10.9361
G01 X26.9916 Y10.9139
G01 X27.0818 Y10.9005
G01 X27.1730 Y10.8961
G01 X27.2642 Y10.9005
G01 X27.3544 Y10.9139
G01 X27.4430 Y10.9361
G01 X27.5289 Y10.9669
G01 X27.6114 Y11.0059
G01 X27.6897 Y11.0528
G01 X27.7630 Y11.1072
G01 X27.8306 Y11.1685
G01 X27.8919 Y11.2361
G01 X27.9463 Y11.3094
G01 X27.9932 Y11.3877
G01 X28.0322 Y11.4702
G01 X28.0630 Y11.5561
G01 X28.0851 Y11.6446
G01 X28.0980 Y11.7310
G01 X28.0988 Y11.7388
G01 X28.1030 Y11.8261
G01 X28.0988 Y11.9133
G01 X28.0980 Y11.9211
G01 X28.0858 Y12.0036
G01 X28.0843 Y12.0113
G01 X28.0630 Y12.0960
G01 X28.0322 Y12.1820
G01 X27.9932 Y12.2645
G01 X27.9463 Y12.3427
G01 X27.8919 Y12.4160
G01 X27.8306 Y12.4837
G01 X27.7630 Y12.5450
G01 X27.6897 Y12.5993
G01 X27.6114 Y12.6462
G01 X27.5289 Y12.6853
G01 X27.4430 Y12.7160
G01 X27.3544 Y12.7382
G01 X27.2642 Y12.7516
G01 X27.1730 Y12.7561
G01 X27.0818 Y12.7516
G01 X26.9916 Y12.7382
G01 X26.9030 Y12.7160
G01 X26.8171 Y12.6853
G01 X26.7346 Y12.6462
G01 X26.6596 Y12.6014
G01 X26.6531 Y12.5971
G01 X26.5830 Y12.5450
G01 X26.5154 Y12.4837
G01 X26.4541 Y12.4160
G01 X26.3997 Y12.3427
G01 X26.3528 Y12.2645
G01 X26.3138 Y12.1820
G01 X26.2830 Y12.0960
G01 X26.2617 Y12.0113
G01 X26.2587 Y11.9936
G01 X24.9062 Y10.6410
G01 X24.8858 Y10.6184
G01 X24.8665 Y10.5924
G01 X24.8499 Y10.5646
G01 X24.8376 Y10.5389
G01 X24.8346 Y10.5317
G01 X24.8263 Y10.5086
G01 X24.8240 Y10.5010
G01 X24.8172 Y10.4734
G01 X24.8123 Y10.4394
G01 X24.8109 Y10.4090
G01 X24.8110 Y8.7541
G01 X24.8125 Y8.7256
G01 X24.8172 Y8.6936
G01 X24.8251 Y8.6622
G01 X24.8360 Y8.6317
G01 X24.8499 Y8.6024
G01 X24.8665 Y8.5746
G01 X24.8858 Y8.5486
G01 X24.9062 Y8.5260
G01 X26.1790 Y7.2532
G01 X26.2016 Y7.2328
G01 X26.2276 Y7.2135
G01 X26.2554 Y7.1969
G01 X26.2829 Y7.1838
G01 X26.3152 Y7.1721
G01 X26.3466 Y7.1642
G01 X26.3786 Y7.1595
G01 X26.4110 Y7.1579
G01 X27.9350 Y7.1579
G01 X27.9674 Y7.1595
G01 X27.9975 Y7.1639
G01 X28.0270 Y7.1710
G01 X28.0346 Y7.1733
G01 X28.0613 Y7.1830
G01 X28.0906 Y7.1969
G01 X28.1184 Y7.2135
G01 X28.1413 Y7.2304
G01 X28.1474 Y7.2354
G01 X28.1684 Y7.2546
G01 X30.9624 Y10.0486
G01 X30.9816 Y10.0696
G01 X30.9866 Y10.0757
G01 X31.0035 Y10.0986
G01 X31.0182 Y10.1230
G01 X31.0219 Y10.1299
G01 X31.0340 Y10.1557
G01 X31.0455 Y10.1881
G01 X31.0528 Y10.2176
G01 X31.0571 Y10.2457
G01 X31.0578 Y10.2536
G01 X31.0591 Y10.2820
G01 X31.0591 Y18.6640
G01 X31.0575 Y18.6964
G01 X31.0531 Y18.7265
G01 X31.0460 Y18.7560
G01 X31.0437 Y18.7636
G01 X31.0340 Y18.7903
G01 X31.0201 Y18.8196
G01 X31.0056 Y18.8441
G01 X31.0012 Y18.8506
G01 X30.9842 Y18.8734
G01 X30.9638 Y18.8960
G01 X29.1844 Y20.6754
G01 X29.1604 Y20.6972
G01 X29.1344 Y20.7165
G01 X29.1066 Y20.7331
G01 X29.0809 Y20.7454
G01 X29.0737 Y20.7484
G01 X29.0506 Y20.7567
G01 X29.0430 Y20.7590
G01 X29.0154 Y20.7658
G01 X28.9814 Y20.7707
G01 X28.9510 Y20.7721
G01 X4.0590 Y20.7721
G01 X4.0266 Y20.7705
G01 X3.9965 Y20.7661
G01 X3.9670 Y20.7590
G01 X3.9594 Y20.7567
G01 X3.9327 Y20.7470
G01 X3.9034 Y20.7331
G01 X3.8789 Y20.7186
G01 X3.8724 Y20.7142
G01 X3.8496 Y20.6972
G01 X3.8270 Y20.6768
G01 X1.7936 Y18.6434
G01 X1.7718 Y18.6194
G01 X1.7525 Y18.5934
G01 X1.7359 Y18.5656
G01 X1.7236 Y18.5399
G01 X1.7206 Y18.5327
G01 X1.7123 Y18.5096
G01 X1.7100 Y18.5020
G01 X1.7032 Y18.4744
G01 X1.6983 Y18.4404
G01 X1.6969 Y18.4100
G01 X1.6969 Y15.6160
G01 X1.6985 Y15.5836
G01 X1.7032 Y15.5516
G01 X1.7111 Y15.5202
G01 X1.7213 Y15.4915
G01 X1.7359 Y15.4604
G01 X1.7525 Y15.4326
G01 X1.7718 Y15.4066
G01 X1.7936 Y15.3826
G01 X3.3379 Y13.8382
G01 X3.3619 Y13.8165
G01 X3.3863 Y13.7983
G01 X3.4140 Y13.7815
G01 X3.4337 Y13.7719
G00 Z1.0000
G00 X3.4969 Y14.7261
G01 F25.00
G01 Z-0.1120
G01 F120.00
G01 X3.5095 Y14.7248
G01 X3.5215 Y14.7245
G01 X3.5336 Y14.7251
G01 X3.5445 Y14.7264
G01 X3.5329 Y14.7134
G01 X3.5228 Y14.7002
G01 X3.4969 Y14.7261
G00 Z1.0000
G00 X5.6218 Y16.9822
G01 F25.00
G01 Z-0.1120
G01 F120.00
G01 X5.3041 Y16.9822
G01 X5.5284 Y17.2065
G01 X5.5271 Y17.1950
G01 X5.5266 Y17.1834
G01 X5.5270 Y17.1718
G01 X5.5282 Y17.1603
G01 X5.5383 Y17.1082
G01 X5.5421 Y17.0947
G01 X5.5462 Y17.0834
G01 X5.5521 Y17.0707
G01 X5.5580 Y17.0603
G01 X5.5880 Y17.0159
G01 X5.5963 Y17.0055
G01 X5.6042 Y16.9972
G01 X5.6126 Y16.9895
G01 X5.6218 Y16.9822
G00 Z1.0000
G00 X2.5350 Y22.9463
G01 F25.00
G01 Z-0.1120
G01 F120.00
G01 X2.3928 Y22.9549
G01 X2.2529 Y22.9806
G01 X2.1169 Y23.0229
G01 X1.9871 Y23.0814
G01 X1.8653 Y23.1551
G01 X1.7535 Y23.2426
G01 X1.6527 Y23.3435
G01 X1.5651 Y23.4553
G01 X1.4914 Y23.5771
G01 X1.4329 Y23.7069
G01 X1.3906 Y23.8429
G01 X1.3649 Y23.9828
G01 X1.3563 Y24.1250
G01 X1.3649 Y24.2672
G01 X1.3906 Y24.4071
G01 X1.4329 Y24.5431
G01 X1.4914 Y24.6729
G01 X1.5651 Y24.7947
G01 X1.6527 Y24.9065
G01 X1.7535 Y25.0073
G01 X1.8653 Y25.0949
G01 X1.9871 Y25.1686
G01 X2.1169 Y25.2271
G01 X2.2529 Y25.2694
G01 X2.3928 Y25.2951
G01 X2.5350 Y25.3037
G01 X2.6772 Y25.2951
G01 X2.8171 Y25.2694
G01 X2.9531 Y25.2271
G01 X3.0829 Y25.1686
G01 X3.2047 Y25.0949
G01 X3.3165 Y25.0073
G01 X3.4173 Y24.9065
G01 X3.5049 Y24.7947
G01 X3.5786 Y24.6729
G01 X3.6371 Y24.5431
G01 X3.6794 Y24.4071
G01 X3.7051 Y24.2672
G01 X3.7137 Y24.1250
G01 X3.7051 Y23.9828
G01 X3.6794 Y23.8429
G01 X3.6371 Y23.7069
G01 X3.5786 Y23.5771
G01 X3.5049 Y23.4553
G01 X3.4173 Y23.3435
G01 X3.3165 Y23.2426
G01 X3.2047 Y23.1551
G01 X3.0829 Y23.0814
G01 X2.9531 Y23.0229
G01 X2.8171 Y22.9806
G01 X2.6772 Y22.9549
G01 X2.5350 Y22.9463
G00 Z1.0000
G00 X1.4551 Y24.1289
G01 F25.00
G01 Z-0.1120
G01 F120.00
G01 X1.4551 Y24.1211
G01 X1.4602 Y24.0191
G01 X1.4758 Y23.9143
G01 X1.5015 Y23.8115
G01 X1.5372 Y23.7117
G01 X1.5825 Y23.6159
G01 X1.6370 Y23.5250
G01 X1.7001 Y23.4399
G01 X1.7713 Y23.3613
G01 X1.8499 Y23.2901
G01 X1.9350 Y23.2270
G01 X2.0259 Y23.1725
G01 X2.1217 Y23.1272
G01 X2.2215 Y23.0915
G01 X2.3243 Y23.0658
G01 X2.4291 Y23.0502
G01 X2.5350 Y23.0450
G01 X2.6409 Y23.0502
G01 X2.7457 Y23.0658
G01 X2.8485 Y23.0915
G01 X2.9483 Y23.1272
G01 X3.0441 Y23.1725
G01 X3.1350 Y23.2270
G01 X3.2201 Y23.2901
G01 X3.2987 Y23.3613
G01 X3.3699 Y23.4399
G01 X3.4330 Y23.5250
G01 X3.4875 Y23.6159
G01 X3.5328 Y23.7117
G01 X3.5685 Y23.8115
G01 X3.5942 Y23.9143
G01 X3.6098 Y24.0191
G01 X3.6150 Y24.1250
G01 X3.6098 Y24.2309
G01 X3.5942 Y24.3357
G01 X3.5685 Y24.4385
G01 X3.5328 Y24.5383
G01 X3.4875 Y24.6341
G01 X3.4330 Y24.7250
G01 X3.3699 Y24.8101
G01 X3.2987 Y24.8887
G01 X3.2201 Y24.9599
G01 X3.1350 Y25.0230
G01 X3.0441 Y25.0775
G01 X2.9483 Y25.1228
G01 X2.8485 Y25.1585
G01 X2.7457 Y25.1842
G01 X2.6409 Y25.1998
G01 X2.5350 Y25.2050
G01 X2.4291 Y25.1998
G01 X2.3243 Y25.1842
G01 X2.2215 Y25.1585
G01 X2.1217 Y25.1228
G01 X2.0259 Y25.0775
G01 X1.9350 Y25.0230
G01 X1.8499 Y24.9599
G01 X1.7713 Y24.8887
G01 X1.7001 Y24.8101
G01 X1.6370 Y24.7250
G01 X1.5825 Y24.6341
G01 X1.5372 Y24.5383
G01 X1.5015 Y24.4385
G01 X1.4758 Y24.3357
G01 X1.4602 Y24.2309
G01 X1.4551 Y24.1289
G00 Z1.0000
M05
G00 Z1.0000
G00 Z15.00
G00 X0.0 Y0.0


