(G-CODE GENERATED BY FLATCAM v8.994 - www.flatcam.org - Version Date: 2020/11/7)

(Name: Gerber_BottomLayer.GBL_cutout_cnc)
(Type: G-code from Geometry)
(Units: MM)

(Created on Sunday, 29 September 2024 at 11:13)

(This preprocessor is the default preprocessor used by FlatCAM.)
(It is made to work with MACH3 compatible motion controllers.)

(TOOL DIAMETER: 1.0 mm)
(Feedrate_XY: 120.0 mm/min)
(Feedrate_Z: 25.0 mm/min)
(Feedrate rapids 1500.0 mm/min)

(Z_Cut: -2.4 mm)
(DepthPerCut: 0.8 mm <=>3 passes)
(Z_Move: 1.0 mm)
(Z Start: None mm)
(Z End: 15.0 mm)
(X,Y End: 0.0000, 0.0000 mm)
(Steps per circle: 64)
(Preprocessor Geometry: default)

(X range:   -0.5999 ...   31.9589  mm)
(Y range:   -0.5999 ...   27.1314  mm)

(Spindle Speed: 1000.0 RPM)
G21
G90
G94

G01 F120.00

M5
G00 Z15.0000
G00 X0.0000 Y0.0000
T1
M6    
(MSG, Change to Tool Dia = 1.0000)
M0
G00 Z15.0000

M03 S1000.0
G01 F120.00
G00 X-0.5999 Y10.8657
G01 F25.00
G01 Z-0.8000
G01 F120.00
G01 X-0.5999 Y0.0001
G01 X-0.5970 Y-0.0587
G01 X-0.5884 Y-0.1170
G01 X-0.5741 Y-0.1741
G01 X-0.5542 Y-0.2295
G01 X-0.5291 Y-0.2828
G01 X-0.4988 Y-0.3333
G01 X-0.4637 Y-0.3806
G01 X-0.4242 Y-0.4242
G01 X-0.3806 Y-0.4637
G01 X-0.3333 Y-0.4988
G01 X-0.2828 Y-0.5291
G01 X-0.2295 Y-0.5542
G01 X-0.1741 Y-0.5741
G01 X-0.1170 Y-0.5884
G01 X-0.0587 Y-0.5970
G01 X0.0001 Y-0.5999
G01 X31.3589 Y-0.5999
G01 X31.4177 Y-0.5970
G01 X31.4760 Y-0.5884
G01 X31.5331 Y-0.5741
G01 X31.5885 Y-0.5542
G01 X31.6418 Y-0.5291
G01 X31.6923 Y-0.4988
G01 X31.7396 Y-0.4637
G01 X31.7832 Y-0.4242
G01 X31.8227 Y-0.3806
G01 X31.8578 Y-0.3333
G01 X31.8881 Y-0.2828
G01 X31.9132 Y-0.2295
G01 X31.9331 Y-0.1741
G01 X31.9474 Y-0.1170
G01 X31.9560 Y-0.0587
G01 X31.9589 Y0.0001
G01 X31.9589 Y10.8657
G00 X31.9589 Y10.8657
G01 F25.00
G01 Z-1.6000
G01 F120.00
G01 X31.9589 Y0.0001
G01 X31.9560 Y-0.0587
G01 X31.9474 Y-0.1170
G01 X31.9331 Y-0.1741
G01 X31.9132 Y-0.2295
G01 X31.8881 Y-0.2828
G01 X31.8578 Y-0.3333
G01 X31.8227 Y-0.3806
G01 X31.7832 Y-0.4242
G01 X31.7396 Y-0.4637
G01 X31.6923 Y-0.4988
G01 X31.6418 Y-0.5291
G01 X31.5885 Y-0.5542
G01 X31.5331 Y-0.5741
G01 X31.4760 Y-0.5884
G01 X31.4177 Y-0.5970
G01 X31.3589 Y-0.5999
G01 X0.0001 Y-0.5999
G01 X-0.0587 Y-0.5970
G01 X-0.1170 Y-0.5884
G01 X-0.1741 Y-0.5741
G01 X-0.2295 Y-0.5542
G01 X-0.2828 Y-0.5291
G01 X-0.3333 Y-0.4988
G01 X-0.3806 Y-0.4637
G01 X-0.4242 Y-0.4242
G01 X-0.4637 Y-0.3806
G01 X-0.4988 Y-0.3333
G01 X-0.5291 Y-0.2828
G01 X-0.5542 Y-0.2295
G01 X-0.5741 Y-0.1741
G01 X-0.5884 Y-0.1170
G01 X-0.5970 Y-0.0587
G01 X-0.5999 Y0.0001
G01 X-0.5999 Y10.8657
G00 X-0.5999 Y10.8657
G01 F25.00
G01 Z-2.4000
G01 F120.00
G01 X-0.5999 Y0.0001
G01 X-0.5970 Y-0.0587
G01 X-0.5884 Y-0.1170
G01 X-0.5741 Y-0.1741
G01 X-0.5542 Y-0.2295
G01 X-0.5291 Y-0.2828
G01 X-0.4988 Y-0.3333
G01 X-0.4637 Y-0.3806
G01 X-0.4242 Y-0.4242
G01 X-0.3806 Y-0.4637
G01 X-0.3333 Y-0.4988
G01 X-0.2828 Y-0.5291
G01 X-0.2295 Y-0.5542
G01 X-0.1741 Y-0.5741
G01 X-0.1170 Y-0.5884
G01 X-0.0587 Y-0.5970
G01 X0.0001 Y-0.5999
G01 X31.3589 Y-0.5999
G01 X31.4177 Y-0.5970
G01 X31.4760 Y-0.5884
G01 X31.5331 Y-0.5741
G01 X31.5885 Y-0.5542
G01 X31.6418 Y-0.5291
G01 X31.6923 Y-0.4988
G01 X31.7396 Y-0.4637
G01 X31.7832 Y-0.4242
G01 X31.8227 Y-0.3806
G01 X31.8578 Y-0.3333
G01 X31.8881 Y-0.2828
G01 X31.9132 Y-0.2295
G01 X31.9331 Y-0.1741
G01 X31.9474 Y-0.1170
G01 X31.9560 Y-0.0587
G01 X31.9589 Y0.0001
G01 X31.9589 Y10.8657
G00 Z1.0000
G00 X-0.5999 Y15.8657
G01 F25.00
G01 Z-0.8000
G01 F120.00
G01 X-0.5999 Y26.5314
G01 X-0.5970 Y26.5902
G01 X-0.5884 Y26.6484
G01 X-0.5741 Y26.7056
G01 X-0.5542 Y26.7610
G01 X-0.5291 Y26.8142
G01 X-0.4988 Y26.8647
G01 X-0.4637 Y26.9120
G01 X-0.4242 Y26.9557
G01 X-0.3806 Y26.9952
G01 X-0.3333 Y27.0303
G01 X-0.2828 Y27.0605
G01 X-0.2295 Y27.0857
G01 X-0.1741 Y27.1056
G01 X-0.1170 Y27.1199
G01 X-0.0587 Y27.1285
G01 X0.0001 Y27.1314
G01 X31.3589 Y27.1314
G01 X31.4177 Y27.1285
G01 X31.4760 Y27.1199
G01 X31.5331 Y27.1056
G01 X31.5885 Y27.0857
G01 X31.6418 Y27.0605
G01 X31.6923 Y27.0303
G01 X31.7396 Y26.9952
G01 X31.7832 Y26.9557
G01 X31.8227 Y26.9120
G01 X31.8578 Y26.8647
G01 X31.8881 Y26.8142
G01 X31.9132 Y26.7610
G01 X31.9331 Y26.7056
G01 X31.9474 Y26.6484
G01 X31.9560 Y26.5902
G01 X31.9589 Y26.5314
G01 X31.9589 Y15.8657
G00 X31.9589 Y15.8657
G01 F25.00
G01 Z-1.6000
G01 F120.00
G01 X31.9589 Y26.5314
G01 X31.9560 Y26.5902
G01 X31.9474 Y26.6484
G01 X31.9331 Y26.7056
G01 X31.9132 Y26.7610
G01 X31.8881 Y26.8142
G01 X31.8578 Y26.8647
G01 X31.8227 Y26.9120
G01 X31.7832 Y26.9557
G01 X31.7396 Y26.9952
G01 X31.6923 Y27.0303
G01 X31.6418 Y27.0605
G01 X31.5885 Y27.0857
G01 X31.5331 Y27.1056
G01 X31.4760 Y27.1199
G01 X31.4177 Y27.1285
G01 X31.3589 Y27.1314
G01 X0.0001 Y27.1314
G01 X-0.0587 Y27.1285
G01 X-0.1170 Y27.1199
G01 X-0.1741 Y27.1056
G01 X-0.2295 Y27.0857
G01 X-0.2828 Y27.0605
G01 X-0.3333 Y27.0303
G01 X-0.3806 Y26.9952
G01 X-0.4242 Y26.9557
G01 X-0.4637 Y26.9120
G01 X-0.4988 Y26.8647
G01 X-0.5291 Y26.8142
G01 X-0.5542 Y26.7610
G01 X-0.5741 Y26.7056
G01 X-0.5884 Y26.6484
G01 X-0.5970 Y26.5902
G01 X-0.5999 Y26.5314
G01 X-0.5999 Y15.8657
G00 X-0.5999 Y15.8657
G01 F25.00
G01 Z-2.4000
G01 F120.00
G01 X-0.5999 Y26.5314
G01 X-0.5970 Y26.5902
G01 X-0.5884 Y26.6484
G01 X-0.5741 Y26.7056
G01 X-0.5542 Y26.7610
G01 X-0.5291 Y26.8142
G01 X-0.4988 Y26.8647
G01 X-0.4637 Y26.9120
G01 X-0.4242 Y26.9557
G01 X-0.3806 Y26.9952
G01 X-0.3333 Y27.0303
G01 X-0.2828 Y27.0605
G01 X-0.2295 Y27.0857
G01 X-0.1741 Y27.1056
G01 X-0.1170 Y27.1199
G01 X-0.0587 Y27.1285
G01 X0.0001 Y27.1314
G01 X31.3589 Y27.1314
G01 X31.4177 Y27.1285
G01 X31.4760 Y27.1199
G01 X31.5331 Y27.1056
G01 X31.5885 Y27.0857
G01 X31.6418 Y27.0605
G01 X31.6923 Y27.0303
G01 X31.7396 Y26.9952
G01 X31.7832 Y26.9557
G01 X31.8227 Y26.9120
G01 X31.8578 Y26.8647
G01 X31.8881 Y26.8142
G01 X31.9132 Y26.7610
G01 X31.9331 Y26.7056
G01 X31.9474 Y26.6484
G01 X31.9560 Y26.5902
G01 X31.9589 Y26.5314
G01 X31.9589 Y15.8657
G00 Z1.0000
M05
G00 Z1.0000
G00 Z15.00
G00 X0.0 Y0.0


