; generated by PrusaSlicer 2.7.4+win64 on 2024-10-29 at 03:51:48 UTC


;
;

;
;
; 

; external perimeters extrusion width = 0.42mm
; perimeters extrusion width = 0.42mm
; infill extrusion width = 0.42mm
; solid infill extrusion width = 0.42mm
; top infill extrusion width = 0.42mm
; first layer extrusion width = 0.45mm

M190 S80 ; set bed temperature and wait for it to be reached
M104 S230 ; set temperature
;TYPE:Custom
G28 ; home all axes
G1 Z5 F5000 ; lift nozzle
M109 S230 ; set temperature and wait for it to be reached
G21 ; set units to millimeters
G90 ; use absolute coordinates
M82 ; use absolute distances for extrusion
G92 E0
; Filament gcode
G1 X10 Y10 Z0.2 F3000
G1 X110 E15 F600
G1 X10 E15 F600
M107
;LAYER_CHANGE
;Z:0.35
;HEIGHT:0.35
G1 E-4 F1800
G1 Z.65 F12000
G1 X111.755 Y120.678
G1 Z.35
G1 E0 F1800
;TYPE:Skirt/Brim
;WIDTH:0.45
G1 X112.249 Y120.415 E.02961
G1 X113.102 Y120.188 E.07632
G1 X186.897 Y120.192 E3.98117
G1 X187.68 Y120.385 E4.02384
G1 X188.451 Y120.832 E4.071
G1 X190.618 Y123.021 E4.23399
G1 X190.98 Y123.635 E4.27171
G1 X191.212 Y124.502 E4.3192
G1 X191.212 Y175.498 E7.01764
G1 X190.98 Y176.365 E7.06513
G1 X190.617 Y176.981 E7.10296
G1 X188.245 Y179.322 E7.27931
G1 X187.751 Y179.585 E7.30892
G1 X186.898 Y179.812 E7.35563
G1 X113.147 Y179.812 E11.25815
G1 X112.325 Y179.618 E11.30284
G1 X111.585 Y179.195 E11.34794
G1 X109.278 Y176.845 E11.5222
G1 X109.015 Y176.351 E11.55181
G1 X108.788 Y175.498 E11.59852
G1 X108.788 Y124.547 E14.29458
G1 X108.982 Y123.725 E14.33927
G1 X109.405 Y122.985 E14.38437
G1 X111.713 Y120.72 E14.55548
G1 X111.713 Y120.72 F12000
G1 X111.958 Y120.994
G1 F1800
G1 X112.371 Y120.771 E14.58032
G1 X113.128 Y120.563 E14.62186
G1 X186.874 Y120.567 E18.52411
G1 X187.517 Y120.724 E18.55913
G1 X188.204 Y121.115 E18.60096
G1 X190.309 Y123.234 E18.75901
G1 X190.626 Y123.76 E18.79151
G1 X190.837 Y124.528 E18.83365
G1 X190.837 Y175.472 E21.52934
G1 X190.626 Y176.24 E21.57148
G1 X190.308 Y176.767 E21.60405
G1 X188.042 Y179.006 E21.77261
G1 X187.629 Y179.229 E21.79745
G1 X186.872 Y179.437 E21.83899
G1 X113.168 Y179.437 E25.73902
G1 X112.487 Y179.279 E25.77601
G1 X111.794 Y178.883 E25.81824
G1 X109.594 Y176.642 E25.98441
G1 X109.371 Y176.229 E26.00925
G1 X109.163 Y175.472 E26.05079
G1 X109.163 Y124.568 E28.74436
G1 X109.321 Y123.887 E28.78135
G1 X109.717 Y123.194 E28.82358
G1 X111.915 Y121.036 E28.98657
G1 X111.915 Y121.036 F12000
G1 X112.162 Y121.309
G1 F1800
G1 X112.495 Y121.125 E29.0067
G1 X113.155 Y120.938 E29.043
G1 X186.852 Y120.942 E32.94266
G1 X187.358 Y121.064 E32.9702
G1 X187.957 Y121.399 E33.00652
G1 X190.002 Y123.45 E33.15978
G1 X190.273 Y123.889 E33.18708
G1 X190.462 Y124.555 E33.22371
G1 X190.462 Y175.445 E35.91654
G1 X190.273 Y176.111 E35.95317
G1 X190.002 Y176.551 E35.98051
G1 X187.837 Y178.691 E36.14159
G1 X187.505 Y178.875 E36.16168
G1 X186.845 Y179.062 E36.19798
G1 X113.189 Y179.062 E40.09547
G1 X112.646 Y178.938 E40.12494
G1 X112.041 Y178.6 E40.16161
G1 X109.909 Y176.438 E40.32228
G1 X109.725 Y176.105 E40.34241
G1 X109.538 Y175.445 E40.37871
G1 X109.538 Y124.589 E43.06974
G1 X109.662 Y124.046 E43.09921
G1 X110 Y123.441 E43.13588
G1 X112.12 Y121.351 E43.29341
G1 X112.12 Y121.351 F12000
G1 X112.37 Y121.622
G1 F1800
G1 X113.183 Y121.313 E43.33943
G1 X186.831 Y121.317 E47.2365
G1 X187.201 Y121.405 E47.25662
G1 X187.712 Y121.684 E47.28743
G1 X189.698 Y123.67 E47.43605
G1 X189.922 Y124.022 E47.45813
G1 X190.087 Y124.583 E47.48907
G1 X190.087 Y175.417 E50.17894
G1 X189.922 Y175.978 E50.20988
G1 X189.698 Y176.331 E50.232
G1 X187.63 Y178.378 E50.38597
G1 X186.817 Y178.687 E50.43199
G1 X113.209 Y178.687 E54.32694
G1 X112.801 Y178.596 E54.34906
G1 X112.288 Y178.316 E54.37999
G1 X110.222 Y176.23 E54.53534
G1 X109.913 Y175.417 E54.58136
G1 X109.913 Y124.609 E57.26985
G1 X110.004 Y124.201 E57.29197
G1 X110.284 Y123.688 E57.3229
G1 X112.328 Y121.664 E57.47511
G1 X112.328 Y121.664 F12000
G1 X112.582 Y121.932
G1 F1800
G1 X113.212 Y121.688 E57.51086
G1 X186.809 Y121.691 E61.40523
G1 X187.468 Y121.969 E61.44308
G1 X189.419 Y123.921 E61.58912
G1 X189.712 Y124.612 E61.62884
G1 X189.712 Y175.388 E64.31564
G1 X189.419 Y176.079 E64.35536
G1 X187.418 Y178.068 E64.50465
G1 X186.788 Y178.312 E64.5404
G1 X113.228 Y178.312 E68.43281
G1 X112.532 Y178.03 E68.47255
G1 X110.532 Y176.018 E68.62267
G1 X110.288 Y175.388 E68.65842
G1 X110.288 Y124.628 E71.34437
G1 X110.57 Y123.932 E71.38411
G1 X112.54 Y121.974 E71.53108
G1 X112.54 Y121.974 F12000
G1 X112.799 Y122.238
G1 F1800
G1 X113.244 Y122.063 E71.55638
G1 X186.787 Y122.066 E75.44789
G1 X187.225 Y122.257 E75.47317
G1 X189.141 Y124.173 E75.61655
G1 X189.337 Y124.644 E75.64354
G1 X189.337 Y175.356 E78.32695
G1 X189.141 Y175.827 E78.35394
G1 X187.201 Y177.762 E78.49893
G1 X186.756 Y177.937 E78.52423
G1 X113.247 Y177.937 E82.41394
G1 X112.775 Y177.743 E82.44094
G1 X110.838 Y175.801 E82.58608
G1 X110.663 Y175.356 E82.61138
G1 X110.663 Y124.647 E85.29463
G1 X110.857 Y124.175 E85.32163
G1 X112.757 Y122.28 E85.46363
G1 X112.757 Y122.28 F12000
G1 X113.02 Y122.542
G1 F1800
G1 X113.026 Y122.537 E85.46404
G1 X113.278 Y122.438 E85.47837
G1 X186.767 Y122.444 E89.36702
G1 X186.984 Y122.547 E89.37973
G1 X188.863 Y124.426 E89.52034
G1 X188.962 Y124.678 E89.53467
G1 X188.962 Y175.322 E92.21449
G1 X188.863 Y175.574 E92.22882
G1 X186.974 Y177.463 E92.37018
G1 X186.722 Y177.562 E92.38451
G1 X113.264 Y177.562 E96.27152
G1 X113.016 Y177.453 E96.28585
G1 X111.137 Y175.574 E96.42646
G1 X111.038 Y175.322 E96.44079
G1 X111.038 Y124.664 E99.12135
G1 X111.147 Y124.416 E99.13568
G1 X112.977 Y122.585 E99.27266
G1 X112.977 Y122.585 F12000
G1 X113.245 Y122.847
G1 F1800
G1 X113.251 Y122.841 E99.27311
G1 X186.68 Y122.813 E103.15859
G1 X188.587 Y124.72 E103.3013
G1 X188.587 Y175.28 E105.97667
G1 X186.749 Y177.159 E106.11576
G1 X113.32 Y177.187 E110.00124
G1 X111.441 Y175.349 E110.14033
G1 X111.413 Y124.72 E112.81935
G1 X113.203 Y122.89 E112.95481
G1 E108.95481
G92 E0
G1 X113.203 Y122.89 Z.65 F12000
G92 E0
G1 X183.895 Y173.025
G1 Z.35
G1 E4 F1800
;TYPE:Perimeter
;WIDTH:0.45
G1 F1200
G1 X115.575 Y173.025 E7.61513
G1 X115.575 Y126.975 E10.05185
G1 X184.425 Y126.975 E13.69503
G1 X184.425 Y150 E14.91339
G1 X184.425 Y173.025 E16.13175
G1 X183.955 Y173.025 E16.15662
G1 X183.955 Y173.025 F12000
G1 X184.35 Y173.4
G1 F1200
G1 X115.2 Y173.4 E19.81567
G1 X115.2 Y126.6 E22.29208
G1 X184.8 Y126.6 E25.97494
G1 X184.8 Y150 E27.21314
G1 X184.8 Y173.4 E28.45134
G1 X184.41 Y173.4 E28.47198
G1 X184.41 Y173.4 F12000
G1 X185.175 Y173.775
;TYPE:External perimeter
G1 F600
G1 X114.825 Y173.775 E32.19453
G1 X114.825 Y126.225 E34.71062
G1 X185.175 Y126.225 E38.43317
G1 X185.175 Y150 E39.69122
G1 X185.175 Y173.715 E40.94609
G1 X184.779 Y173.774 F12000
G1 E36.94609 F1800
G92 E0
G1 Z.65 F12000
G1 X184.313 Y127.845
G1 Z.35
G1 E4 F1800
;TYPE:Solid infill
;WIDTH:0.450028
G1 F600
G1 X183.724 Y127.256 E4.04408
G1 X183.193 Y127.256 E4.07218
G1 X184.144 Y128.207 E4.14335
G1 X184.144 Y128.737 E4.1714
G1 X182.663 Y127.256 E4.28224
G1 X182.133 Y127.256 E4.31029
G1 X184.144 Y129.267 E4.46079
G1 X184.144 Y129.797 E4.48884
G1 X181.603 Y127.256 E4.679
G1 X181.072 Y127.256 E4.7071
G1 X184.144 Y130.328 E4.937
G1 X184.144 Y130.858 E4.96505
G1 X180.542 Y127.256 E5.23462
G1 X180.012 Y127.256 E5.26267
G1 X184.144 Y131.388 E5.5719
G1 X184.144 Y131.918 E5.59995
G1 X179.482 Y127.256 E5.94885
G1 X178.952 Y127.256 E5.9769
G1 X184.144 Y132.448 E6.36546
G1 X184.144 Y132.979 E6.39356
G1 X178.421 Y127.256 E6.82186
G1 X177.891 Y127.256 E6.84991
G1 X184.144 Y133.509 E7.31787
G1 X184.144 Y134.039 E7.34592
G1 X177.361 Y127.256 E7.85355
G1 X176.831 Y127.256 E7.8816
G1 X184.144 Y134.569 E8.42889
G1 X184.144 Y135.099 E8.45694
G1 X176.301 Y127.256 E9.0439
G1 X175.77 Y127.256 E9.072
G1 X184.144 Y135.63 E9.6987
G1 X184.144 Y136.16 E9.72675
G1 X175.24 Y127.256 E10.39311
G1 X174.71 Y127.256 E10.42116
G1 X184.144 Y136.69 E11.12718
G1 X184.144 Y137.22 E11.15523
G1 X174.18 Y127.256 E11.90092
G1 X173.65 Y127.256 E11.92897
G1 X184.144 Y137.75 E12.71432
G1 X184.144 Y138.281 E12.74242
G1 X173.119 Y127.256 E13.56751
G1 X172.589 Y127.256 E13.59556
G1 X184.144 Y138.811 E14.46032
G1 X184.144 Y139.341 E14.48837
G1 X172.059 Y127.256 E15.39279
G1 X171.529 Y127.256 E15.42084
G1 X184.144 Y139.871 E16.36493
G1 X184.144 Y140.402 E16.39303
G1 X170.998 Y127.256 E17.37685
G1 X170.468 Y127.256 E17.4049
G1 X184.144 Y140.932 E18.42839
G1 X184.144 Y141.462 E18.45644
G1 X169.938 Y127.256 E19.51959
G1 X169.408 Y127.256 E19.54764
G1 X184.144 Y141.992 E20.65046
G1 X184.144 Y142.522 E20.67851
G1 X168.878 Y127.256 E21.82099
G1 X168.347 Y127.256 E21.84909
G1 X184.144 Y143.053 E23.03131
G1 X184.144 Y143.583 E23.05936
G1 X167.817 Y127.256 E24.28124
G1 X167.287 Y127.256 E24.30929
G1 X184.144 Y144.113 E25.57084
G1 X184.144 Y144.643 E25.59889
G1 X166.757 Y127.256 E26.9001
G1 X166.227 Y127.256 E26.92815
G1 X184.144 Y145.173 E28.26903
G1 X184.144 Y145.704 E28.29713
G1 X165.696 Y127.256 E29.67775
G1 X165.166 Y127.256 E29.7058
G1 X184.144 Y146.234 E31.12608
G1 X184.144 Y146.764 E31.15413
G1 X164.636 Y127.256 E32.61408
G1 X164.106 Y127.256 E32.64213
G1 X184.144 Y147.294 E34.14174
G1 X184.144 Y147.825 E34.16984
G1 X163.575 Y127.256 E35.70919
G1 X163.045 Y127.256 E35.73724
G1 X184.144 Y148.355 E37.31625
G1 X184.144 Y148.885 E37.3443
G1 X162.515 Y127.256 E38.96298
G1 X161.985 Y127.256 E38.99103
G1 X184.144 Y149.415 E40.64937
G1 X184.144 Y149.945 E40.67742
G1 X161.455 Y127.256 E42.37543
G1 X160.924 Y127.256 E42.40353
G1 X184.144 Y150.476 E44.14128
G1 X184.144 Y151.006 E44.16933
G1 X160.394 Y127.256 E45.94674
G1 X159.864 Y127.256 E45.97479
G1 X184.144 Y151.536 E47.79186
G1 X184.144 Y152.066 E47.81991
G1 X159.334 Y127.256 E49.67665
G1 X158.804 Y127.256 E49.7047
G1 X184.144 Y152.596 E51.6011
G1 X184.144 Y153.127 E51.6292
G1 X158.273 Y127.256 E53.56534
G1 X157.743 Y127.256 E53.59339
G1 X184.144 Y153.657 E55.5692
G1 X184.144 Y154.187 E55.59725
G1 X157.213 Y127.256 E57.61272
G1 X156.683 Y127.256 E57.64077
G1 X184.144 Y154.717 E59.6959
G1 X184.144 Y155.248 E59.724
G1 X156.152 Y127.256 E61.81887
G1 X155.622 Y127.256 E61.84692
G1 X184.144 Y155.778 E63.98146
G1 X184.144 Y156.308 E64.00951
G1 X155.092 Y127.256 E66.18371
G1 X154.562 Y127.256 E66.21176
G1 X184.144 Y156.838 E68.42563
G1 X184.144 Y157.368 E68.45368
G1 X154.032 Y127.256 E70.70721
G1 X153.501 Y127.256 E70.73531
G1 X184.144 Y157.899 E73.02858
G1 X184.144 Y158.429 E73.05663
G1 X152.971 Y127.256 E75.38956
G1 X152.441 Y127.256 E75.41761
G1 X184.144 Y158.959 E77.79021
G1 X184.144 Y159.489 E77.81826
G1 X151.911 Y127.256 E80.23052
G1 X151.381 Y127.256 E80.25857
G1 X184.144 Y160.019 E82.7105
G1 X184.144 Y160.55 E82.7386
G1 X150.85 Y127.256 E85.23027
G1 X150.32 Y127.256 E85.25832
G1 X184.144 Y161.08 E87.78965
G1 X184.144 Y161.61 E87.8177
G1 X149.79 Y127.256 E90.3887
G1 X149.26 Y127.256 E90.41675
G1 X184.144 Y162.14 E93.02741
G1 X184.144 Y162.67 E93.05546
G1 X148.73 Y127.256 E95.70578
G1 X148.199 Y127.256 E95.73388
G1 X184.144 Y163.201 E98.42394
G1 X184.144 Y163.731 E98.45199
G1 X147.669 Y127.256 E101.18172
G1 X147.139 Y127.256 E101.20977
G1 X184.144 Y164.261 E103.97916
G1 X184.144 Y164.791 E104.00721
G1 X146.609 Y127.256 E106.81627
G1 X146.078 Y127.256 E106.84437
G1 X184.144 Y165.322 E109.69316
G1 X184.144 Y165.852 E109.72121
G1 X145.548 Y127.256 E112.60967
G1 X145.018 Y127.256 E112.63772
G1 X184.144 Y166.382 E115.56584
G1 X184.144 Y166.912 E115.59389
G1 X144.488 Y127.256 E118.56168
G1 X143.958 Y127.256 E118.58973
G1 X184.144 Y167.442 E121.59718
G1 X184.144 Y167.973 E121.62528
G1 X143.427 Y127.256 E124.67247
G1 X142.897 Y127.256 E124.70052
G1 X184.144 Y168.503 E127.78738
G1 X184.144 Y169.033 E127.81543
G1 X142.367 Y127.256 E130.94195
G1 X141.837 Y127.256 E130.97
G1 X184.144 Y169.563 E134.13618
G1 X184.144 Y170.093 E134.16423
G1 X141.307 Y127.256 E137.37008
G1 X140.776 Y127.256 E137.39818
G1 X184.144 Y170.624 E140.64377
G1 X184.144 Y171.154 E140.67182
G1 X140.246 Y127.256 E143.95707
G1 X139.716 Y127.256 E143.98512
G1 X184.144 Y171.684 E147.31004
G1 X184.144 Y172.214 E147.33809
G1 X139.186 Y127.256 E150.70267
G1 X138.655 Y127.256 E150.73077
G1 X184.144 Y172.744 E154.13505
G1 X183.613 Y172.744 E154.16315
G1 X138.125 Y127.256 E157.56739
G1 X137.595 Y127.256 E157.59544
G1 X183.083 Y172.744 E160.99968
G1 X182.553 Y172.744 E161.02773
G1 X137.065 Y127.256 E164.43197
G1 X136.535 Y127.256 E164.46002
G1 X182.023 Y172.744 E167.86426
G1 X181.493 Y172.744 E167.89231
G1 X136.004 Y127.256 E171.29659
G1 X135.474 Y127.256 E171.32464
G1 X180.962 Y172.744 E174.72888
G1 X180.432 Y172.744 E174.75693
G1 X134.944 Y127.256 E178.16117
G1 X134.414 Y127.256 E178.18922
G1 X179.902 Y172.744 E181.59346
G1 X179.372 Y172.744 E181.62151
G1 X133.884 Y127.256 E185.02575
G1 X133.353 Y127.256 E185.05385
G1 X178.841 Y172.744 E188.45809
G1 X178.311 Y172.744 E188.48614
G1 X132.823 Y127.256 E191.89038
G1 X132.293 Y127.256 E191.91843
G1 X177.781 Y172.744 E195.32267
G1 X177.251 Y172.744 E195.35072
G1 X131.763 Y127.256 E198.75496
G1 X131.232 Y127.256 E198.78306
G1 X176.721 Y172.744 E202.18734
G1 X176.19 Y172.744 E202.21544
G1 X130.702 Y127.256 E205.61968
G1 X130.172 Y127.256 E205.64773
G1 X175.66 Y172.744 E209.05197
G1 X175.13 Y172.744 E209.08002
G1 X129.642 Y127.256 E212.48426
G1 X129.112 Y127.256 E212.51231
G1 X174.6 Y172.744 E215.91655
G1 X174.07 Y172.744 E215.9446
G1 X128.581 Y127.256 E219.34888
G1 X128.051 Y127.256 E219.37693
G1 X173.539 Y172.744 E222.78117
G1 X173.009 Y172.744 E222.80922
G1 X127.521 Y127.256 E226.21346
G1 X126.991 Y127.256 E226.24151
G1 X172.479 Y172.744 E229.64575
G1 X171.949 Y172.744 E229.6738
G1 X126.461 Y127.256 E233.07804
G1 X125.93 Y127.256 E233.10614
G1 X171.418 Y172.744 E236.51038
G1 X170.888 Y172.744 E236.53843
G1 X125.4 Y127.256 E239.94267
G1 X124.87 Y127.256 E239.97072
G1 X170.358 Y172.744 E243.37496
G1 X169.828 Y172.744 E243.40301
G1 X124.34 Y127.256 E246.80725
G1 X123.81 Y127.256 E246.8353
G1 X169.298 Y172.744 E250.23954
G1 X168.767 Y172.744 E250.26764
G1 X123.279 Y127.256 E253.67188
G1 X122.749 Y127.256 E253.69993
G1 X168.237 Y172.744 E257.10417
G1 X167.707 Y172.744 E257.13222
G1 X122.219 Y127.256 E260.53646
G1 X121.689 Y127.256 E260.56451
G1 X167.177 Y172.744 E263.96875
G1 X166.647 Y172.744 E263.9968
G1 X121.158 Y127.256 E267.40108
G1 X120.628 Y127.256 E267.42913
G1 X166.116 Y172.744 E270.83337
G1 X165.586 Y172.744 E270.86142
G1 X120.098 Y127.256 E274.26566
G1 X119.568 Y127.256 E274.29371
G1 X165.056 Y172.744 E277.69795
G1 X164.526 Y172.744 E277.726
G1 X119.038 Y127.256 E281.13024
G1 X118.507 Y127.256 E281.15834
G1 X163.996 Y172.744 E284.56262
G1 X163.465 Y172.744 E284.59072
G1 X117.977 Y127.256 E287.99496
G1 X117.447 Y127.256 E288.02301
G1 X162.935 Y172.744 E291.42725
G1 X162.405 Y172.744 E291.4553
G1 X116.917 Y127.256 E294.85954
G1 X116.387 Y127.256 E294.88759
G1 X161.875 Y172.744 E298.29183
G1 X161.344 Y172.744 E298.31993
G1 X115.856 Y127.256 E301.72417
G1 X115.856 Y127.786 E301.75222
G1 X160.814 Y172.744 E305.1168
G1 X160.284 Y172.744 E305.14485
G1 X115.856 Y128.316 E308.46977
G1 X115.856 Y128.846 E308.49782
G1 X159.754 Y172.744 E311.78307
G1 X159.224 Y172.744 E311.81112
G1 X115.856 Y129.376 E315.05671
G1 X115.856 Y129.907 E315.08481
G1 X158.693 Y172.744 E318.29066
G1 X158.163 Y172.744 E318.31871
G1 X115.856 Y130.437 E321.48489
G1 X115.856 Y130.967 E321.51294
G1 X157.633 Y172.744 E324.63946
G1 X157.103 Y172.744 E324.66751
G1 X115.856 Y131.497 E327.75437
G1 X115.856 Y132.027 E327.78242
G1 X156.573 Y172.744 E330.82961
G1 X156.042 Y172.744 E330.85771
G1 X115.856 Y132.558 E333.86516
G1 X115.856 Y133.088 E333.89321
G1 X155.512 Y172.744 E336.861
G1 X154.982 Y172.744 E336.88905
G1 X115.856 Y133.618 E339.81717
G1 X115.856 Y134.148 E339.84522
G1 X154.452 Y172.744 E342.73368
G1 X153.921 Y172.744 E342.76178
G1 X115.856 Y134.679 E345.6105
G1 X115.856 Y135.209 E345.63855
G1 X153.391 Y172.744 E348.44761
G1 X152.861 Y172.744 E348.47566
G1 X115.856 Y135.739 E351.24505
G1 X115.856 Y136.269 E351.2731
G1 X152.331 Y172.744 E354.00283
G1 X151.801 Y172.744 E354.03088
G1 X115.856 Y136.799 E356.72094
G1 X115.856 Y137.33 E356.74904
G1 X151.27 Y172.744 E359.39936
