; generated by PrusaSlicer 2.7.4+win64 on 2024-10-29 at 05:00:21 UTC


;
;

;
;
; 

; external perimeters extrusion width = 0.42mm
; perimeters extrusion width = 0.42mm
; infill extrusion width = 0.42mm
; solid infill extrusion width = 0.42mm
; top infill extrusion width = 0.42mm
; first layer extrusion width = 0.45mm

M190 S80 ; set bed temperature and wait for it to be reached
M104 S230 ; set temperature
;TYPE:Custom
G28 ; home all axes
G1 Z5 F5000 ; lift nozzle
M109 S230 ; set temperature and wait for it to be reached
G21 ; set units to millimeters
G90 ; use absolute coordinates
M82 ; use absolute distances for extrusion
G92 E0
; Filament gcode
G1 X10 Y10 Z0.2 F3000
G1 X110 E15 F600
G1 X10 E15 F600
M107
;LAYER_CHANGE
;Z:0.35
;HEIGHT:0.35
G1 E-4 F1800
G1 Z.65 F12000
G1 X111.755 Y124.778
G1 Z.35
G1 E0 F1800
;TYPE:Skirt/Brim
;WIDTH:0.45
G1 X112.249 Y124.515 E.02961
G1 X113.102 Y124.288 E.07632
G1 X186.897 Y124.292 E3.98117
G1 X187.68 Y124.485 E4.02384
G1 X188.451 Y124.932 E4.071
G1 X190.618 Y127.121 E4.23399
G1 X190.98 Y127.735 E4.27171
G1 X191.212 Y128.602 E4.3192
G1 X191.212 Y179.553 E7.01526
G1 X191.018 Y180.375 E7.05995
G1 X190.595 Y181.115 E7.10505
G1 X188.245 Y183.422 E7.27931
G1 X187.751 Y183.685 E7.30892
G1 X186.898 Y183.912 E7.35563
G1 X113.147 Y183.912 E11.25815
G1 X112.325 Y183.718 E11.30284
G1 X111.585 Y183.295 E11.34794
G1 X109.278 Y180.945 E11.5222
G1 X109.015 Y180.451 E11.55181
G1 X108.788 Y179.598 E11.59852
G1 X108.788 Y128.647 E14.29458
G1 X108.982 Y127.825 E14.33927
G1 X109.405 Y127.085 E14.38437
G1 X111.713 Y124.82 E14.55548
G1 X111.713 Y124.82 F12000
G1 X111.958 Y125.094
G1 F1800
G1 X112.371 Y124.871 E14.58032
G1 X113.128 Y124.663 E14.62186
G1 X186.874 Y124.667 E18.52411
G1 X187.517 Y124.824 E18.55913
G1 X188.204 Y125.215 E18.60096
G1 X190.309 Y127.334 E18.75901
G1 X190.626 Y127.86 E18.79151
G1 X190.837 Y128.628 E18.83365
G1 X190.837 Y179.532 E21.52722
G1 X190.679 Y180.213 E21.56421
G1 X190.283 Y180.906 E21.60644
G1 X188.042 Y183.106 E21.77261
G1 X187.629 Y183.329 E21.79745
G1 X186.872 Y183.537 E21.83899
G1 X113.168 Y183.537 E25.73902
G1 X112.487 Y183.379 E25.77601
G1 X111.794 Y182.983 E25.81824
G1 X109.594 Y180.742 E25.98441
G1 X109.371 Y180.329 E26.00925
G1 X109.163 Y179.572 E26.05079
G1 X109.163 Y128.668 E28.74436
G1 X109.321 Y127.987 E28.78135
G1 X109.717 Y127.294 E28.82358
G1 X111.915 Y125.136 E28.98657
G1 X111.915 Y125.136 F12000
G1 X112.162 Y125.409
G1 F1800
G1 X112.495 Y125.225 E29.0067
G1 X113.155 Y125.038 E29.043
G1 X186.852 Y125.042 E32.94266
G1 X187.358 Y125.164 E32.9702
G1 X187.957 Y125.499 E33.00652
G1 X190.002 Y127.55 E33.15978
G1 X190.273 Y127.989 E33.18708
G1 X190.462 Y128.655 E33.22371
G1 X190.462 Y179.511 E35.91474
G1 X190.338 Y180.054 E35.94421
G1 X190 Y180.659 E35.98088
G1 X187.838 Y182.791 E36.14155
G1 X187.505 Y182.975 E36.16168
G1 X186.845 Y183.162 E36.19798
G1 X113.189 Y183.162 E40.09547
G1 X112.646 Y183.038 E40.12494
G1 X112.041 Y182.7 E40.16161
G1 X109.909 Y180.538 E40.32228
G1 X109.725 Y180.205 E40.34241
G1 X109.538 Y179.545 E40.37871
G1 X109.538 Y128.689 E43.06974
G1 X109.662 Y128.146 E43.09921
G1 X110 Y127.541 E43.13588
G1 X112.12 Y125.451 E43.29341
G1 X112.12 Y125.451 F12000
G1 X112.37 Y125.722
G1 F1800
G1 X113.183 Y125.413 E43.33943
G1 X186.831 Y125.417 E47.2365
G1 X187.201 Y125.505 E47.25662
G1 X187.712 Y125.784 E47.28743
G1 X189.698 Y127.77 E47.43605
G1 X189.922 Y128.122 E47.45813
G1 X190.087 Y128.683 E47.48907
G1 X190.087 Y179.491 E50.17756
G1 X189.996 Y179.899 E50.19968
G1 X189.716 Y180.413 E50.23065
G1 X187.63 Y182.478 E50.38597
G1 X186.817 Y182.787 E50.43199
G1 X113.209 Y182.787 E54.32694
G1 X112.801 Y182.696 E54.34906
G1 X112.288 Y182.416 E54.37999
G1 X110.222 Y180.33 E54.53534
G1 X109.913 Y179.517 E54.58136
G1 X109.913 Y128.709 E57.26985
G1 X110.004 Y128.301 E57.29197
G1 X110.284 Y127.788 E57.3229
G1 X112.328 Y125.764 E57.47511
G1 X112.328 Y125.764 F12000
G1 X112.582 Y126.032
G1 F1800
G1 X113.212 Y125.788 E57.51086
G1 X186.809 Y125.792 E61.40523
G1 X187.468 Y126.069 E61.44306
G1 X189.419 Y128.021 E61.5891
G1 X189.712 Y128.712 E61.62882
G1 X189.712 Y179.472 E64.31477
G1 X189.43 Y180.168 E64.35451
G1 X187.418 Y182.168 E64.50463
G1 X186.788 Y182.412 E64.54038
G1 X113.228 Y182.412 E68.43279
G1 X112.532 Y182.13 E68.47253
G1 X110.532 Y180.118 E68.62265
G1 X110.288 Y179.488 E68.6584
G1 X110.288 Y128.728 E71.34435
G1 X110.57 Y128.032 E71.38409
G1 X112.54 Y126.074 E71.53106
G1 X112.54 Y126.074 F12000
G1 X112.799 Y126.338
G1 F1800
G1 X113.244 Y126.163 E71.55636
G1 X186.787 Y126.166 E75.44787
G1 X187.225 Y126.357 E75.47315
G1 X189.141 Y128.273 E75.61653
G1 X189.337 Y128.744 E75.64352
G1 X189.337 Y179.453 E78.32677
G1 X189.143 Y179.925 E78.35377
G1 X187.201 Y181.862 E78.49891
G1 X186.756 Y182.037 E78.52421
G1 X113.247 Y182.037 E82.41392
G1 X112.775 Y181.843 E82.44092
G1 X110.838 Y179.901 E82.58606
G1 X110.663 Y179.456 E82.61136
G1 X110.663 Y128.747 E85.29461
G1 X110.857 Y128.275 E85.32161
G1 X112.757 Y126.38 E85.46361
G1 X112.757 Y126.38 F12000
G1 X113.02 Y126.643
G1 F1800
G1 X113.026 Y126.637 E85.46406
G1 X113.278 Y126.538 E85.47839
G1 X186.767 Y126.544 E89.36704
G1 X186.984 Y126.647 E89.37975
G1 X188.863 Y128.526 E89.52036
G1 X188.962 Y128.778 E89.53469
G1 X188.962 Y179.436 E92.21525
G1 X188.853 Y179.684 E92.22958
G1 X186.974 Y181.563 E92.37019
G1 X186.722 Y181.662 E92.38452
G1 X113.264 Y181.662 E96.27153
G1 X113.016 Y181.553 E96.28586
G1 X111.137 Y179.674 E96.42647
G1 X111.038 Y179.422 E96.4408
G1 X111.038 Y128.764 E99.12136
G1 X111.147 Y128.516 E99.13569
G1 X112.977 Y126.685 E99.27267
G1 X112.977 Y126.685 F12000
G1 X113.245 Y126.947
G1 F1800
G1 X113.251 Y126.941 E99.27312
G1 X186.68 Y126.913 E103.1586
G1 X188.587 Y128.82 E103.30131
G1 X188.587 Y179.38 E105.97668
G1 X186.749 Y181.259 E106.11577
G1 X113.32 Y181.287 E110.00125
G1 X111.441 Y179.449 E110.14034
G1 X111.413 Y128.82 E112.81936
G1 X113.203 Y126.99 E112.95482
G1 E108.95482
G92 E0
G1 X113.203 Y126.99 Z.65 F12000
G92 E0
G1 X183.895 Y177.125
G1 Z.35
G1 E4 F1800
;TYPE:Perimeter
;WIDTH:0.45
G1 F1200
G1 X115.575 Y177.125 E7.61513
G1 X115.575 Y131.075 E10.05185
G1 X184.425 Y131.075 E13.69503
G1 X184.425 Y137.82 E14.05194
G1 X184.425 Y177.125 E16.13175
G1 X183.955 Y177.125 E16.15662
G1 X183.955 Y177.125 F12000
G1 X184.35 Y177.5
G1 F1200
G1 X115.2 Y177.5 E19.81567
G1 X115.2 Y130.7 E22.29208
G1 X184.8 Y130.7 E25.97494
G1 X184.8 Y137.82 E26.35169
G1 X184.8 Y177.5 E28.45135
G1 X184.41 Y177.5 E28.47199
G1 X184.41 Y177.5 F12000
G1 X185.175 Y177.875
;TYPE:External perimeter
G1 F600
G1 X114.825 Y177.875 E32.19454
G1 X114.825 Y130.325 E34.71063
G1 X185.175 Y130.325 E38.43318
G1 X185.175 Y137.82 E38.82978
G1 X185.175 Y177.815 E40.9461
G1 X184.779 Y177.874 F12000
G1 E36.9461 F1800
G92 E0
G1 Z.65 F12000
G1 X172.575 Y169.389
G1 Z.35
G1 E4 F1800
;TYPE:Perimeter
G1 F1200
G1 X172.575 Y169.638 E4.01318
G1 X172.52 Y169.953 E4.0301
G1 X172.39 Y170.196 E4.04468
G1 X172.156 Y170.418 E4.06175
G1 X171.799 Y170.561 E4.0821
G1 X171.638 Y170.575 E4.09065
G1 X128.362 Y170.575 E6.38059
G1 X128 Y170.502 E6.40013
G1 X127.713 Y170.313 E6.41831
G1 X127.533 Y170.074 E6.43414
G1 X127.431 Y169.738 E6.45272
G1 X127.425 Y169.638 E6.45802
G1 X127.425 Y142.562 E7.89074
G1 X127.48 Y142.248 E7.90761
G1 X127.625 Y141.984 E7.92355
G1 X127.841 Y141.784 E7.93913
G1 X128.138 Y141.653 E7.95631
G1 X128.362 Y141.625 E7.96826
G1 X171.638 Y141.625 E10.2582
G1 X171.968 Y141.686 E10.27596
G1 X172.241 Y141.845 E10.29268
G1 X172.431 Y142.064 E10.30802
G1 X172.561 Y142.401 E10.32713
G1 X172.575 Y142.562 E10.33568
G1 X172.575 Y169.329 E11.75205
G1 X172.575 Y169.329 F12000
G1 X172.18 Y169.719
G1 F1200
G1 X172.135 Y169.899 E11.76187
G1 X171.949 Y170.106 E11.7766
G1 X171.735 Y170.191 E11.78878
G1 X171.638 Y170.2 E11.79393
G1 X128.362 Y170.2 E14.08387
G1 X128.145 Y170.156 E14.09559
G1 X127.911 Y169.973 E14.11131
G1 X127.803 Y169.698 E14.12694
G1 X127.8 Y169.638 E14.13012
G1 X127.8 Y142.562 E15.56284
G1 X127.857 Y142.316 E15.5762
G1 X128.049 Y142.095 E15.59169
G1 X128.294 Y142.004 E15.60552
G1 X128.362 Y142 E15.60912
G1 X171.638 Y142 E17.89906
G1 X171.896 Y142.063 E17.91311
G1 X172.08 Y142.215 E17.92574
G1 X172.191 Y142.465 E17.94021
G1 X172.2 Y142.562 E17.94536
G1 X172.2 Y169.638 E19.37808
G1 X172.194 Y169.661 E19.37934
G1 X172.194 Y169.661 F12000
G1 X171.638 Y169.825
;TYPE:External perimeter
G1 F600
G1 X128.362 Y169.825 E21.66928
G1 X128.233 Y169.773 E21.67664
G1 X128.175 Y169.638 E21.68441
G1 X128.175 Y142.562 E23.11713
G1 X128.242 Y142.419 E23.12549
G1 X128.362 Y142.375 E23.13225
G1 X171.638 Y142.375 E25.42219
G1 X171.773 Y142.432 E25.42994
G1 X171.825 Y142.562 E25.43735
G1 X171.825 Y169.638 E26.87007
G1 X171.767 Y169.773 E26.87784
G1 X171.693 Y169.803 E26.88207
G1 X171.294 Y169.822 F12000
G1 E22.88207 F1800
G92 E0
G1 Z.65 F12000
G1 X184.313 Y131.945
G1 Z.35
G1 E4 F1800
;TYPE:Solid infill
;WIDTH:0.450028
G1 F600
G1 X183.724 Y131.356 E4.04408
G1 X183.193 Y131.356 E4.07218
G1 X184.144 Y132.307 E4.14335
G1 X184.144 Y132.837 E4.1714
G1 X182.663 Y131.356 E4.28224
G1 X182.133 Y131.356 E4.31029
G1 X184.144 Y133.367 E4.46079
G1 X184.144 Y133.897 E4.48884
G1 X181.603 Y131.356 E4.679
G1 X181.072 Y131.356 E4.7071
G1 X184.144 Y134.428 E4.937
G1 X184.144 Y134.958 E4.96505
G1 X180.542 Y131.356 E5.23462
G1 X180.012 Y131.356 E5.26267
G1 X184.144 Y135.488 E5.5719
G1 X184.144 Y136.018 E5.59995
G1 X179.482 Y131.356 E5.94885
G1 X178.952 Y131.356 E5.9769
G1 X184.144 Y136.548 E6.36546
G1 X184.144 Y137.079 E6.39356
G1 X178.421 Y131.356 E6.82186
G1 X177.891 Y131.356 E6.84991
G1 X184.144 Y137.609 E7.31787
G1 X184.144 Y138.139 E7.34592
G1 X177.361 Y131.356 E7.85355
G1 X176.831 Y131.356 E7.8816
G1 X184.144 Y138.669 E8.42889
G1 X184.144 Y139.199 E8.45694
G1 X176.301 Y131.356 E9.0439
G1 X175.77 Y131.356 E9.072
G1 X184.144 Y139.73 E9.6987
G1 X184.144 Y140.26 E9.72675
G1 X175.24 Y131.356 E10.39311
G1 X174.71 Y131.356 E10.42116
G1 X184.144 Y140.79 E11.12718
G1 X184.144 Y141.32 E11.15523
G1 X174.18 Y131.356 E11.90092
G1 X173.65 Y131.356 E11.92897
G1 X184.144 Y141.85 E12.71432
G1 X184.144 Y142.381 E12.74242
G1 X173.119 Y131.356 E13.56751
G1 X172.589 Y131.356 E13.59556
G1 X184.144 Y142.911 E14.46032
G1 X184.144 Y143.441 E14.48837
G1 X172.059 Y131.356 E15.39279
G1 X171.529 Y131.356 E15.42084
G1 X184.144 Y143.971 E16.36493
G1 X184.144 Y144.502 E16.39303
G1 X170.998 Y131.356 E17.37685
G1 X170.468 Y131.356 E17.4049
G1 X184.144 Y145.032 E18.42839
G1 X184.144 Y145.562 E18.45644
G1 X169.938 Y131.356 E19.51959
G1 X169.408 Y131.356 E19.54764
G1 X184.144 Y146.092 E20.65046
G1 X184.144 Y146.622 E20.67851
G1 X168.878 Y131.356 E21.82099
G1 X168.347 Y131.356 E21.84909
G1 X184.144 Y147.153 E23.03131
G1 X184.144 Y147.683 E23.05936
G1 X167.817 Y131.356 E24.28124
G1 X167.287 Y131.356 E24.30929
G1 X184.144 Y148.213 E25.57084
G1 X184.144 Y148.743 E25.59889
G1 X166.757 Y131.356 E26.9001
G1 X166.227 Y131.356 E26.92815
G1 X184.144 Y149.273 E28.26903
G1 X184.144 Y149.804 E28.29713
G1 X165.696 Y131.356 E29.67775
G1 X165.166 Y131.356 E29.7058
G1 X184.144 Y150.334 E31.12608
G1 X184.144 Y150.864 E31.15413
G1 X164.636 Y131.356 E32.61408
G1 X164.106 Y131.356 E32.64213
G1 X184.144 Y151.394 E34.14174
G1 X184.144 Y151.925 E34.16984
G1 X163.575 Y131.356 E35.70919
G1 X163.045 Y131.356 E35.73724
G1 X184.144 Y152.455 E37.31625
G1 X184.144 Y152.985 E37.3443
G1 X162.515 Y131.356 E38.96298
G1 X161.985 Y131.356 E38.99103
G1 X184.144 Y153.515 E40.64937
G1 X184.144 Y154.045 E40.67742
G1 X172.856 Y142.757 E41.52219
G1 X172.856 Y143.287 E41.55024
G1 X184.144 Y154.576 E42.39505
G1 X184.144 Y155.106 E42.4231
G1 X172.856 Y143.818 E43.26787
G1 X172.856 Y144.348 E43.29592
G1 X184.144 Y155.636 E44.14069
G1 X184.144 Y156.166 E44.16874
G1 X172.856 Y144.878 E45.01351
G1 X172.856 Y145.408 E45.04156
G1 X184.144 Y156.696 E45.88633
G1 X184.144 Y157.227 E45.91443
G1 X172.856 Y145.939 E46.7592
G1 X172.856 Y146.469 E46.78725
G1 X184.144 Y157.757 E47.63202
G1 X184.144 Y158.287 E47.66007
G1 X172.856 Y146.999 E48.50484
G1 X172.856 Y147.529 E48.53289
G1 X184.144 Y158.817 E49.37766
G1 X184.144 Y159.348 E49.40576
G1 X172.856 Y148.059 E50.25057
G1 X172.856 Y148.59 E50.27867
G1 X184.144 Y159.878 E51.12344
G1 X184.144 Y160.408 E51.15149
G1 X172.856 Y149.12 E51.99626
G1 X172.856 Y149.65 E52.02431
G1 X184.144 Y160.938 E52.86908
G1 X184.144 Y161.468 E52.89713
G1 X172.856 Y150.18 E53.7419
G1 X172.856 Y150.71 E53.76995
G1 X184.144 Y161.999 E54.61476
G1 X184.144 Y162.529 E54.64281
G1 X172.856 Y151.241 E55.48758
G1 X172.856 Y151.771 E55.51563
G1 X184.144 Y163.059 E56.3604
G1 X184.144 Y163.589 E56.38845
G1 X172.856 Y152.301 E57.23322
G1 X172.856 Y152.831 E57.26127
G1 X184.144 Y164.119 E58.10604
G1 X184.144 Y164.65 E58.13414
G1 X172.856 Y153.362 E58.97891
G1 X172.856 Y153.892 E59.00696
G1 X184.144 Y165.18 E59.85173
G1 X184.144 Y165.71 E59.87978
G1 X172.856 Y154.422 E60.72455
G1 X172.856 Y154.952 E60.7526
G1 X184.144 Y166.24 E61.59737
G1 X184.144 Y166.77 E61.62542
G1 X172.856 Y155.482 E62.47019
G1 X172.856 Y156.013 E62.49829
G1 X184.144 Y167.301 E63.34306
G1 X184.144 Y167.831 E63.37111
G1 X172.856 Y156.543 E64.21588
G1 X172.856 Y157.073 E64.24393
G1 X184.144 Y168.361 E65.0887
G1 X184.144 Y168.891 E65.11675
G1 X172.856 Y157.603 E65.96152
G1 X172.856 Y158.133 E65.98957
G1 X184.144 Y169.422 E66.83438
G1 X184.144 Y169.952 E66.86243
G1 X172.856 Y158.664 E67.7072
G1 X172.856 Y159.194 E67.73525
G1 X184.144 Y170.482 E68.58002
G1 X184.144 Y171.012 E68.60807
G1 X172.856 Y159.724 E69.45284
G1 X172.856 Y160.254 E69.48089
G1 X184.144 Y171.542 E70.32566
G1 X184.144 Y172.073 E70.35376
G1 X172.856 Y160.785 E71.19853
G1 X172.856 Y161.315 E71.22658
G1 X184.144 Y172.603 E72.07135
G1 X184.144 Y173.133 E72.0994
G1 X172.856 Y161.845 E72.94417
G1 X172.856 Y162.375 E72.97222
G1 X184.144 Y173.663 E73.81699
G1 X184.144 Y174.193 E73.84504
G1 X172.856 Y162.905 E74.68981
G1 X172.856 Y163.436 E74.71791
G1 X184.144 Y174.724 E75.56268
G1 X184.144 Y175.254 E75.59073
G1 X172.856 Y163.966 E76.4355
G1 X172.856 Y164.496 E76.46355
G1 X184.144 Y175.784 E77.30832
G1 X184.144 Y176.314 E77.33637
G1 X172.856 Y165.026 E78.18114
G1 X172.856 Y165.556 E78.20919
G1 X184.144 Y176.844 E79.05396
G1 X183.613 Y176.844 E79.08206
G1 X172.856 Y166.087 E79.8871
G1 X172.856 Y166.617 E79.91515
G1 X183.083 Y176.844 E80.68052
G1 X182.553 Y176.844 E80.70857
G1 X172.856 Y167.147 E81.43428
G1 X172.856 Y167.677 E81.46233
G1 X182.023 Y176.844 E82.14837
G1 X181.493 Y176.844 E82.17642
G1 X172.856 Y168.207 E82.8228
G1 X172.856 Y168.738 E82.8509
G1 X180.962 Y176.844 E83.45754
G1 X180.432 Y176.844 E83.48559
G1 X172.856 Y169.268 E84.05256
G1 X172.843 Y169.786 E84.07998
G1 X179.902 Y176.844 E84.60823
G1 X179.372 Y176.844 E84.63628
G1 X172.713 Y170.185 E85.13463
G1 X172.618 Y170.362 E85.14526
G1 X172.497 Y170.499 E85.15493
G1 X178.841 Y176.844 E85.62974
G1 X178.311 Y176.844 E85.65779
G1 X172.187 Y170.72 E86.1161
G1 X171.88 Y170.832 E86.13339
G1 X171.779 Y170.842 E86.13876
G1 X177.781 Y176.844 E86.58794
G1 X177.251 Y176.844 E86.61599
G1 X171.263 Y170.856 E87.06412
G1 X170.732 Y170.856 E87.09222
G1 X176.721 Y176.844 E87.54039
G1 X176.19 Y176.844 E87.56849
G1 X170.202 Y170.856 E88.01662
G1 X169.672 Y170.856 E88.04467
G1 X175.66 Y176.844 E88.4928
G1 X175.13 Y176.844 E88.52085
G1 X169.142 Y170.856 E88.96898
G1 X168.612 Y170.856 E88.99703
G1 X174.6 Y176.844 E89.44516
G1 X174.07 Y176.844 E89.47321
G1 X168.081 Y170.856 E89.92138
G1 X167.551 Y170.856 E89.94943
G1 X173.539 Y176.844 E90.39756
G1 X173.009 Y176.844 E90.42561
G1 X167.021 Y170.856 E90.87374
G1 X166.491 Y170.856 E90.90179
G1 X172.479 Y176.844 E91.34992
G1 X171.949 Y176.844 E91.37797
G1 X165.961 Y170.856 E91.8261
G1 X165.43 Y170.856 E91.8542
G1 X171.418 Y176.844 E92.30233
G1 X170.888 Y176.844 E92.33038
G1 X164.9 Y170.856 E92.77851
G1 X164.37 Y170.856 E92.80656
G1 X170.358 Y176.844 E93.25469
G1 X169.828 Y176.844 E93.28274
G1 X163.84 Y170.856 E93.73087
G1 X163.31 Y170.856 E93.75892
G1 X169.298 Y176.844 E94.20705
G1 X168.767 Y176.844 E94.23515
G1 X162.779 Y170.856 E94.68328
G1 X162.249 Y170.856 E94.71133
G1 X168.237 Y176.844 E95.15946
G1 X167.707 Y176.844 E95.18751
